;FLAVOR:Marlin
;TIME:367
;Filament used: 0.353346m
;Layer height: 0.28
;MINX:94.358
;MINY:94.364
;MINZ:0.28
;MAXX:135.631
;MAXY:135.637
;MAXZ:5.04
;POSTPROCESSED
;Generated with Cura_SteamEngine 4.10.0
;
;

M140 S60
M105
M190 S60
M104 S200
M105
M109 S200
M82 ;absolute extrusion mode
M501; Read values from EEPROM
M201 X500.00 Y500.00 Z100.00 E5000.00 ;Setup machine max acceleration
M203 X500.00 Y500.00 Z10.00 E50.00 ;Setup machine max feedrate
M204 P500.00 R1000.00 T500.00 ;Setup Print/Retract/Travel acceleration
M205 X8.00 Y8.00 Z0.40 E5.00 ;Setup Jerk
M220 S100 ;Reset Feedrate
M221 S100 ;Reset Flowrate

; Ender 3 Custom Start G-code
G92 E0 ; Reset Extruder
G28 ; Home all axes
M420 s1 z2; Use Level Mesh up to 2mm;
G1 Z2.0 F3000 ; Move Z Axis up little to prevent scratching of Heat Bed
G1 X0.1 Y20 Z0.3 F5000.0 ; Move to start position
G1 X0.1 Y200.0 Z0.3 F1500.0 E15 ; Draw the first line
G1 X0.4 Y200.0 Z0.3 F5000.0 ; Move to side a little
G1 X0.4 Y20 Z0.3 F1500.0 E30 ; Draw the second line
G92 E0 ; Reset Extruder
G1 Z2.0 F3000 ; Move Z Axis up little to prevent scratching of Heat Bed
G1 X5 Y20 Z0.3 F5000.0 ; Move over to prevent blob squish
G92 E0
G92 E0
G1 F2400 E-5
;LAYER_COUNT:18
;LAYER:0
M117 Layer 0 of 17 SimpleTest
M107
M204 S500
M205 X8 Y8
G0 F6000 X100.196 Y100.585 Z0.28
;TYPE:SKIRT
G1 F2400 E0
G1 F1200 X100.622 Y100.178 E0.03018
G1 X101.229 Y99.629 E0.0721
G1 X101.619 Y99.288 E0.09863
G1 X102.126 Y98.856 E0.13275
G1 X102.854 Y98.288 E0.18005
G1 X103.32 Y97.975 E0.2088
G1 X104.074 Y97.497 E0.25453
G1 X104.415 Y97.288 E0.27501
G1 X105.031 Y96.921 E0.31174
G1 X105.844 Y96.483 E0.35904
G1 X106.377 Y96.243 E0.38898
G1 X107.162 Y95.916 E0.43254
G1 X107.549 Y95.76 E0.45391
G1 X108.224 Y95.5 E0.49096
G1 X109.099 Y95.206 E0.53824
G1 X109.66 Y95.061 E0.56792
G1 X110.553 Y94.856 E0.61485
G1 X110.918 Y94.779 E0.63396
G1 X111.616 Y94.639 E0.67042
G1 X112.528 Y94.497 E0.7177
G1 X113.108 Y94.448 E0.74751
G1 X113.83 Y94.407 E0.78455
G1 X114.42 Y94.383 E0.8148
G1 X115.121 Y94.364 E0.85072
G1 X116.044 Y94.379 E0.898
G1 X116.61 Y94.428 E0.9271
G1 X117.477 Y94.527 E0.9718
G1 X117.884 Y94.58 E0.99282
G1 X118.587 Y94.68 E1.02919
G1 X119.495 Y94.85 E1.07651
G1 X120.057 Y94.996 E1.10625
G1 X120.93 Y95.251 E1.15283
G1 X121.287 Y95.362 E1.17198
G1 X121.96 Y95.578 E1.20818
G1 X122.826 Y95.898 E1.25547
G1 X123.377 Y96.148 E1.28646
G1 X124.105 Y96.504 E1.32797
G1 X124.536 Y96.722 E1.35271
G1 X125.143 Y97.038 E1.38776
G1 X125.943 Y97.499 E1.43506
G1 X126.428 Y97.826 E1.46502
G1 X127.101 Y98.31 E1.50748
G1 X127.477 Y98.59 E1.53149
G1 X128.042 Y99.021 E1.56789
G1 X128.752 Y99.613 E1.61524
G1 X129.164 Y100.009 E1.64451
G1 X129.792 Y100.647 E1.69036
G1 X130.049 Y100.916 E1.70942
G1 X130.555 Y101.459 E1.74743
G1 X131.154 Y102.161 E1.7947
G1 X131.505 Y102.636 E1.82495
G1 X132.012 Y103.367 E1.87052
G1 X132.204 Y103.652 E1.88812
G1 X132.619 Y104.285 E1.92689
G1 X133.091 Y105.079 E1.9742
G1 X133.355 Y105.603 E2.00426
G1 X133.713 Y106.368 E2.04752
G1 X133.901 Y106.786 E2.071
G1 X134.175 Y107.416 E2.10618
G1 X134.507 Y108.278 E2.1535
G1 X134.677 Y108.835 E2.18333
G1 X134.876 Y109.557 E2.22169
G1 X135.012 Y110.082 E2.24947
G1 X135.178 Y110.755 E2.28497
G1 X135.36 Y111.66 E2.33225
G1 X135.436 Y112.252 E2.36282
G1 X135.521 Y113.118 E2.40739
G1 X135.553 Y113.512 E2.42764
G1 X135.605 Y114.243 E2.46518
G1 X135.631 Y115.166 E2.51247
G1 X135.605 Y115.757 E2.54277
G1 X135.543 Y116.61 E2.58658
G1 X135.508 Y117.016 E2.60745
G1 X135.436 Y117.741 E2.64477
G1 X135.305 Y118.655 E2.69207
G1 X135.181 Y119.229 E2.72214
G1 X134.972 Y120.075 E2.76678
G1 X134.879 Y120.429 E2.78553
G1 X134.681 Y121.15 E2.82382
G1 X134.399 Y122.029 E2.87111
G1 X134.174 Y122.587 E2.90192
G1 X133.878 Y123.266 E2.93986
G1 X133.672 Y123.72 E2.9654
G1 X133.358 Y124.391 E3.00335
G1 X132.931 Y125.21 E3.05066
G1 X132.612 Y125.727 E3.08177
G1 X132.159 Y126.415 E3.12396
G1 X131.906 Y126.788 E3.14705
G1 X131.495 Y127.377 E3.18384
G1 X130.934 Y128.111 E3.23116
G1 X130.569 Y128.526 E3.25947
G1 X129.999 Y129.138 E3.3023
G1 X129.663 Y129.487 E3.32712
G1 X129.185 Y129.972 E3.362
G1 X128.833 Y130.314 E3.38713
G1 X128.041 Y130.98 E3.44014
G1 X127.348 Y131.507 E3.48473
G1 X126.996 Y131.764 E3.50706
G1 X126.416 Y132.179 E3.54358
G1 X125.643 Y132.684 E3.59088
G1 X125.165 Y132.95 E3.6189
G1 X124.574 Y133.26 E3.65308
G1 X124.101 Y133.499 E3.68023
G1 X123.381 Y133.851 E3.72128
G1 X122.535 Y134.219 E3.76853
G1 X121.966 Y134.42 E3.79944
G1 X121.109 Y134.694 E3.84552
G1 X120.734 Y134.807 E3.86559
G1 X120.059 Y135.003 E3.90159
G1 X119.162 Y135.222 E3.94888
G1 X118.585 Y135.32 E3.97886
G1 X117.713 Y135.443 E4.02397
G1 X117.284 Y135.496 E4.04611
G1 X116.617 Y135.572 E4.08049
G1 X115.696 Y135.637 E4.12778
G1 X115.117 Y135.637 E4.15744
G1 X114.318 Y135.614 E4.19838
G1 X113.804 Y135.592 E4.22473
G1 X113.106 Y135.552 E4.26054
G1 X112.188 Y135.459 E4.30781
G1 X111.625 Y135.362 E4.33707
G1 X110.746 Y135.185 E4.38299
G1 X110.395 Y135.108 E4.4014
G1 X109.651 Y134.936 E4.44051
G1 X108.761 Y134.689 E4.48782
G1 X108.217 Y134.496 E4.51739
G1 X107.429 Y134.192 E4.56065
G1 X107.048 Y134.038 E4.5817
G1 X106.356 Y133.748 E4.62013
G1 X105.521 Y133.354 E4.66742
G1 X105.008 Y133.067 E4.69753
G1 X104.327 Y132.659 E4.73819
G1 X103.886 Y132.386 E4.76476
G1 X103.31 Y132.019 E4.79974
G1 X102.553 Y131.49 E4.84704
G1 X102.106 Y131.127 E4.87654
G1 X101.467 Y130.579 E4.91966
G1 X101.104 Y130.258 E4.94448
G1 X100.607 Y129.807 E4.97885
G1 X99.951 Y129.158 E5.02612
G1 X99.575 Y128.729 E5.05534
G1 X98.997 Y128.032 E5.10172
G1 X98.771 Y127.75 E5.12023
G1 X98.31 Y127.162 E5.1585
G1 X97.772 Y126.412 E5.20577
G1 X97.458 Y125.899 E5.23658
G1 X97.057 Y125.2 E5.27786
G1 X96.815 Y124.765 E5.30335
G1 X96.496 Y124.173 E5.3378
G1 X96.093 Y123.342 E5.3851
G1 X95.886 Y122.825 E5.41363
G1 X95.584 Y122.007 E5.45829
G1 X95.44 Y121.593 E5.48074
G1 X95.209 Y120.906 E5.51787
G1 X94.953 Y120.019 E5.56516
G1 X94.837 Y119.48 E5.5934
G1 X94.689 Y118.685 E5.63482
G1 X94.599 Y118.157 E5.66225
G1 X94.496 Y117.497 E5.69646
G1 X94.394 Y116.579 E5.74377
G1 X94.37 Y116.011 E5.77289
G1 X94.358 Y115.11 E5.81905
G1 X94.359 Y114.695 E5.8403
G1 X94.37 Y113.982 E5.87683
G1 X94.424 Y113.06 E5.92414
G1 X94.498 Y112.496 E5.95327
G1 X94.63 Y111.66 E5.99662
G1 X94.712 Y111.193 E6.02091
G1 X94.838 Y110.519 E6.05603
G1 X95.046 Y109.62 E6.10329
G1 X95.217 Y109.065 E6.13304
G1 X95.482 Y108.285 E6.17523
G1 X95.632 Y107.863 E6.19817
G1 X95.889 Y107.171 E6.23598
G1 X96.248 Y106.32 E6.28329
G1 X96.503 Y105.815 E6.31227
G1 X96.911 Y105.062 E6.35614
G1 X97.122 Y104.686 E6.37822
G1 X97.481 Y104.065 E6.41496
G1 X97.977 Y103.286 E6.46226
G1 X98.317 Y102.828 E6.49148
G1 X98.836 Y102.167 E6.53453
G1 X99.103 Y101.837 E6.55627
G1 X99.575 Y101.269 E6.5941
G1 X99.848 Y100.968 E6.61491
G0 F1080 X100.196 Y100.585
G0 F6000 X100.522 Y100.881
G1 F1200 X100.917 Y100.504 E6.64288
G1 X101.52 Y99.96 E6.68448
G1 X101.905 Y99.623 E6.71068
G1 X102.412 Y99.191 E6.7448
G1 X103.125 Y98.636 E6.79108
G1 X103.556 Y98.346 E6.81769
G1 X104.304 Y97.872 E6.86305
G1 X104.64 Y97.666 E6.88323
G1 X105.256 Y97.299 E6.91996
G1 X106.052 Y96.871 E6.96625
G1 X106.546 Y96.649 E6.99399
G1 X107.327 Y96.324 E7.03732
G1 X107.708 Y96.171 E7.05835
G1 X108.383 Y95.911 E7.0954
G1 X109.24 Y95.624 E7.14169
G1 X109.759 Y95.489 E7.16916
G1 X110.483 Y95.322 E7.20722
G1 X111.004 Y95.211 E7.2345
G1 X111.702 Y95.071 E7.27097
G1 X112.596 Y94.932 E7.31731
G1 X113.133 Y94.887 E7.34491
G1 X114.026 Y94.838 E7.39072
G1 X114.432 Y94.823 E7.41153
G1 X115.133 Y94.804 E7.44745
G1 X116.037 Y94.819 E7.49376
G1 X116.56 Y94.865 E7.52065
G1 X117.422 Y94.964 E7.56509
G1 X117.822 Y95.016 E7.58575
G1 X118.525 Y95.116 E7.62212
G1 X119.414 Y95.283 E7.66846
G1 X119.934 Y95.419 E7.69599
G1 X120.8 Y95.672 E7.7422
G1 X121.152 Y95.781 E7.76107
G1 X121.825 Y95.997 E7.79728
G1 X122.673 Y96.311 E7.84359
G1 X123.184 Y96.543 E7.87234
G1 X123.908 Y96.897 E7.91362
G1 X124.333 Y97.112 E7.93801
G1 X124.94 Y97.428 E7.97306
G1 X125.723 Y97.88 E8.01937
G1 X126.172 Y98.184 E8.04715
G1 X126.704 Y98.565 E8.08066
G1 X127.211 Y98.94 E8.11296
G1 X127.776 Y99.371 E8.14936
G1 X128.469 Y99.951 E8.19565
G1 X128.851 Y100.318 E8.22278
G1 X129.475 Y100.951 E8.26831
G1 X129.727 Y101.216 E8.28704
G1 X130.233 Y101.759 E8.32506
G1 X130.819 Y102.447 E8.37135
G1 X131.144 Y102.888 E8.39941
G1 X131.648 Y103.613 E8.44463
G1 X131.836 Y103.894 E8.46195
G1 X132.251 Y104.527 E8.50072
G1 X132.713 Y105.304 E8.54702
G1 X132.957 Y105.79 E8.57488
G1 X133.312 Y106.55 E8.61784
G1 X133.498 Y106.962 E8.641
G1 X133.772 Y107.592 E8.67618
G1 X134.096 Y108.436 E8.72249
G1 X134.253 Y108.952 E8.75012
G1 X134.452 Y109.674 E8.78848
G1 X134.585 Y110.188 E8.81567
G1 X134.751 Y110.861 E8.85118
G1 X134.928 Y111.747 E8.89745
G1 X134.998 Y112.295 E8.92575
G1 X135.082 Y113.155 E8.97001
G1 X135.114 Y113.543 E8.98995
G1 X135.166 Y114.274 E9.02749
G1 X135.19 Y115.177 E9.07376
G1 X135.166 Y115.726 E9.1019
G1 X135.105 Y116.573 E9.1454
G1 X135.07 Y116.973 E9.16597
G1 X134.998 Y117.698 E9.20328
G1 X134.869 Y118.593 E9.2496
G1 X134.753 Y119.124 E9.27744
G1 X134.546 Y119.965 E9.3218
G1 X134.455 Y120.312 E9.34018
G1 X134.257 Y121.033 E9.37847
G1 X133.979 Y121.894 E9.42482
G1 X133.771 Y122.411 E9.45336
G1 X133.412 Y123.231 E9.49921
G1 X133.274 Y123.534 E9.51626
G1 X132.96 Y124.205 E9.55421
G1 X132.541 Y125.006 E9.60051
G1 X132.244 Y125.485 E9.62938
G1 X131.794 Y126.169 E9.67132
G1 X131.545 Y126.536 E9.69403
G1 X131.134 Y127.125 E9.73082
G1 X130.585 Y127.843 E9.77712
G1 X130.247 Y128.226 E9.80328
G1 X129.682 Y128.834 E9.84579
G1 X129.35 Y129.178 E9.87028
G1 X128.872 Y129.663 E9.90516
G1 X128.533 Y129.991 E9.92932
G1 X127.775 Y130.63 E9.9801
G1 X127.224 Y131.05 E10.01559
G1 X126.74 Y131.407 E10.04639
G1 X126.16 Y131.822 E10.08292
G1 X125.402 Y132.315 E10.12924
G1 X124.96 Y132.56 E10.15512
G1 X124.205 Y132.955 E10.19877
G1 X123.801 Y133.157 E10.2219
G1 X123.188 Y133.456 E10.25684
G1 X122.359 Y133.816 E10.30313
G1 X121.832 Y134.001 E10.33174
G1 X120.981 Y134.273 E10.3775
G1 X120.611 Y134.385 E10.3973
G1 X119.936 Y134.581 E10.4333
G1 X119.057 Y134.794 E10.47963
G1 X118.523 Y134.884 E10.50737
G1 X117.657 Y135.006 E10.55216
G1 X117.234 Y135.059 E10.574
G1 X116.567 Y135.135 E10.60838
G1 X115.665 Y135.198 E10.65469
G1 X115.129 Y135.197 E10.68215
G1 X114.336 Y135.174 E10.72278
G1 X113.829 Y135.152 E10.74878
G1 X113.131 Y135.112 E10.78459
G1 X112.232 Y135.021 E10.83087
G1 X111.712 Y134.931 E10.8579
G1 X110.839 Y134.755 E10.90352
G1 X110.494 Y134.679 E10.92161
G1 X109.75 Y134.507 E10.96072
G1 X108.879 Y134.265 E11.00703
G1 X108.376 Y134.086 E11.03437
G1 X107.592 Y133.783 E11.07743
G1 X107.218 Y133.632 E11.09809
G1 X106.526 Y133.342 E11.13652
G1 X105.708 Y132.956 E11.18285
G1 X105.234 Y132.689 E11.21071
G1 X104.557 Y132.284 E11.25112
G1 X104.122 Y132.015 E11.27732
G1 X103.546 Y131.648 E11.3123
G1 X102.806 Y131.129 E11.35859
G1 X102.392 Y130.793 E11.3859
G1 X101.758 Y130.249 E11.42869
G1 X101.4 Y129.932 E11.45319
G1 X100.903 Y129.481 E11.48756
G1 X100.261 Y128.845 E11.53385
G1 X99.913 Y128.448 E11.56089
G1 X99.339 Y127.756 E11.60694
G1 X99.117 Y127.479 E11.62513
G1 X98.656 Y126.891 E11.6634
G1 X98.13 Y126.155 E11.70973
G1 X97.839 Y125.68 E11.73826
G1 X97.44 Y124.985 E11.77931
G1 X97.202 Y124.556 E11.80444
G1 X96.883 Y123.964 E11.83889
G1 X96.49 Y123.15 E11.88518
G1 X96.299 Y122.672 E11.91155
G1 X95.999 Y121.861 E11.95584
G1 X95.857 Y121.453 E11.97797
G1 X95.626 Y120.766 E12.01509
G1 X95.376 Y119.897 E12.06141
G1 X95.269 Y119.398 E12.08755
G1 X95.122 Y118.611 E12.12856
G1 X95.034 Y118.089 E12.15567
G1 X94.931 Y117.429 E12.18989
G1 X94.831 Y116.53 E12.23622
G1 X94.81 Y116.004 E12.26318
G1 X94.798 Y115.11 E12.30898
G1 X94.799 Y114.701 E12.32993
G1 X94.81 Y113.988 E12.36645
G1 X94.864 Y113.086 E12.41273
G1 X94.932 Y112.564 E12.4397
G1 X95.063 Y111.735 E12.48269
G1 X95.144 Y111.274 E12.50666
G1 X95.27 Y110.6 E12.54178
G1 X95.475 Y109.72 E12.58806
G1 X95.634 Y109.206 E12.61562
G1 X95.897 Y108.431 E12.65754
G1 X96.044 Y108.016 E12.68009
G1 X96.301 Y107.324 E12.7179
G1 X96.653 Y106.491 E12.76422
G1 X96.89 Y106.024 E12.79104
G1 X97.296 Y105.276 E12.83464
G1 X97.503 Y104.906 E12.85635
G1 X97.862 Y104.285 E12.89309
G1 X98.349 Y103.523 E12.93941
G1 X98.664 Y103.099 E12.96647
G1 X99.178 Y102.443 E13.00916
G1 X99.442 Y102.118 E13.0306
G1 X99.914 Y101.55 E13.06843
G1 X100.174 Y101.264 E13.08823
G0 F1080 X100.522 Y100.881
G1 F2400 E8.08823
;MESH:SimpleTest.stl
G0 F6000 X110.926 Y112.716
G0 X111.851 Y113.354
G0 X112.36 Y115.645
G0 X112.591 Y116.254
G0 X112.961 Y116.788
G0 X113.448 Y117.221
G0 X113.926 Y117.472
G0 X115.336 Y117.873
;TYPE:WALL-INNER
G1 F2400 E13.08823
G1 F1200 X114.628 Y117.873 E13.12449
G1 X113.969 Y117.71 E13.15926
G1 X113.339 Y117.38 E13.19569
G1 X112.817 Y116.916 E13.23146
G1 X112.421 Y116.343 E13.26714
G1 X112.174 Y115.693 E13.30276
G1 X112.089 Y115 E13.33852
G1 X112.174 Y114.307 E13.37428
G1 X112.421 Y113.657 E13.4099
G1 X112.817 Y113.084 E13.44557
G1 X113.339 Y112.62 E13.48135
G1 X113.973 Y112.288 E13.518
G1 X114.628 Y112.127 E13.55255
G1 X115.334 Y112.126 E13.58871
G1 X115.995 Y112.29 E13.6236
G1 X116.625 Y112.62 E13.66002
G1 X117.147 Y113.084 E13.6958
G1 X117.543 Y113.657 E13.73147
G1 X117.79 Y114.307 E13.76709
G1 X117.875 Y115 E13.80285
G1 X117.79 Y115.693 E13.83861
G1 X117.543 Y116.343 E13.87423
G1 X117.147 Y116.916 E13.90991
G1 X116.625 Y117.38 E13.94568
G1 X115.991 Y117.712 E13.98234
G1 X115.839 Y117.75 E13.99036
G0 F1080 X115.336 Y117.873
G0 F6000 X115.388 Y118.313
G1 F1200 X114.574 Y118.313 E14.03205
G1 X113.811 Y118.124 E14.07232
G1 X113.088 Y117.745 E14.11413
G1 X112.485 Y117.21 E14.15542
G1 X112.029 Y116.55 E14.19651
G1 X111.743 Y115.797 E14.23777
G1 X111.646 Y115 E14.27889
G1 X111.743 Y114.203 E14.32001
G1 X112.029 Y113.45 E14.36127
G1 X112.485 Y112.79 E14.40236
G1 X113.088 Y112.255 E14.44365
G1 X113.815 Y111.874 E14.48569
G1 X114.523 Y111.701 E14.52302
G1 X114.576 Y111.687 E14.52583
G1 X115.387 Y111.686 E14.56737
G1 X116.153 Y111.876 E14.6078
G1 X116.876 Y112.255 E14.64961
G1 X117.479 Y112.79 E14.6909
G1 X117.935 Y113.45 E14.73199
G1 X118.221 Y114.203 E14.77324
G1 X118.318 Y115 E14.81437
G1 X118.221 Y115.797 E14.85549
G1 X117.935 Y116.55 E14.89675
G1 X117.479 Y117.21 E14.93784
G1 X116.876 Y117.745 E14.97913
G1 X116.149 Y118.126 E15.02117
G1 X115.892 Y118.189 E15.03472
G0 F1080 X115.441 Y118.299
G0 X115.388 Y118.313
G0 F6000 X115.424 Y118.753
;TYPE:WALL-OUTER
G1 F1200 X114.537 Y118.753 E15.08016
G1 X114.48 Y118.744 E15.08311
G1 X113.653 Y118.538 E15.12677
G1 X112.837 Y118.11 E15.17396
G1 X112.153 Y117.504 E15.22077
G1 X111.637 Y116.757 E15.26727
G1 X111.312 Y115.901 E15.31417
G1 X111.203 Y115 E15.36066
G1 X111.312 Y114.099 E15.40714
G1 X111.637 Y113.243 E15.45404
G1 X112.153 Y112.496 E15.50054
G1 X112.837 Y111.89 E15.54735
G1 X113.65 Y111.464 E15.59436
G1 X113.675 Y111.456 E15.59571
G1 X114.477 Y111.258 E15.63802
G1 X114.54 Y111.247 E15.6413
G1 X115.424 Y111.246 E15.68658
G1 X115.486 Y111.257 E15.6898
G1 X116.311 Y111.462 E15.73334
G1 X117.127 Y111.89 E15.78054
G1 X117.811 Y112.496 E15.82735
G1 X118.327 Y113.243 E15.87385
G1 X118.652 Y114.099 E15.92075
G1 X118.761 Y115 E15.96723
G1 X118.652 Y115.901 E16.01372
G1 X118.327 Y116.757 E16.06062
G1 X117.811 Y117.504 E16.10712
G1 X117.127 Y118.11 E16.15393
G1 X116.314 Y118.536 E16.20094
G1 X116.289 Y118.544 E16.20229
G1 X115.928 Y118.633 E16.22133
G0 F1080 X115.487 Y118.742
G0 X115.424 Y118.753
G0 F6000 X115.382 Y118.271
G0 X115.281 Y117.443
;TYPE:SKIN
G1 F1200 X114.683 Y117.443 E16.25196
G1 X114.12 Y117.304 E16.28166
G1 X113.585 Y117.024 E16.31259
G1 X113.142 Y116.63 E16.34296
G1 X112.805 Y116.142 E16.37334
G1 X112.593 Y115.585 E16.40386
G1 X112.521 Y115 E16.43405
G1 X112.593 Y114.415 E16.46424
G1 X112.805 Y113.858 E16.49477
G1 X113.142 Y113.37 E16.52515
G1 X113.585 Y112.976 E16.55551
G1 X114.124 Y112.694 E16.58667
G1 X114.683 Y112.557 E16.61615
G1 X115.278 Y112.556 E16.64663
G1 X115.845 Y112.697 E16.67655
G1 X116.379 Y112.976 E16.70741
G1 X116.822 Y113.37 E16.73778
G1 X117.159 Y113.858 E16.76816
G1 X117.371 Y114.415 E16.79868
G1 X117.443 Y115 E16.82887
