; generated by Slic3r 0.9.10b on 2013-12-04 at 09:58:51

; layer_height = 0.2
; perimeters = 2
; top_solid_layers = 3
; bottom_solid_layers = 3
; fill_density = 0.20
; perimeter_speed = 90
; infill_speed = 90
; travel_speed = 250
; nozzle_diameter = 0.4
; filament_diameter = 1.75
; extrusion_multiplier = 1
; perimeters extrusion width = 0.67mm
; infill extrusion width = 0.67mm
; solid infill extrusion width = 0.67mm
; top infill extrusion width = 0.67mm

G21 ; set units to millimeters
M107
M104 S220 ; set temperature
G28 ; home all axes
;M106 S255
;G1 Z200 F1200 ; lift nozzle
M109 S220 ; wait for temperature to be reached
G90 ; use absolute coordinates
G92 E0
M82 ; use absolute distances for extrusion
G1 F3600.000 E-5.00000
G92 E0
G1 Z0.150 F15000.000
G1 X123.690 Y94.390
G1 F3600.000 E5.00000
G1 X124.230 Y93.820 F2160.000 E5.05128
G1 X125.130 Y92.990 E5.13123
G1 X125.430 Y92.750 E5.15632
G1 X125.900 Y92.440 E5.19309
G1 X126.780 Y92.060 E5.25569
G1 X127.230 Y91.910 E5.28667
G1 X168.270 Y82.790 E8.03221
G1 X168.840 Y82.730 E8.06964
G1 X172.300 Y82.730 E8.29560
G1 X172.830 Y82.790 E8.33043
G1 X173.340 Y82.950 E8.36534
G1 X174.330 Y83.390 E8.43609
G1 X174.800 Y83.710 E8.47322
G1 X175.170 Y84.020 E8.50474
G1 X175.720 Y84.590 E8.55647
G1 X175.940 Y84.850 E8.57872
G1 X176.120 Y85.130 E8.60045
G1 X176.570 Y85.950 E8.66154
G1 X177.050 Y87.280 E8.75388
G1 X177.160 Y87.710 E8.78286
G1 X177.200 Y88.150 E8.81172
G1 X177.220 Y112.710 E10.41564
G1 X177.180 Y113.140 E10.44384
G1 X177.080 Y113.750 E10.48421
G1 X176.980 Y114.150 E10.51113
G1 X176.890 Y114.420 E10.52972
G1 X176.780 Y114.700 E10.54937
G1 X176.630 Y114.970 E10.56954
G1 X175.930 Y116.080 E10.65524
G1 X175.710 Y116.320 E10.67650
G1 X175.120 Y116.890 E10.73008
G1 X174.770 Y117.170 E10.75935
G1 X174.520 Y117.340 E10.77909
G1 X174.100 Y117.580 E10.81068
G1 X173.260 Y117.950 E10.87063
G1 X173.020 Y118.040 E10.88736
G1 X172.760 Y118.110 E10.90495
G1 X131.550 Y127.180 E13.66063
G1 X131.010 Y127.240 E13.69611
G1 X128.200 Y127.260 E13.87962
G1 X127.860 Y127.240 E13.90187
G1 X127.530 Y127.180 E13.92377
G1 X127.060 Y127.060 E13.95545
G1 X126.660 Y126.920 E13.98313
G1 X126.130 Y126.690 E14.02086
G1 X125.750 Y126.490 E14.04890
G1 X124.960 Y125.980 E14.11031
G1 X124.550 Y125.650 E14.14468
G1 X123.940 Y125.030 E14.20148
G1 X123.510 Y124.420 E14.25022
G1 X123.350 Y124.150 E14.27072
G1 X123.040 Y123.330 E14.32797
G1 X122.920 Y122.860 E14.35964
G1 X122.860 Y122.540 E14.38091
G1 X122.840 Y122.220 E14.40185
G1 X122.770 Y96.930 E16.05344
G1 X122.830 Y96.350 E16.09152
G1 X122.930 Y95.900 E16.12163
G1 X123.040 Y95.560 E16.14497
G1 X123.140 Y95.290 E16.16377
G1 X123.370 Y94.810 E16.19853
G1 X123.633 Y94.465 E16.22686
G1 F3600.000 E11.22686
G92 E0
G1 X156.059 Y102.680 F15000.000
G1 F3600.000 E5.00000
G1 X156.302 Y101.836 F720.000 E5.05735
G1 X156.909 Y100.644 E5.14471
G1 X157.943 Y99.514 E5.24476
G1 X158.732 Y98.874 E5.31107
G1 X160.025 Y98.474 E5.39947
G1 X161.344 Y98.444 E5.48566
G1 X162.267 Y98.730 E5.54875
G1 X163.161 Y99.302 E5.61805
G1 X164.245 Y100.306 E5.71457
G1 X164.921 Y101.596 E5.80967
G1 X165.289 Y102.704 E5.88592
G1 X165.497 Y105.976 E6.09999
G1 X165.273 Y107.323 E6.18921
G1 X164.751 Y108.832 E6.29347
G1 X163.885 Y110.110 E6.39427
G1 X163.096 Y110.690 E6.45825
G1 X162.076 Y111.263 E6.53464
G1 X160.823 Y111.435 E6.61728
G1 X159.541 Y111.309 E6.70137
G1 X158.431 Y110.883 E6.77903
G1 X157.115 Y109.791 E6.89071
G1 X156.550 Y108.782 E6.96621
G1 X156.193 Y107.678 E7.04200
G1 X155.943 Y106.286 E7.13438
G1 X155.909 Y103.622 E7.30838
G1 X156.044 Y102.773 E7.36449
G1 X156.674 Y102.817 F15000.000
G1 X156.889 Y102.068 F720.000 E7.41541
G1 X157.430 Y101.005 E7.49327
G1 X158.375 Y99.972 E7.58469
G1 X159.033 Y99.439 E7.64003
G1 X160.127 Y99.101 E7.71479
G1 X161.257 Y99.075 E7.78858
G1 X162.001 Y99.305 E7.83944
G1 X162.775 Y99.801 E7.89950
G1 X163.739 Y100.694 E7.98530
G1 X164.341 Y101.843 E8.07002
G1 X164.667 Y102.825 E8.13762
G1 X164.865 Y105.944 E8.34169
G1 X164.662 Y107.168 E8.42275
G1 X164.185 Y108.548 E8.51812
G1 X163.426 Y109.667 E8.60642
G1 X162.754 Y110.161 E8.66085
G1 X161.872 Y110.657 E8.72693
G1 X160.810 Y110.802 E8.79693
G1 X159.687 Y110.692 E8.87067
G1 X158.752 Y110.334 E8.93603
G1 X157.606 Y109.383 E9.03331
G1 X157.129 Y108.530 E9.09710
G1 X156.804 Y107.525 E9.16606
G1 X156.571 Y106.226 E9.25228
G1 X156.538 Y103.668 E9.41936
G1 X156.659 Y102.910 E9.46946
G1 X157.277 Y102.641 F15000.000
G1 F3600.000 E4.46946
G92 E0
G1 X178.000 Y113.245 F15000.000
G1 X177.982 Y87.666
G1 X176.537 Y84.208
G1 X173.124 Y82.000
G1 X168.435 Y82.000
G1 X124.706 Y92.172
G1 X144.089 Y104.104
G1 F3600.000 E5.00000
G1 X144.207 Y105.976 F720.000 E5.12249
G1 X143.984 Y107.324 E5.21172
G1 X143.462 Y108.832 E5.31597
G1 X142.596 Y110.110 E5.41677
G1 X141.806 Y110.690 E5.48074
G1 X140.786 Y111.263 E5.55715
G1 X139.533 Y111.435 E5.63978
G1 X138.252 Y111.309 E5.72384
G1 X137.142 Y110.883 E5.80150
G1 X135.825 Y109.791 E5.91321
G1 X135.261 Y108.782 E5.98871
G1 X134.904 Y107.678 E6.06448
G1 X134.653 Y106.286 E6.15687
G1 X134.619 Y103.622 E6.33087
G1 X134.770 Y102.680 E6.39314
G1 X135.012 Y101.836 E6.45049
G1 X135.619 Y100.644 E6.53786
G1 X136.654 Y99.514 E6.63791
G1 X137.442 Y98.874 E6.70420
G1 X138.735 Y98.474 E6.79261
G1 X140.055 Y98.444 E6.87879
G1 X140.978 Y98.730 E6.94189
G1 X141.872 Y99.302 E7.01119
G1 X142.956 Y100.306 E7.10772
G1 X143.632 Y101.596 E7.20280
G1 X144.000 Y102.704 E7.27907
G1 X144.083 Y104.010 E7.36450
G1 X143.462 Y104.144 F15000.000
G1 X143.576 Y105.944 F720.000 E7.48229
G1 X143.372 Y107.168 E7.56336
G1 X142.895 Y108.548 E7.65872
G1 X142.136 Y109.667 E7.74703
G1 X141.465 Y110.161 E7.80144
G1 X140.583 Y110.657 E7.86754
G1 X139.521 Y110.802 E7.93753
G1 X138.398 Y110.692 E8.01124
G1 X137.463 Y110.334 E8.07660
G1 X136.316 Y109.382 E8.17391
G1 X135.840 Y108.530 E8.23771
G1 X135.514 Y107.525 E8.30665
G1 X135.281 Y106.226 E8.39287
G1 X135.248 Y103.668 E8.55995
G1 X135.384 Y102.817 E8.61621
G1 X135.600 Y102.068 E8.66713
G1 X136.141 Y101.005 E8.74499
G1 X137.086 Y99.972 E8.83643
G1 X137.744 Y99.439 E8.89175
G1 X138.837 Y99.101 E8.96650
G1 X139.967 Y99.075 E9.04029
G1 X140.711 Y99.305 E9.09115
G1 X141.486 Y99.801 E9.15122
G1 X142.449 Y100.694 E9.23703
G1 X143.052 Y101.842 E9.32172
G1 X143.378 Y102.825 E9.38934
G1 X143.456 Y104.050 E9.46947
G1 X142.938 Y104.492 F15000.000
G1 F3600.000 E4.46947
G92 E0
G1 X143.772 Y105.990 F15000.000
G1 X142.314 Y109.780
G1 X140.630 Y110.852
G1 X132.952 Y114.245
G1 X130.140 Y118.297
G1 X130.561 Y118.759
G1 F3600.000 E5.00000
G1 X131.030 Y119.228 F720.000 E5.04327
G1 X131.331 Y119.818 E5.08655
G1 X131.434 Y120.473 E5.12983
G1 X131.331 Y121.127 E5.17310
G1 X131.030 Y121.718 E5.21638
G1 X130.561 Y122.186 E5.25965
G1 X129.971 Y122.487 E5.30294
G1 X129.316 Y122.591 E5.34621
G1 X128.662 Y122.487 E5.38948
G1 X128.071 Y122.186 E5.43277
G1 X127.603 Y121.718 E5.47604
G1 X127.302 Y121.127 E5.51932
G1 X127.198 Y120.473 E5.56259
G1 X127.302 Y119.818 E5.60587
G1 X127.603 Y119.228 E5.64915
G1 X128.071 Y118.759 E5.69242
G1 X128.662 Y118.458 E5.73570
G1 X129.316 Y118.355 E5.77898
G1 X129.971 Y118.458 E5.82225
G1 X130.477 Y118.716 E5.85938
G1 X130.463 Y119.380 F15000.000
G1 F3600.000 E0.85938
G92 E0
G1 X130.140 Y118.297 F15000.000
G1 X129.276 Y118.160
G1 X127.907 Y118.605
G1 X126.955 Y120.473
G1 X127.907 Y122.340
G1 X128.320 Y123.018
G1 F3600.000 E5.00000
G1 X129.229 Y123.481 F720.000 E5.06667
G1 X129.070 Y123.897 E5.09575
G1 X128.026 Y123.621 E5.16631
G1 X127.630 Y123.445 E5.19459
G1 X126.994 Y123.043 E5.24374
G1 X126.691 Y122.747 E5.27142
G1 X126.540 Y122.526 E5.28886
G1 X126.230 Y121.376 E5.36666
G1 X126.643 Y121.219 E5.39553
G1 X127.088 Y122.092 E5.45951
G1 X127.697 Y122.701 E5.51578
G1 X128.236 Y122.975 E5.55524
G1 X129.512 Y123.426 F15000.000
G1 X130.935 Y122.701 F720.000 E5.65954
G1 X131.544 Y122.092 E5.71580
G1 X132.253 Y120.702 E5.81768
G1 X132.509 Y120.763 E5.83492
G1 X132.509 Y121.940 E5.91180
G1 X132.288 Y122.592 E5.95670
G1 X131.988 Y122.996 E5.98959
G1 X131.385 Y123.476 E6.03992
G1 X130.827 Y123.677 E6.07863
G1 X129.576 Y123.687 E6.16034
G1 X129.534 Y123.517 E6.17177
G1 F3600.000 E1.17177
G92 E0
G1 X129.358 Y122.812 F15000.000
G1 X131.172 Y121.894
G1 X131.672 Y120.385
G1 X132.253 Y120.244
G1 F3600.000 E5.00000
G1 X131.544 Y118.854 F2160.000 E5.10187
G1 X130.935 Y118.245 E5.15814
G1 X130.167 Y117.853 E5.21443
G1 X129.316 Y117.718 E5.27071
G1 X128.465 Y117.853 E5.32697
G1 X127.697 Y118.245 E5.38326
G1 X127.088 Y118.854 E5.43952
G1 X126.665 Y119.684 E5.50036
G1 X126.410 Y119.623 E5.51750
G1 X126.352 Y97.020 E6.99361
G1 X126.418 Y96.714 E7.01405
G1 X126.807 Y96.311 E7.05063
G1 X127.506 Y95.663 E7.11290
G1 X127.614 Y95.590 E7.12142
G1 X128.002 Y95.428 E7.14886
G1 X130.748 Y95.399 E7.32818
G1 X131.141 Y95.600 E7.35698
G1 X131.725 Y95.991 E7.40292
G1 X132.198 Y96.868 E7.46802
G1 X133.147 Y96.319 E7.53960
G1 X134.943 Y95.584 E7.66637
G1 X136.079 Y95.234 E7.74399
G1 X138.134 Y94.981 E7.87919
G1 X139.966 Y94.953 E7.99887
G1 X141.367 Y95.091 E8.09081
G1 X142.980 Y95.478 E8.19913
G1 X144.432 Y96.040 E8.30081
G1 X145.655 Y96.621 E8.38924
G1 X146.875 Y97.479 E8.48664
G1 X147.673 Y98.193 E8.55653
G1 X148.404 Y99.132 E8.63425
G1 X149.891 Y101.986 E8.84444
G1 X151.099 Y99.425 E9.02937
G1 X151.736 Y98.378 E9.10942
G1 X152.398 Y97.636 E9.17435
G1 X153.721 Y96.577 E9.28505
G1 X153.900 Y96.456 E9.29917
G1 X154.856 Y95.929 E9.37045
G1 X156.088 Y95.386 E9.45837
G1 X157.398 Y95.082 E9.54623
G1 X158.391 Y94.892 E9.61221
G1 X161.536 Y94.863 E9.81761
G1 X163.366 Y95.086 E9.93805
G1 X164.621 Y95.446 E10.02326
G1 X166.299 Y96.029 E10.13929
G1 X167.491 Y95.604 E10.22197
G1 X167.391 Y88.201 E10.70548
G1 X167.850 Y87.298 E10.77163
G1 X168.308 Y86.739 E10.81886
G1 X169.086 Y86.303 E10.87706
G1 X172.103 Y86.303 E11.07409
G1 X172.584 Y86.517 E11.10849
G1 X172.680 Y86.581 E11.11600
G1 X173.074 Y86.990 E11.15308
G1 X173.328 Y87.439 E11.18677
G1 X173.631 Y88.311 E11.24709
G1 X173.648 Y112.641 E12.83596
G1 X173.581 Y113.095 E12.86591
G1 X173.550 Y113.182 E12.87194
G1 X173.144 Y113.838 E12.92232
G1 X172.697 Y114.268 E12.96285
G1 X172.584 Y114.344 E12.97169
G1 X172.000 Y114.607 E13.01353
G1 X169.376 Y114.607 E13.18492
G1 X168.162 Y113.833 E13.27892
G1 X167.437 Y113.344 E13.33604
G1 X166.310 Y114.076 E13.42383
G1 X165.266 Y114.494 E13.49725
G1 X163.761 Y114.978 E13.60047
G1 X162.180 Y115.113 E13.70413
G1 X158.779 Y115.072 E13.92626
G1 X157.320 Y114.802 E14.02316
G1 X155.667 Y114.291 E14.13612
G1 X154.359 Y113.655 E14.23110
G1 X153.039 Y112.752 E14.33556
G1 X151.276 Y110.770 E14.50875
G1 X150.058 Y108.154 E14.69720
G1 X149.034 Y110.155 E14.84395
G1 X148.395 Y111.083 E14.91753
G1 X147.541 Y112.241 E15.01153
G1 X146.461 Y113.130 E15.10287
G1 X145.128 Y113.978 E15.20604
G1 X144.137 Y114.418 E15.27689
G1 X142.766 Y114.888 E15.37151
G1 X141.382 Y115.137 E15.46334
G1 X139.733 Y115.177 E15.57108
G1 X138.264 Y115.136 E15.66704
G1 X136.770 Y114.960 E15.76527
G1 X135.591 Y114.615 E15.84551
G1 X134.211 Y114.069 E15.94244
G1 X133.580 Y113.874 E15.98556
G1 X132.509 Y114.166 E16.05803
G1 X132.509 Y120.182 E16.45091
G1 X132.344 Y120.222 E16.46199
G1 X133.138 Y122.043 F15000.000
G1 X132.850 Y122.890 F1080.000 E16.52037
G1 X132.446 Y123.432 E16.56451
G1 X131.873 Y123.904 E16.61301
G1 X131.671 Y124.040 E16.62890
G1 X130.940 Y124.304 E16.67969
G1 X128.230 Y124.325 E16.85664
G1 X127.817 Y124.215 E16.88458
G1 X127.336 Y124.002 E16.91892
G1 X126.814 Y123.679 E16.95904
G1 X126.596 Y123.532 E16.97620
G1 X126.207 Y123.152 E17.01171
G1 X125.975 Y122.812 E17.03864
G1 X125.788 Y122.171 E17.08221
G1 X125.724 Y96.954 E18.72905
G1 X125.809 Y96.559 E18.75544
G1 X125.874 Y96.373 E18.76828
G1 X126.367 Y95.862 E18.81465
G1 X127.114 Y95.169 E18.88124
G1 X127.315 Y95.034 E18.89703
G1 X127.873 Y94.801 E18.93652
G1 X130.900 Y94.772 E19.13422
G1 X131.459 Y95.057 E19.17522
G1 X132.205 Y95.557 E19.23382
G1 X132.444 Y96.000 E19.26672
G1 X132.868 Y95.754 E19.29875
G1 X134.732 Y94.992 E19.43026
G1 X135.947 Y94.617 E19.51329
G1 X138.090 Y94.354 E19.65428
G1 X139.997 Y94.324 E19.77887
G1 X141.472 Y94.470 E19.87565
G1 X143.168 Y94.877 E19.98953
G1 X144.681 Y95.462 E20.09548
G1 X145.967 Y96.074 E20.18851
G1 X147.267 Y96.987 E20.29228
G1 X148.134 Y97.762 E20.36817
G1 X148.935 Y98.791 E20.45333
G1 X149.863 Y100.573 E20.58453
G1 X150.545 Y99.127 E20.68890
G1 X151.229 Y98.003 E20.77487
G1 X151.964 Y97.179 E20.84697
G1 X153.348 Y96.070 E20.96280
G1 X153.572 Y95.919 E20.98046
G1 X154.577 Y95.366 E21.05537
G1 X155.888 Y94.787 E21.14895
G1 X157.268 Y94.467 E21.24148
G1 X158.328 Y94.265 E21.31194
G1 X161.574 Y94.235 E21.52392
G1 X163.492 Y94.468 E21.65009
G1 X164.811 Y94.847 E21.73969
G1 X166.296 Y95.363 E21.84241
G1 X166.857 Y95.163 E21.88129
G1 X166.762 Y88.114 E22.34169
G1 X166.830 Y87.917 E22.35530
G1 X167.320 Y86.953 E22.42596
G1 X167.881 Y86.269 E22.48368
G1 X168.077 Y86.137 E22.49911
G1 X168.926 Y85.675 E22.56226
G1 X172.236 Y85.675 E22.77842
G1 X172.890 Y85.965 E22.82513
G1 X173.086 Y86.097 E22.84058
G1 X173.582 Y86.611 E22.88722
G1 X173.902 Y87.178 E22.92975
G1 X174.259 Y88.205 E23.00075
G1 X174.277 Y112.687 E24.59958
G1 X174.193 Y113.246 E24.63648
G1 X174.120 Y113.454 E24.65089
G1 X173.636 Y114.235 E24.71090
G1 X173.093 Y114.759 E24.76015
G1 X172.891 Y114.895 E24.77604
G1 X172.136 Y115.235 E24.83018
G1 X169.193 Y115.235 E25.02237
G1 X167.431 Y114.098 E25.15935
G1 X166.600 Y114.637 E25.22401
G1 X165.479 Y115.085 E25.30286
G1 X163.886 Y115.598 E25.41217
G1 X162.206 Y115.741 E25.52224
G1 X158.717 Y115.700 E25.75015
G1 X157.169 Y115.413 E25.85295
G1 X155.436 Y114.877 E25.97143
G1 X154.045 Y114.201 E26.07244
G1 X152.621 Y113.227 E26.18508
G1 X150.745 Y111.118 E26.36939
G1 X150.031 Y109.585 E26.47983
G1 X149.575 Y110.477 E26.54526
G1 X148.907 Y111.447 E26.62217
G1 X148.001 Y112.677 E26.72193
G1 X146.837 Y113.634 E26.82034
G1 X145.425 Y114.534 E26.92968
G1 X144.367 Y115.004 E27.00531
G1 X142.924 Y115.498 E27.10486
G1 X141.447 Y115.764 E27.20288
G1 X139.724 Y115.805 E27.31544
G1 X138.219 Y115.763 E27.41380
G1 X136.644 Y115.578 E27.51732
G1 X135.387 Y115.210 E27.60288
G1 X134.002 Y114.663 E27.70013
G1 X133.569 Y114.528 E27.72975
G1 X133.138 Y114.646 E27.75893
G1 X133.138 Y121.949 E28.23587
G1 X132.538 Y122.232 F15000.000
G1 F3600.000 E23.23587
G92 E0
G1 X132.952 Y121.977 F15000.000
G1 X132.952 Y114.245
G1 X140.630 Y110.852
G1 X158.239 Y99.787
G1 X167.048 Y95.559
G1 X172.146 Y85.861
G1 X172.006 Y86.759
G1 F3600.000 E5.00000
G1 X172.377 Y86.923 F2160.000 E5.02675
G1 X172.706 Y87.264 E5.05806
G1 X172.911 Y87.628 E5.08562
G1 X173.175 Y88.388 E5.13881
G1 X173.193 Y112.607 E6.73832
G1 X173.136 Y112.984 E6.76350
G1 X172.786 Y113.549 E6.80737
G1 X172.389 Y113.932 E6.84385
G1 X171.902 Y114.152 E6.87908
G1 X169.509 Y114.152 E7.03716
G1 X168.412 Y113.452 E7.12306
G1 X167.442 Y112.798 E7.20034
G1 X166.099 Y113.670 E7.30609
G1 X165.111 Y114.065 E7.37635
G1 X163.671 Y114.529 E7.47628
G1 X162.161 Y114.657 E7.57635
G1 X158.823 Y114.617 E7.79681
G1 X157.429 Y114.359 E7.89047
G1 X155.835 Y113.866 E8.00067
G1 X154.587 Y113.260 E8.09227
G1 X153.342 Y112.407 E8.19193
G1 X151.661 Y110.518 E8.35894
G1 X150.078 Y107.117 E8.60671
G1 X148.642 Y109.921 E8.81472
G1 X148.024 Y110.818 E8.88670
G1 X147.208 Y111.926 E8.97753
G1 X146.190 Y112.763 E9.06460
G1 X144.913 Y113.575 E9.16455
G1 X143.970 Y113.994 E9.23269
G1 X142.651 Y114.446 E9.32476
G1 X141.335 Y114.682 E9.41307
G1 X139.737 Y114.721 E9.51863
G1 X138.297 Y114.681 E9.61379
G1 X136.861 Y114.512 E9.70926
G1 X135.739 Y114.184 E9.78649
G1 X134.362 Y113.639 E9.88429
G1 X133.588 Y113.400 E9.93780
