;Generated with Cura_SteamEngine 13.10
M109 T0 S210.000000
T0
;Sliced at: Fri 29-11-2013 19:57:32
;Basic settings: Layer height: 0.2 Walls: 0.8 Fill: 0
;Print time: #P_TIME#
;Filament used: #F_AMNT#m #F_WGHT#g
;Filament cost: #F_COST#
G21        ;metric values
G90        ;absolute positioning
M107       ;start with the fan off
G28 X0 Y0  ;move X/Y to min endstops
G28 Z0     ;move Z to min endstops
G1 Z15.0 F6000 ;move the platform down 15mm
G92 E0                  ;zero the extruded length
G1 F200 E3              ;extrude 3mm of feed stock
G92 E0                  ;zero the extruded length again
G1 F6000
M117 Printing...

;total_layers=125
;LAYER:0
M107
G0 F3480 X122.68 Y82.86 Z0.20
;TYPE:SKIRT
G1 F2400 E0.00000
G1 F2040 X123.22 Y82.17 E0.02907
G1 X123.53 Y81.85 E0.04385
G1 X124.26 Y81.26 E0.07514
G1 X124.70 Y80.99 E0.09225
G1 X125.58 Y80.58 E0.12449
G1 X126.06 Y80.43 E0.14129
G1 X126.97 Y80.27 E0.17214
G1 X127.39 Y80.24 E0.18598
G1 X128.25 Y80.27 E0.21459
G1 X128.65 Y80.32 E0.22815
G1 X129.48 Y80.52 E0.25647
G1 X129.89 Y80.67 E0.27088
G1 X130.66 Y81.04 E0.29953
G1 X131.05 Y81.29 E0.31487
G1 X131.74 Y81.84 E0.34412
G1 X132.07 Y82.19 E0.36014
G1 X132.52 Y82.79 E0.38509
G1 X132.85 Y82.68 E0.39650
G1 X133.92 Y82.49 E0.43279
G1 X134.44 Y82.47 E0.45001
G1 X135.56 Y82.57 E0.48743
G1 X136.18 Y82.72 E0.50850
G1 X137.23 Y83.17 E0.54644
G1 X137.71 Y83.46 E0.56520
G1 X138.59 Y84.17 E0.60310
G1 X139.03 Y84.67 E0.62516
G1 X139.61 Y85.60 E0.66152
G1 X139.82 Y86.05 E0.67789
G1 X140.13 Y87.03 E0.71213
G1 X140.23 Y87.61 E0.73185
G1 X140.24 Y88.59 E0.76438
G1 X140.20 Y89.03 E0.77888
G1 X140.03 Y89.87 E0.80744
G1 X139.90 Y90.27 E0.82136
G1 X139.59 Y90.98 E0.84742
G1 X139.42 Y91.30 E0.85928
G1 X139.00 Y91.92 E0.88410
G1 X138.73 Y92.24 E0.89827
G1 X138.23 Y92.73 E0.92137
G1 X138.01 Y92.91 E0.93081
G1 X137.51 Y93.27 E0.95136
G1 X137.26 Y93.43 E0.96120
G1 X137.12 Y93.50 E0.96656
G1 X137.10 Y93.58 E0.96943
G1 X137.07 Y93.72 E0.97406
G1 X136.90 Y94.41 E0.99770
G1 X136.86 Y94.61 E1.00446
G1 X136.85 Y95.25 E1.02558
G1 X136.86 Y95.51 E1.03440
G1 X136.82 Y95.90 E1.04749
G1 X136.80 Y96.00 E1.05098
G1 X137.27 Y96.09 E1.06672
G1 X137.75 Y96.24 E1.08347
G1 X138.45 Y96.56 E1.10924
G1 X138.78 Y96.75 E1.12187
G1 X139.35 Y97.15 E1.14492
G1 X139.61 Y97.37 E1.15639
G1 X140.08 Y97.85 E1.17868
G1 X140.30 Y98.11 E1.18983
G1 X140.70 Y98.68 E1.21320
G1 X140.90 Y99.04 E1.22681
G1 X141.18 Y99.69 E1.25045
G1 X141.30 Y100.03 E1.26233
G1 X141.47 Y100.77 E1.28758
G1 X141.52 Y101.27 E1.30453
G1 X141.50 Y102.02 E1.32938
G1 X141.47 Y102.35 E1.34049
G1 X141.34 Y103.02 E1.36322
G1 X141.22 Y103.41 E1.37666
G1 X140.96 Y104.03 E1.39906
G1 X140.79 Y104.35 E1.41094
G1 X140.47 Y104.85 E1.43072
G1 X140.31 Y105.07 E1.43995
G1 X139.93 Y105.51 E1.45915
G1 X139.67 Y105.76 E1.47127
G1 X139.04 Y106.27 E1.49818
G1 X139.01 Y106.32 E1.50025
G1 X138.88 Y106.57 E1.50952
G1 X138.85 Y106.66 E1.51247
G1 X139.81 Y106.73 E1.54425
G1 X141.81 Y107.72 E1.61869
G1 X141.79 Y107.02 E1.64197
G1 X141.80 Y106.89 E1.64650
G1 X141.90 Y104.66 E1.72071
G1 X141.93 Y104.39 E1.72958
G1 X142.13 Y103.24 E1.76841
G1 X142.23 Y102.88 E1.78091
G1 X142.67 Y101.75 E1.82123
G1 X143.01 Y101.17 E1.84360
G1 X143.89 Y100.13 E1.88889
G1 X144.52 Y99.63 E1.91557
G1 X145.76 Y99.00 E1.96170
G1 X146.46 Y98.80 E1.98624
G1 X147.71 Y98.67 E2.02807
G1 X148.17 Y98.68 E2.04331
G1 X148.21 Y98.68 E2.04468
G1 X148.80 Y98.68 E2.06427
G1 X148.84 Y98.68 E2.06562
G1 X149.29 Y98.67 E2.08043
G1 X150.28 Y98.77 E2.11376
G1 X150.52 Y98.81 E2.12179
G1 X150.91 Y98.90 E2.13485
G1 X151.38 Y99.07 E2.15151
G1 X152.49 Y99.64 E2.19305
G1 X153.11 Y100.13 E2.21933
G1 X153.99 Y101.17 E2.26452
G1 X154.33 Y101.75 E2.28700
G1 X154.76 Y102.88 E2.32740
G1 X154.87 Y103.24 E2.33990
G1 X155.07 Y104.36 E2.37775
G1 X155.09 Y104.57 E2.38469
G1 X155.18 Y105.71 E2.42281
G1 X155.18 Y105.83 E2.42661
G1 X155.20 Y106.97 E2.46473
G1 X155.20 Y107.06 E2.46772
G1 X155.19 Y107.72 E2.48958
G1 X157.19 Y106.72 E2.56412
G1 X158.15 Y106.66 E2.59597
G1 X158.14 Y106.62 E2.59711
G1 X158.08 Y106.47 E2.60262
G1 X158.01 Y106.34 E2.60747
G1 X157.96 Y106.27 E2.61031
G1 X157.34 Y105.77 E2.63698
G1 X157.07 Y105.51 E2.64925
G1 X156.69 Y105.08 E2.66841
G1 X156.53 Y104.86 E2.67739
G1 X156.20 Y104.35 E2.69742
G1 X156.03 Y104.01 E2.71016
G1 X155.78 Y103.39 E2.73247
G1 X155.67 Y103.03 E2.74491
G1 X155.53 Y102.33 E2.76865
G1 X155.49 Y101.91 E2.78282
G1 X155.50 Y101.18 E2.80713
G1 X155.54 Y100.82 E2.81915
G1 X155.68 Y100.12 E2.84274
G1 X155.81 Y99.70 E2.85735
G1 X156.11 Y99.02 E2.88210
G1 X156.30 Y98.68 E2.89517
G1 X156.71 Y98.09 E2.91925
G1 X156.97 Y97.79 E2.93246
G1 X157.16 Y97.61 E2.94090
G1 X157.29 Y97.46 E2.94757
G1 X157.64 Y97.15 E2.96312
G1 X158.24 Y96.74 E2.98724
G1 X158.52 Y96.58 E2.99816
G1 X159.20 Y96.26 E3.02321
G1 X159.69 Y96.10 E3.04013
G1 X160.19 Y96.00 E3.05730
G1 X160.14 Y95.58 E3.07163
G1 X160.15 Y94.85 E3.09585
G1 X160.14 Y94.61 E3.10383
G1 X160.10 Y94.40 E3.11090
G1 X159.90 Y93.51 E3.14120
G1 X159.81 Y93.46 E3.14452
G1 X159.08 Y92.98 E3.17343
G1 X158.80 Y92.75 E3.18556
G1 X158.27 Y92.24 E3.21002
G1 X158.00 Y91.92 E3.22419
G1 X157.58 Y91.30 E3.24901
G1 X157.41 Y90.98 E3.26087
G1 X157.10 Y90.27 E3.28693
G1 X156.97 Y89.87 E3.30085
G1 X156.80 Y89.03 E3.32941
G1 X156.76 Y88.59 E3.34391
G1 X156.77 Y87.61 E3.37644
G1 X156.87 Y87.03 E3.39616
G1 X157.18 Y86.05 E3.43040
G1 X157.39 Y85.60 E3.44677
G1 X157.97 Y84.67 E3.48345
G1 X158.43 Y84.16 E3.50614
G1 X159.32 Y83.44 E3.54445
G1 X159.79 Y83.16 E3.56245
G1 X160.82 Y82.72 E3.59960
G1 X161.44 Y82.57 E3.62077
G1 X162.56 Y82.47 E3.65830
G1 X163.08 Y82.49 E3.67554
G1 X164.15 Y82.68 E3.71174
G1 X164.47 Y82.78 E3.72293
G1 X164.95 Y82.17 E3.74895
G1 X165.26 Y81.84 E3.76401
G1 X165.94 Y81.29 E3.79320
G1 X166.36 Y81.03 E3.80936
G1 X167.17 Y80.64 E3.83922
G1 X167.61 Y80.49 E3.85480
G1 X167.90 Y80.43 E3.86445
G1 X168.30 Y80.33 E3.87842
G1 X168.73 Y80.27 E3.89280
G1 X169.61 Y80.24 E3.92199
G1 X170.03 Y80.27 E3.93616
G1 X170.94 Y80.44 E3.96688
G1 X171.41 Y80.58 E3.98326
G1 X172.29 Y80.98 E4.01546
G1 X172.74 Y81.26 E4.03280
G1 X173.47 Y81.85 E4.06424
G1 X173.78 Y82.17 E4.07901
G1 X174.32 Y82.86 E4.10809
G1 X174.54 Y83.21 E4.12174
G1 X174.90 Y83.96 E4.14952
G1 X175.05 Y84.34 E4.16329
G1 X175.26 Y85.15 E4.19090
G1 X175.32 Y85.58 E4.20548
G1 X175.34 Y86.39 E4.23250
G1 X175.31 Y86.83 E4.24688
G1 X175.22 Y87.29 E4.26257
G1 X175.64 Y87.56 E4.27912
G1 X176.35 Y88.17 E4.31019
G1 X176.67 Y88.51 E4.32572
G1 X177.21 Y89.24 E4.35585
G1 X177.43 Y89.63 E4.37094
G1 X177.78 Y90.45 E4.40070
G1 X177.91 Y90.88 E4.41543
G1 X178.08 Y91.77 E4.44554
G1 X178.11 Y92.27 E4.46237
G1 X178.05 Y93.15 E4.49167
G1 X177.97 Y93.58 E4.50607
G1 X177.72 Y94.43 E4.53566
G1 X177.49 Y94.94 E4.55437
G1 X177.02 Y95.68 E4.58331
G1 X176.75 Y96.02 E4.59798
G1 X176.19 Y96.58 E4.62423
G1 X175.85 Y96.85 E4.63851
G1 X175.22 Y97.26 E4.66364
G1 X174.85 Y97.45 E4.67746
G1 X174.19 Y97.70 E4.70090
G1 X173.87 Y97.79 E4.71183
G1 X173.21 Y97.92 E4.73419
G1 X172.96 Y97.95 E4.74269
G1 X173.04 Y98.13 E4.74923
G1 X173.28 Y98.92 E4.77673
G1 X173.37 Y99.39 E4.79283
G1 X173.42 Y100.20 E4.81979
G1 X173.41 Y100.56 E4.83166
G1 X173.33 Y101.25 E4.85467
G1 X173.26 Y101.57 E4.86567
G1 X173.56 Y101.80 E4.87811
G1 X173.85 Y102.07 E4.89145
G1 X174.39 Y102.71 E4.91919
G1 X174.66 Y103.11 E4.93553
G1 X174.99 Y103.76 E4.95953
G1 X175.10 Y104.05 E4.96987
G1 X175.30 Y104.66 E4.99111
G1 X175.38 Y105.02 E5.00365
G1 X175.47 Y105.75 E5.02787
G1 X175.48 Y106.13 E5.04068
G1 X175.43 Y106.86 E5.06482
G1 X175.38 Y107.19 E5.07589
G1 X175.22 Y107.82 E5.09773
G1 X175.03 Y108.32 E5.11532
G1 X174.66 Y108.99 E5.14094
G1 X174.40 Y109.36 E5.15576
G1 X173.96 Y109.86 E5.17791
G1 X173.70 Y110.10 E5.18975
G1 X173.19 Y110.50 E5.21146
G1 X172.87 Y110.71 E5.22411
G1 X172.29 Y111.01 E5.24589
G1 X171.91 Y111.16 E5.25948
G1 X171.28 Y111.34 E5.28142
G1 X170.94 Y111.41 E5.29290
G1 X170.27 Y111.48 E5.31533
G1 X169.93 Y111.48 E5.32661
G1 X169.28 Y111.44 E5.34831
G1 X169.03 Y111.41 E5.35660
G1 X167.62 Y111.13 E5.40436
G1 X166.45 Y114.37 E5.51876
G1 X166.43 Y114.43 E5.52091
G1 X165.94 Y115.64 E5.56437
G1 X165.91 Y115.72 E5.56708
G1 X164.30 Y119.33 E5.69865
G1 X164.26 Y119.43 E5.70215
G1 X162.59 Y122.69 E5.82387
G1 X162.53 Y122.80 E5.82836
G1 X162.06 Y123.59 E5.85890
G1 X162.02 Y123.64 E5.86099
G1 X160.97 Y125.29 E5.92595
G1 X160.65 Y126.01 E5.95228
G1 X160.47 Y126.51 E5.96996
G1 X160.43 Y126.61 E5.97354
G1 X160.38 Y126.75 E5.97840
G1 X160.22 Y127.13 E5.99216
G1 X159.70 Y128.04 E6.02706
G1 X159.55 Y128.27 E6.03609
G1 X159.08 Y128.89 E6.06189
G1 X158.71 Y129.26 E6.07950
G1 X158.12 Y129.71 E6.10401
G1 X157.93 Y129.84 E6.11183
G1 X157.52 Y130.09 E6.12767
G1 X157.21 Y130.24 E6.13900
G1 X156.31 Y130.58 E6.17104
G1 X155.66 Y130.72 E6.19314
G1 X154.57 Y130.75 E6.22959
G1 X153.73 Y130.60 E6.25786
G1 X153.45 Y130.49 E6.26802
G1 X153.34 Y130.47 E6.27180
G1 X152.40 Y130.05 E6.30604
G1 X152.00 Y129.73 E6.32286
G1 X151.73 Y129.58 E6.33326
G1 X151.09 Y129.04 E6.36119
G1 X150.86 Y128.74 E6.37355
G1 X150.62 Y128.73 E6.38152
G1 X150.47 Y128.76 E6.38680
G1 X150.44 Y128.77 E6.38770
G1 X150.15 Y128.86 E6.39799
G1 X149.44 Y128.95 E6.42174
G1 X149.15 Y128.94 E6.43153
G1 X149.13 Y128.94 E6.43199
G1 X148.89 Y128.95 E6.44014
G1 X148.75 Y128.94 E6.44470
G1 X148.68 Y128.95 E6.44711
G1 X148.34 Y128.95 E6.45838
G1 X148.25 Y128.94 E6.46125
G1 X148.11 Y128.95 E6.46601
G1 X147.87 Y128.94 E6.47413
G1 X147.85 Y128.94 E6.47459
G1 X147.56 Y128.95 E6.48445
G1 X146.85 Y128.86 E6.50823
G1 X146.55 Y128.77 E6.51853
G1 X146.53 Y128.76 E6.51930
G1 X146.38 Y128.73 E6.52451
G1 X146.16 Y128.74 E6.53165
G1 X145.45 Y129.48 E6.56571
G1 X144.93 Y129.77 E6.58564
G1 X144.67 Y129.96 E6.59635
G1 X144.27 Y130.19 E6.61155
G1 X143.28 Y130.61 E6.64728
G1 X142.35 Y130.76 E6.67888
G1 X141.23 Y130.69 E6.71595
G1 X140.66 Y130.56 E6.73543
G1 X139.81 Y130.24 E6.76575
G1 X139.50 Y130.09 E6.77701
G1 X139.11 Y129.86 E6.79228
G1 X138.92 Y129.74 E6.79962
G1 X138.33 Y129.29 E6.82445
G1 X137.93 Y128.90 E6.84287
G1 X137.49 Y128.32 E6.86730
G1 X137.39 Y128.18 E6.87285
G1 X137.17 Y127.84 E6.88655
G1 X137.09 Y127.70 E6.89191
G1 X136.75 Y127.07 E6.91566
G1 X136.61 Y126.74 E6.92739
G1 X136.58 Y126.64 E6.93082
G1 X136.58 Y126.64 E6.93115
G1 X136.03 Y125.27 E6.97996
G1 X135.33 Y124.14 E7.02427
G1 X135.06 Y123.77 E7.03949
G1 X134.94 Y123.58 E7.04685
G1 X133.81 Y121.61 E7.12248
G1 X133.74 Y121.46 E7.12813
G1 X131.10 Y115.75 E7.33741
G1 X131.05 Y115.63 E7.34160
G1 X129.60 Y111.89 E7.47500
G1 X129.57 Y111.80 E7.47815
G1 X129.35 Y111.14 E7.50136
G1 X128.46 Y111.33 E7.53158
G1 X128.28 Y111.36 E7.53772
G1 X127.19 Y111.48 E7.57392
G1 X126.69 Y111.48 E7.59081
G1 X125.90 Y111.37 E7.61730
G1 X125.64 Y111.31 E7.62620
G1 X125.10 Y111.17 E7.64460
G1 X124.71 Y111.01 E7.65881
G1 X124.12 Y110.70 E7.68073
G1 X123.84 Y110.52 E7.69185
G1 X123.29 Y110.10 E7.71494
G1 X122.93 Y109.75 E7.73155
G1 X122.49 Y109.19 E7.75516
G1 X122.29 Y108.88 E7.76745
G1 X121.98 Y108.30 E7.78940
G1 X121.83 Y107.90 E7.80360
G1 X121.65 Y107.25 E7.82612
G1 X121.58 Y106.85 E7.83958
G1 X121.53 Y106.15 E7.86288
G1 X121.53 Y105.82 E7.87389
G1 X121.58 Y105.39 E7.88833
G1 X121.58 Y105.31 E7.89101
G1 X121.62 Y105.02 E7.90074
G1 X121.68 Y104.74 E7.91026
G1 X121.85 Y104.14 E7.93085
G1 X121.98 Y103.81 E7.94257
G1 X122.31 Y103.14 E7.96738
G1 X122.59 Y102.72 E7.98416
G1 X123.13 Y102.08 E8.01207
G1 X123.42 Y101.81 E8.02527
G1 X123.74 Y101.56 E8.03879
G1 X123.69 Y101.35 E8.04607
G1 X123.58 Y100.63 E8.07021
G1 X123.57 Y100.16 E8.08566
G1 X123.63 Y99.35 E8.11293
G1 X123.71 Y98.96 E8.12605
G1 X123.93 Y98.18 E8.15316
G1 X124.03 Y97.94 E8.16153
G1 X123.80 Y97.92 E8.16925
G1 X123.13 Y97.79 E8.19212
G1 X122.81 Y97.69 E8.20313
G1 X122.15 Y97.44 E8.22648
G1 X121.78 Y97.26 E8.24016
G1 X121.15 Y96.85 E8.26523
G1 X120.81 Y96.58 E8.27964
G1 X120.25 Y96.02 E8.30593
G1 X119.98 Y95.68 E8.32060
G1 X119.51 Y94.94 E8.34964
G1 X119.28 Y94.42 E8.36850
G1 X119.03 Y93.57 E8.39800
G1 X118.95 Y93.16 E8.41209
G1 X118.89 Y92.28 E8.44130
G1 X118.92 Y91.77 E8.45830
G1 X119.09 Y90.88 E8.48847
G1 X119.22 Y90.45 E8.50320
G1 X119.57 Y89.63 E8.53296
G1 X119.79 Y89.24 E8.54805
G1 X120.33 Y88.51 E8.57818
G1 X120.65 Y88.17 E8.59371
G1 X121.36 Y87.56 E8.62478
G1 X121.78 Y87.29 E8.64133
G1 X121.69 Y86.83 E8.65699
G1 X121.66 Y86.39 E8.67140
G1 X121.68 Y85.58 E8.69842
G1 X121.74 Y85.15 E8.71301
G1 X121.95 Y84.34 E8.74061
G1 X122.10 Y83.96 E8.75439
G1 X122.46 Y83.21 E8.78216
G1 X122.68 Y82.86 E8.79582
G0 F3480 X123.01 Y83.09
G1 F2040 X123.52 Y82.44 E8.82347
G1 X123.80 Y82.15 E8.83680
G1 X124.49 Y81.58 E8.86649
G1 X124.89 Y81.34 E8.88188
G1 X125.72 Y80.96 E8.91242
G1 X126.16 Y80.82 E8.92754
G1 X127.02 Y80.67 E8.95686
G1 X127.40 Y80.64 E8.96930
G1 X128.22 Y80.67 E8.99656
G1 X128.58 Y80.72 E9.00877
G1 X129.37 Y80.90 E9.03568
G1 X129.73 Y81.03 E9.04868
G1 X130.47 Y81.39 E9.07585
G1 X130.82 Y81.61 E9.08961
G1 X131.47 Y82.14 E9.11732
G1 X131.77 Y82.45 E9.13174
G1 X132.28 Y83.12 E9.15983
G1 X132.37 Y83.28 E9.16569
G1 X132.46 Y83.23 E9.16914
G1 X132.95 Y83.07 E9.18621
G1 X133.97 Y82.89 E9.22065
G1 X134.43 Y82.87 E9.23617
G1 X135.50 Y82.96 E9.27172
G1 X136.05 Y83.10 E9.29067
G1 X137.04 Y83.52 E9.32663
G1 X137.48 Y83.78 E9.34348
G1 X138.32 Y84.47 E9.37934
G1 X138.71 Y84.91 E9.39921
G1 X139.26 Y85.79 E9.43364
G1 X139.44 Y86.19 E9.44836
G1 X139.74 Y87.12 E9.48081
G1 X139.83 Y87.65 E9.49857
G1 X139.84 Y88.58 E9.52937
G1 X139.81 Y88.97 E9.54240
G1 X139.64 Y89.77 E9.56956
G1 X139.53 Y90.12 E9.58209
G1 X139.23 Y90.81 E9.60689
G1 X139.07 Y91.09 E9.61754
G1 X138.68 Y91.68 E9.64109
G1 X138.44 Y91.97 E9.65377
G1 X137.96 Y92.43 E9.67572
G1 X137.77 Y92.59 E9.68424
G1 X137.29 Y92.94 E9.70382
G1 X137.06 Y93.08 E9.71269
G1 X136.77 Y93.23 E9.72352
G1 X136.76 Y93.25 E9.72457
G1 X136.71 Y93.51 E9.73312
G1 X136.68 Y93.63 E9.73727
G1 X136.50 Y94.34 E9.76157
G1 X136.46 Y94.57 E9.76941
G1 X136.45 Y95.24 E9.79173
G1 X136.46 Y95.49 E9.80018
G1 X136.42 Y95.85 E9.81197
G1 X136.33 Y96.33 E9.82847
G1 X136.39 Y96.34 E9.83053
G1 X137.17 Y96.48 E9.85688
G1 X137.60 Y96.61 E9.87197
G1 X138.27 Y96.91 E9.89623
G1 X138.57 Y97.08 E9.90763
G1 X139.10 Y97.47 E9.92946
G1 X139.34 Y97.67 E9.93975
G1 X139.78 Y98.12 E9.96091
G1 X139.98 Y98.35 E9.97097
G1 X140.36 Y98.89 E9.99310
G1 X140.54 Y99.22 E10.00537
G1 X140.81 Y99.83 E10.02771
G1 X140.91 Y100.14 E10.03843
G1 X141.07 Y100.83 E10.06220
G1 X141.12 Y101.29 E10.07748
G1 X141.10 Y102.00 E10.10094
G1 X141.07 Y102.29 E10.11095
G1 X140.95 Y102.93 E10.13246
G1 X140.84 Y103.28 E10.14452
G1 X140.60 Y103.86 E10.16562
G1 X140.45 Y104.15 E10.17634
G1 X140.15 Y104.62 E10.19509
G1 X140.00 Y104.82 E10.20340
G1 X139.64 Y105.24 E10.22152
G1 X139.40 Y105.46 E10.23243
G1 X138.74 Y106.00 E10.26084
G1 X138.66 Y106.12 E10.26578
G1 X138.51 Y106.42 E10.27695
G1 X138.36 Y106.91 E10.29403
G1 X138.42 Y107.03 E10.29833
G1 X139.70 Y107.12 E10.34091
G1 X142.13 Y108.33 E10.43128
G1 X142.23 Y108.38 E10.43488
G1 X142.19 Y107.02 E10.48019
G1 X142.20 Y106.90 E10.48429
G1 X142.30 Y104.69 E10.55780
G1 X142.32 Y104.45 E10.56579
G1 X142.52 Y103.33 E10.60357
G1 X142.61 Y103.01 E10.61483
G1 X143.03 Y101.92 E10.65338
G1 X143.34 Y101.40 E10.67351
G1 X144.17 Y100.42 E10.71636
G1 X144.73 Y99.97 E10.74037
G1 X145.90 Y99.38 E10.78397
G1 X146.54 Y99.19 E10.80604
G1 X147.73 Y99.07 E10.84572
G1 X148.19 Y99.08 E10.86096
G1 X148.24 Y99.08 E10.86288
G1 X148.77 Y99.08 E10.88050
G1 X148.82 Y99.08 E10.88225
G1 X149.27 Y99.07 E10.89719
G1 X150.23 Y99.17 E10.92923
G1 X150.45 Y99.20 E10.93647
G1 X150.79 Y99.28 E10.94831
G1 X151.22 Y99.44 E10.96328
G1 X152.27 Y99.98 E11.00267
G1 X152.83 Y100.42 E11.02628
