; generated by Slic3r 0.9.10b on 2013-12-02 at 16:03:43

; layer_height = 0.2
; perimeters = 2
; top_solid_layers = 3
; bottom_solid_layers = 3
; fill_density = 0.20
; perimeter_speed = 90
; infill_speed = 90
; travel_speed = 250
; nozzle_diameter = 0.4
; filament_diameter = 1.75
; extrusion_multiplier = 1
; perimeters extrusion width = 0.67mm
; infill extrusion width = 0.67mm
; solid infill extrusion width = 0.67mm
; top infill extrusion width = 0.67mm

G21 ; set units to millimeters
M107
M104 S210 ; set temperature
G28 ; home all axes
;M106 S255
;G1 Z200 F1200 ; lift nozzle
M109 S200 ; wait for temperature to be reached
G90 ; use absolute coordinates
G92 E0
M82 ; use absolute distances for extrusion
G1 F3600.000 E-5.00000
G92 E0
G1 Z0.150 F15000.000
G1 X126.380 Y89.790
G1 F3600.000 E5.00000
G1 X126.660 Y89.450 F2160.000 E5.02876
G1 X127.900 Y88.130 E5.14704
G1 X133.340 Y82.790 E5.64486
G1 X134.730 Y81.490 E5.76915
G1 X135.100 Y81.190 E5.80026
G1 X135.300 Y81.060 E5.81584
G1 X136.910 Y80.140 E5.93694
G1 X137.130 Y80.030 E5.95300
G1 X137.550 Y79.860 E5.98259
G1 X139.180 Y79.370 E6.09375
G1 X146.720 Y77.420 E6.60235
G1 X148.390 Y77.030 E6.71435
G1 X148.800 Y76.960 E6.74151
G1 X149.230 Y76.920 E6.76972
G1 X151.160 Y76.930 E6.89576
G1 X151.780 Y77.010 E6.93658
G1 X153.450 Y77.400 E7.04858
G1 X160.940 Y79.480 E7.55623
G1 X162.580 Y79.970 E7.66801
G1 X163.050 Y80.150 E7.70088
G1 X163.360 Y80.300 E7.72337
G1 X164.990 Y81.240 E7.84625
G1 X165.200 Y81.380 E7.86274
G1 X165.540 Y81.660 E7.89150
G1 X166.860 Y82.900 E8.00977
G1 X172.200 Y88.340 E8.50760
G1 X173.500 Y89.730 E8.63189
G1 X173.800 Y90.100 E8.66300
G1 X173.930 Y90.300 E8.67857
G1 X174.850 Y91.910 E8.79967
G1 X174.960 Y92.130 E8.81574
G1 X175.130 Y92.550 E8.84533
G1 X175.620 Y94.180 E8.95648
G1 X177.570 Y101.720 E9.46509
G1 X177.960 Y103.390 E9.57709
G1 X178.030 Y103.800 E9.60425
G1 X178.070 Y104.230 E9.63245
G1 X178.060 Y106.160 E9.75849
G1 X177.980 Y106.780 E9.79932
G1 X177.590 Y108.450 E9.91132
G1 X175.510 Y115.940 E10.41897
G1 X175.020 Y117.580 E10.53075
G1 X174.840 Y118.050 E10.56362
G1 X174.690 Y118.360 E10.58611
G1 X173.750 Y119.990 E10.70899
G1 X173.610 Y120.200 E10.72547
G1 X173.330 Y120.540 E10.75424
G1 X172.090 Y121.860 E10.87251
G1 X166.650 Y127.200 E11.37033
G1 X165.260 Y128.500 E11.49462
G1 X164.890 Y128.800 E11.52573
G1 X164.690 Y128.930 E11.54131
G1 X163.080 Y129.850 E11.66241
G1 X162.860 Y129.960 E11.67847
G1 X162.440 Y130.130 E11.70806
G1 X160.810 Y130.620 E11.81922
G1 X153.270 Y132.570 E12.32783
G1 X151.600 Y132.960 E12.43982
G1 X151.190 Y133.030 E12.46698
G1 X150.760 Y133.070 E12.49519
G1 X148.830 Y133.060 E12.62123
G1 X148.210 Y132.980 E12.66206
G1 X146.540 Y132.590 E12.77405
G1 X139.050 Y130.510 E13.28170
G1 X137.410 Y130.020 E13.39349
G1 X136.940 Y129.840 E13.42635
G1 X136.630 Y129.690 E13.44884
G1 X135.000 Y128.750 E13.57172
G1 X134.790 Y128.610 E13.58821
G1 X134.450 Y128.330 E13.61697
G1 X133.130 Y127.090 E13.73525
G1 X127.790 Y121.650 E14.23307
G1 X126.490 Y120.260 E14.35736
G1 X126.190 Y119.890 E14.38847
G1 X126.060 Y119.690 E14.40405
G1 X125.140 Y118.080 E14.52514
G1 X125.030 Y117.860 E14.54121
G1 X124.860 Y117.440 E14.57080
G1 X124.370 Y115.810 E14.68195
G1 X122.420 Y108.270 E15.19056
G1 X122.030 Y106.600 E15.30256
G1 X121.960 Y106.190 E15.32972
G1 X121.920 Y105.760 E15.35792
G1 X121.930 Y103.830 E15.48397
G1 X122.010 Y103.210 E15.52479
G1 X122.400 Y101.540 E15.63679
G1 X124.480 Y94.050 E16.14444
G1 X124.970 Y92.410 E16.25622
G1 X125.150 Y91.940 E16.28909
G1 X125.300 Y91.630 E16.31158
G1 X126.328 Y89.868 E16.44477
G1 F3600.000 E11.44477
G92 E0
G1 X129.311 Y91.847 F15000.000
G1 F3600.000 E5.00000
G1 X130.506 Y90.588 F2160.000 E5.11334
G1 X131.838 Y89.702 E5.21782
G1 X131.956 Y89.635 E5.22667
G1 X133.455 Y89.076 E5.33118
G1 X134.109 Y88.881 E5.37571
G1 X134.914 Y86.745 E5.52474
G1 X135.882 Y85.305 E5.63805
G1 X137.153 Y84.124 E5.75139
G1 X138.539 Y83.324 E5.85586
G1 X138.661 Y83.265 E5.86471
G1 X140.324 Y82.771 E5.97801
G1 X141.921 Y82.670 E6.08250
G1 X142.056 Y82.671 E6.09134
G1 X143.634 Y82.937 E6.19586
G1 X144.298 Y83.095 E6.24042
G1 X146.062 Y81.648 E6.38944
G1 X147.620 Y80.885 E6.50274
G1 X149.179 Y80.520 E6.60727
G1 X149.312 Y80.497 E6.61612
G1 X151.047 Y80.506 E6.72938
G1 X152.735 Y80.911 E6.84274
G1 X154.285 Y81.691 E6.95604
G1 X155.518 Y82.710 E7.06053
G1 X156.014 Y83.179 E7.10508
G1 X158.266 Y82.808 E7.25414
G1 X159.997 Y82.926 E7.36745
G1 X161.655 Y83.436 E7.48075
G1 X163.041 Y84.236 E7.58524
G1 X163.153 Y84.311 E7.59407
G1 X164.412 Y85.506 E7.70741
G1 X165.298 Y86.838 E7.81189
G1 X165.365 Y86.956 E7.82074
G1 X165.924 Y88.455 E7.92525
G1 X166.119 Y89.109 E7.96978
G1 X168.255 Y89.914 E8.11881
G1 X169.695 Y90.882 E8.23212
G1 X170.876 Y92.153 E8.34547
G1 X171.676 Y93.539 E8.44993
G1 X171.735 Y93.661 E8.45878
G1 X172.229 Y95.324 E8.57208
G1 X172.330 Y96.921 E8.67657
G1 X172.329 Y97.056 E8.68541
G1 X172.063 Y98.634 E8.78993
G1 X171.905 Y99.298 E8.83449
G1 X173.352 Y101.062 E8.98351
G1 X174.115 Y102.620 E9.09681
G1 X174.480 Y104.179 E9.20134
G1 X174.503 Y104.312 E9.21019
G1 X174.494 Y106.047 E9.32345
G1 X174.089 Y107.735 E9.43681
G1 X173.309 Y109.285 E9.55011
G1 X172.290 Y110.518 E9.65460
G1 X171.821 Y111.014 E9.69915
G1 X172.192 Y113.266 E9.84821
G1 X172.074 Y114.997 E9.96152
G1 X171.564 Y116.655 E10.07482
G1 X170.764 Y118.041 E10.17931
G1 X170.689 Y118.153 E10.18814
G1 X169.494 Y119.412 E10.30148
G1 X168.162 Y120.298 E10.40596
G1 X168.044 Y120.365 E10.41481
G1 X166.545 Y120.924 E10.51932
G1 X165.891 Y121.119 E10.56385
G1 X165.086 Y123.255 E10.71288
G1 X164.118 Y124.695 E10.82619
G1 X162.846 Y125.876 E10.93954
G1 X161.461 Y126.676 E11.04400
G1 X161.339 Y126.735 E11.05285
G1 X159.676 Y127.229 E11.16615
G1 X158.079 Y127.330 E11.27064
G1 X157.944 Y127.329 E11.27948
G1 X156.366 Y127.063 E11.38400
G1 X155.702 Y126.905 E11.42856
G1 X153.938 Y128.352 E11.57758
G1 X152.380 Y129.115 E11.69088
G1 X150.821 Y129.480 E11.79541
G1 X150.687 Y129.503 E11.80426
G1 X148.953 Y129.494 E11.91752
G1 X147.265 Y129.089 E12.03088
G1 X145.715 Y128.309 E12.14418
G1 X144.482 Y127.290 E12.24867
G1 X143.986 Y126.821 E12.29322
G1 X141.734 Y127.192 E12.44228
G1 X140.003 Y127.074 E12.55559
G1 X138.345 Y126.564 E12.66890
G1 X136.959 Y125.764 E12.77338
G1 X136.847 Y125.689 E12.78221
G1 X135.588 Y124.494 E12.89555
G1 X134.702 Y123.162 E13.00003
G1 X134.635 Y123.044 E13.00888
G1 X134.076 Y121.545 E13.11339
G1 X133.881 Y120.891 E13.15793
G1 X131.745 Y120.086 E13.30695
G1 X130.305 Y119.118 E13.42026
G1 X129.124 Y117.846 E13.53361
G1 X128.324 Y116.461 E13.63807
G1 X128.265 Y116.339 E13.64692
G1 X127.771 Y114.676 E13.76022
G1 X127.670 Y113.079 E13.86471
G1 X127.671 Y112.944 E13.87355
G1 X127.937 Y111.366 E13.97807
G1 X128.095 Y110.702 E14.02263
G1 X126.648 Y108.938 E14.17165
G1 X125.885 Y107.380 E14.28495
G1 X125.520 Y105.821 E14.38948
G1 X125.497 Y105.688 E14.39833
G1 X125.506 Y103.953 E14.51159
G1 X125.911 Y102.265 E14.62495
G1 X126.691 Y100.715 E14.73825
G1 X127.710 Y99.482 E14.84274
G1 X128.179 Y98.986 E14.88729
G1 X127.808 Y96.734 E15.03635
G1 X127.926 Y95.003 E15.14966
G1 X128.436 Y93.345 E15.26297
G1 X129.259 Y91.925 E15.37012
G1 X128.702 Y91.627 F15000.000
G1 X128.818 Y91.454 F1080.000 E15.38369
G1 X130.115 Y90.093 E15.50649
G1 X131.508 Y89.167 E15.61570
G1 X131.688 Y89.064 E15.62928
G1 X133.255 Y88.480 E15.73851
G1 X133.629 Y88.368 E15.76399
G1 X134.362 Y86.440 E15.89867
G1 X135.414 Y84.883 E16.02142
G1 X136.795 Y83.606 E16.14423
G1 X138.243 Y82.770 E16.25343
G1 X138.429 Y82.678 E16.26700
G1 X140.233 Y82.147 E16.38976
G1 X141.902 Y82.042 E16.49898
G1 X142.110 Y82.043 E16.51256
G1 X143.759 Y82.321 E16.62181
G1 X144.139 Y82.411 E16.64729
G1 X145.737 Y81.108 E16.78195
G1 X147.427 Y80.285 E16.90471
G1 X149.056 Y79.903 E17.01397
G1 X149.261 Y79.869 E17.02755
G1 X151.140 Y79.883 E17.15027
G1 X152.968 Y80.326 E17.27309
G1 X154.645 Y81.174 E17.39585
G1 X155.934 Y82.239 E17.50506
G1 X156.218 Y82.507 E17.53054
G1 X158.254 Y82.177 E17.66524
G1 X160.129 Y82.309 E17.78802
G1 X161.925 Y82.867 E17.91077
G1 X163.373 Y83.702 E18.01998
G1 X163.546 Y83.818 E18.03355
G1 X164.907 Y85.115 E18.15635
G1 X165.833 Y86.508 E18.26556
G1 X165.936 Y86.688 E18.27913
G1 X166.520 Y88.255 E18.38837
G1 X166.632 Y88.629 E18.41384
G1 X168.560 Y89.362 E18.54852
G1 X170.117 Y90.414 E18.67128
G1 X171.394 Y91.795 E18.79408
G1 X172.230 Y93.243 E18.90328
G1 X172.322 Y93.429 E18.91686
G1 X172.853 Y95.233 E19.03961
G1 X172.958 Y96.902 E19.14884
G1 X172.957 Y97.110 E19.16241
G1 X172.679 Y98.759 E19.27166
G1 X172.589 Y99.139 E19.29714
G1 X173.892 Y100.737 E19.43181
G1 X174.715 Y102.427 E19.55456
G1 X175.097 Y104.056 E19.66383
G1 X175.131 Y104.261 E19.67741
G1 X175.117 Y106.140 E19.80013
G1 X174.674 Y107.968 E19.92295
G1 X173.826 Y109.645 E20.04570
G1 X172.761 Y110.934 E20.15492
G1 X172.493 Y111.218 E20.18039
G1 X172.823 Y113.254 E20.31510
G1 X172.691 Y115.129 E20.43787
G1 X172.133 Y116.925 E20.56063
G1 X171.298 Y118.373 E20.66983
G1 X171.182 Y118.546 E20.68340
G1 X169.885 Y119.907 E20.80620
G1 X168.492 Y120.833 E20.91541
G1 X168.312 Y120.936 E20.92899
G1 X166.745 Y121.520 E21.03822
G1 X166.371 Y121.632 E21.06370
G1 X165.638 Y123.560 E21.19838
G1 X164.586 Y125.117 E21.32114
G1 X163.205 Y126.394 E21.44394
G1 X161.757 Y127.230 E21.55314
G1 X161.571 Y127.322 E21.56671
G1 X159.767 Y127.853 E21.68947
G1 X158.098 Y127.958 E21.79869
G1 X157.890 Y127.957 E21.81227
G1 X156.241 Y127.679 E21.92152
G1 X155.861 Y127.589 E21.94700
G1 X154.263 Y128.892 E22.08166
G1 X152.573 Y129.715 E22.20442
G1 X150.944 Y130.097 E22.31369
G1 X150.739 Y130.131 E22.32727
G1 X148.860 Y130.117 E22.44998
G1 X147.032 Y129.674 E22.57280
G1 X145.355 Y128.826 E22.69556
G1 X144.066 Y127.761 E22.80477
G1 X143.782 Y127.493 E22.83025
G1 X141.746 Y127.823 E22.96495
G1 X139.871 Y127.691 E23.08773
G1 X138.075 Y127.133 E23.21048
G1 X136.627 Y126.298 E23.31969
G1 X136.454 Y126.182 E23.33326
G1 X135.093 Y124.885 E23.45606
G1 X134.167 Y123.492 E23.56527
G1 X134.064 Y123.312 E23.57885
G1 X133.480 Y121.745 E23.68808
G1 X133.368 Y121.371 E23.71355
G1 X131.440 Y120.638 E23.84823
G1 X129.883 Y119.586 E23.97099
G1 X128.606 Y118.205 E24.09379
G1 X127.770 Y116.757 E24.20299
G1 X127.678 Y116.571 E24.21657
G1 X127.147 Y114.767 E24.33932
G1 X127.042 Y113.098 E24.44855
G1 X127.043 Y112.890 E24.46213
G1 X127.321 Y111.241 E24.57137
G1 X127.411 Y110.861 E24.59686
G1 X126.108 Y109.263 E24.73152
G1 X125.285 Y107.573 E24.85427
G1 X124.903 Y105.944 E24.96354
G1 X124.869 Y105.739 E24.97712
G1 X124.883 Y103.860 E25.09984
G1 X125.326 Y102.032 E25.22266
G1 X126.174 Y100.355 E25.34542
G1 X127.239 Y99.066 E25.45463
G1 X127.507 Y98.782 E25.48011
G1 X127.177 Y96.746 E25.61481
G1 X127.309 Y94.871 E25.73758
G1 X127.867 Y93.075 E25.86034
G1 X128.655 Y91.709 E25.96339
G1 X128.910 Y91.636 F15000.000
G1 F3600.000 E20.96339
G92 E0
G1 X125.993 Y89.693 F15000.000
G1 X129.490 Y85.251
G1 X133.798 Y81.587
G1 X138.741 Y78.849
G1 X143.945 Y77.179
G1 X149.467 Y76.542
G1 X149.677 Y76.540
G1 X150.897 Y80.953
G1 F3600.000 E5.00000
G1 X150.979 Y80.958 F2160.000 E5.00542
G1 X152.570 Y81.338 E5.11299
G1 X153.952 Y82.024 E5.21447
G1 X154.023 Y82.066 E5.21992
G1 X155.216 Y83.051 E5.32170
G1 X155.866 Y83.665 E5.38049
G1 X158.279 Y83.265 E5.54138
G1 X159.905 Y83.374 E5.64858
G1 X161.464 Y83.852 E5.75580
G1 X162.800 Y84.623 E5.85729
G1 X162.868 Y84.669 E5.86271
G1 X164.056 Y85.793 E5.97027
G1 X164.910 Y87.078 E6.07175
G1 X164.952 Y87.150 E6.07721
G1 X165.492 Y88.600 E6.17901
G1 X165.748 Y89.456 E6.23777
G1 X168.037 Y90.316 E6.39862
G1 X169.391 Y91.224 E6.50585
G1 X170.448 Y92.350 E6.60737
G1 X170.500 Y92.413 E6.61280
G1 X171.311 Y93.832 E6.72029
G1 X171.777 Y95.394 E6.82749
G1 X171.873 Y97.021 E6.93472
G1 X171.616 Y98.543 E7.03624
G1 X171.409 Y99.413 E7.09503
G1 X172.962 Y101.302 E7.25588
G1 X173.681 Y102.765 E7.36308
G1 X174.047 Y104.354 E7.47036
G1 X174.047 Y105.897 E7.57180
G1 X174.042 Y105.979 E7.57723
G1 X173.662 Y107.570 E7.68480
G1 X172.976 Y108.952 E7.78627
G1 X172.934 Y109.023 E7.79173
G1 X171.949 Y110.216 E7.89351
G1 X171.335 Y110.866 E7.95229
G1 X171.735 Y113.279 E8.11318
G1 X171.626 Y114.905 E8.22039
G1 X171.148 Y116.464 E8.32761
G1 X170.377 Y117.800 E8.42909
G1 X170.331 Y117.868 E8.43452
G1 X169.207 Y119.056 E8.54207
G1 X167.922 Y119.910 E8.64355
G1 X167.850 Y119.952 E8.64901
G1 X166.400 Y120.492 E8.75081
G1 X165.544 Y120.748 E8.80957
G1 X164.684 Y123.037 E8.97042
G1 X163.776 Y124.391 E9.07765
G1 X162.650 Y125.448 E9.17917
G1 X162.587 Y125.500 E9.18460
G1 X161.168 Y126.311 E9.29209
G1 X159.606 Y126.777 E9.39929
G1 X157.979 Y126.873 E9.50652
G1 X156.457 Y126.616 E9.60804
G1 X155.587 Y126.409 E9.66683
G1 X153.698 Y127.962 E9.82769
G1 X152.235 Y128.681 E9.93488
G1 X150.646 Y129.047 E10.04216
G1 X149.103 Y129.047 E10.14361
G1 X149.021 Y129.042 E10.14903
G1 X147.430 Y128.662 E10.25660
G1 X146.048 Y127.976 E10.35807
G1 X145.977 Y127.934 E10.36353
G1 X144.784 Y126.949 E10.46531
G1 X144.134 Y126.335 E10.52410
G1 X141.721 Y126.735 E10.68498
G1 X140.095 Y126.626 E10.79219
G1 X138.536 Y126.148 E10.89941
G1 X137.200 Y125.377 E11.00090
G1 X137.132 Y125.331 E11.00632
G1 X135.944 Y124.207 E11.11387
G1 X135.090 Y122.922 E11.21535
G1 X135.048 Y122.850 E11.22081
G1 X134.508 Y121.400 E11.32262
G1 X134.252 Y120.544 E11.38137
G1 X131.963 Y119.684 E11.54222
G1 X130.609 Y118.776 E11.64945
G1 X129.552 Y117.650 E11.75098
G1 X129.500 Y117.587 E11.75640
G1 X128.689 Y116.168 E11.86390
G1 X128.223 Y114.606 E11.97110
G1 X128.127 Y112.979 E12.07833
G1 X128.384 Y111.457 E12.17985
G1 X128.591 Y110.587 E12.23864
G1 X127.038 Y108.698 E12.39949
G1 X126.319 Y107.235 E12.50669
G1 X125.953 Y105.646 E12.61396
G1 X125.953 Y104.103 E12.71541
G1 X125.958 Y104.021 E12.72083
G1 X126.338 Y102.430 E12.82840
G1 X127.024 Y101.048 E12.92987
G1 X127.066 Y100.977 E12.93533
G1 X128.051 Y99.784 E13.03711
G1 X128.665 Y99.134 E13.09590
G1 X128.265 Y96.721 E13.25679
G1 X128.374 Y95.095 E13.36401
G1 X128.850 Y93.541 E13.47091
G1 X129.672 Y92.128 E13.57842
G1 X130.789 Y90.947 E13.68536
G1 X132.154 Y90.047 E13.79289
G1 X133.600 Y89.508 E13.89440
G1 X134.456 Y89.252 E13.95316
G1 X135.316 Y86.963 E14.11400
G1 X136.224 Y85.609 E14.22121
G1 X137.418 Y84.498 E14.32848
G1 X138.828 Y83.690 E14.43537
G1 X140.394 Y83.223 E14.54288
G1 X141.934 Y83.126 E14.64437
G1 X142.017 Y83.126 E14.64982
G1 X143.543 Y83.384 E14.75163
G1 X144.413 Y83.591 E14.81043
G1 X146.302 Y82.038 E14.97128
G1 X147.765 Y81.319 E15.07848
G1 X149.354 Y80.953 E15.18575
G1 X150.802 Y80.953 E15.28095
G1 X152.353 Y81.937 F15000.000
G1 X153.658 Y82.585 F2160.000 E15.37679
G1 X154.797 Y83.526 E15.47396
G1 X155.659 Y84.341 E15.55203
G1 X158.310 Y83.901 E15.72874
G1 X159.790 Y84.000 E15.82629
G1 X161.209 Y84.436 E15.92397
G1 X162.471 Y85.164 E16.01974
G1 X163.569 Y86.203 E16.11921
G1 X164.376 Y87.417 E16.21506
G1 X164.892 Y88.802 E16.31226
G1 X165.231 Y89.938 E16.39028
G1 X167.746 Y90.883 E16.56694
G1 X168.979 Y91.710 E16.66461
G1 X169.976 Y92.772 E16.76042
G1 X170.726 Y94.083 E16.85975
G1 X171.149 Y95.505 E16.95733
G1 X171.237 Y96.987 E17.05501
G1 X170.996 Y98.417 E17.15042
G1 X170.721 Y99.572 E17.22849
G1 X172.427 Y101.647 E17.40517
G1 X173.081 Y102.978 E17.50271
G1 X173.414 Y104.426 E17.60045
G1 X173.414 Y105.882 E17.69616
G1 X173.063 Y107.353 E17.79565
G1 X172.415 Y108.658 E17.89149
G1 X171.474 Y109.797 E17.98866
G1 X170.659 Y110.659 E18.06673
G1 X171.099 Y113.310 E18.24344
G1 X171.000 Y114.790 E18.34099
G1 X170.564 Y116.209 E18.43867
G1 X169.836 Y117.471 E18.53444
G1 X168.797 Y118.569 E18.63391
G1 X167.583 Y119.376 E18.72976
G1 X166.198 Y119.892 E18.82696
