;FLAVOR:Marlin
;TIME:438
;Filament used: 0.326880
;Layer height: 0.28
;MINX:0.000
;MINY:0.000
;MINZ:0.000
;MAXX:0.000
;MAXY:0.000
;MAXZ:0.000
;POSTPROCESSED
;Header generated for The Ender3v2 Professional Firmware
;https://github.com/mriscoc/Marlin_Ender3v2

; generated by PrusaSlicer 2.3.0+win64 on 2021-07-10 at 06:32:30 UTC


;
;
; 

; external perimeters extrusion width = 0.45mm
; perimeters extrusion width = 0.45mm
; infill extrusion width = 0.45mm
; solid infill extrusion width = 0.45mm
; top infill extrusion width = 0.45mm
; first layer extrusion width = 0.42mm

M201 X500 Y500 Z100 E5000 ; sets maximum accelerations, mm/sec^2
M203 X500 Y500 Z10 E60 ; sets maximum feedrates, mm/sec
M204 P500 R1000 T500 ; sets acceleration (P, T) and retract acceleration (R), mm/sec^2
M205 X8.00 Y8.00 Z0.40 E5.00 ; sets the jerk limits, mm/sec
M205 S0 T0 ; sets the minimum extruding and travel feed rate, mm/sec
M107
;TYPE:Custom
G90 ; use absolute coordinates
M83 ; extruder relative mode
M104 S210 ; set extruder temp
M140 S60 ; set bed temp
M190 S60 ; wait for bed temp
M109 S210 ; wait for extruder temp
G28 ; home all
G1 Z2 F240
G1 X2 Y10 F3000
G1 Z0.28 F240
G92 E0
G1 Y190 E15 F1500 ; intro line
G1 X2.3 F5000
G92 E0
G1 Y10 E15 F1200 ; intro line
G92 E0
G21 ; set units to millimeters
G90 ; use absolute coordinates
M83 ; use relative distances for extrusion
; Filament gcode
;LAYER_CHANGE
;Z:0.2
;HEIGHT:0.2
;BEFORE_LAYER_CHANGE
G92 E0
;0.2


G1 E-5.00000 F3600.000
G1 Z0.200 F9000.000
;AFTER_LAYER_CHANGE
;0.2
G1 X105.915 Y106.038
G1 E5.00000 F2400.000
;TYPE:Skirt
;WIDTH:0.42
G1 F1200.000
G1 X107.588 Y104.617 E0.06882
G1 X109.240 Y103.612 E0.06064
G1 X111.034 Y102.880 E0.06077
G1 X113.321 Y102.355 E0.07356
G1 X115.412 Y102.255 E0.06564
G1 X117.657 Y102.530 E0.07090
G1 X119.749 Y103.170 E0.06859
G1 X121.693 Y104.155 E0.06834
G1 X123.568 Y105.578 E0.07382
G1 X124.905 Y106.987 E0.06090
G1 X125.994 Y108.581 E0.06051
G1 X126.930 Y110.557 E0.06856
G1 X127.548 Y112.820 E0.07357
G1 X127.736 Y115.000 E0.06860
G1 X127.548 Y117.184 E0.06872
G1 X126.929 Y119.447 E0.07357
G1 X125.994 Y121.419 E0.06844
G1 X124.905 Y123.012 E0.06050
G1 X123.569 Y124.421 E0.06090
G1 X121.694 Y125.845 E0.07382
G1 X119.749 Y126.830 E0.06834
G1 X117.657 Y127.470 E0.06860
G1 X115.405 Y127.745 E0.07115
G1 X113.140 Y127.613 E0.07113
G1 X111.247 Y127.195 E0.06077
G1 X109.442 Y126.480 E0.06090
G1 X107.421 Y125.271 E0.07382
G1 X105.783 Y123.834 E0.06834
G1 X104.401 Y122.122 E0.06898
G1 X103.281 Y120.060 E0.07357
G1 X102.590 Y117.985 E0.06857
G1 X102.274 Y116.082 E0.06050
G1 X102.264 Y114.152 E0.06051
G1 X102.632 Y111.814 E0.07420
G1 X103.358 Y109.750 E0.06860
G1 X104.429 Y107.838 E0.06872
G1 X105.877 Y106.084 E0.07131
G1 X106.165 Y106.322 F9000.000
G1 F1200.000
G1 X107.789 Y104.936 E0.06694
G1 X109.410 Y103.948 E0.05950
G1 X111.175 Y103.230 E0.05974
G1 X113.380 Y102.727 E0.07092
G1 X115.408 Y102.632 E0.06368
G1 X117.578 Y102.898 E0.06855
G1 X119.607 Y103.520 E0.06654
G1 X121.491 Y104.473 E0.06618
G1 X123.300 Y105.843 E0.07115
G1 X124.612 Y107.225 E0.05974
G1 X125.682 Y108.792 E0.05950
G1 X126.585 Y110.707 E0.06638
G1 X127.177 Y112.886 E0.07080
G1 X127.359 Y115.000 E0.06654
G1 X127.177 Y117.114 E0.06654
G1 X126.585 Y119.293 E0.07080
G1 X125.682 Y121.208 E0.06638
G1 X124.612 Y122.776 E0.05950
G1 X123.300 Y124.157 E0.05974
G1 X121.491 Y125.527 E0.07115
G1 X119.607 Y126.480 E0.06618
G1 X117.582 Y127.101 E0.06642
G1 X115.408 Y127.368 E0.06867
G1 X113.218 Y127.244 E0.06877
G1 X111.358 Y126.835 E0.05974
G1 X109.587 Y126.132 E0.05974
G1 X107.641 Y124.965 E0.07115
G1 X106.054 Y123.572 E0.06618
G1 X104.717 Y121.915 E0.06677
G1 X103.635 Y119.929 E0.07092
G1 X102.962 Y117.922 E0.06638
G1 X102.649 Y116.050 E0.05950
G1 X102.641 Y114.152 E0.05950
G1 X102.999 Y111.903 E0.07139
G1 X103.702 Y109.905 E0.06642
G1 X104.738 Y108.053 E0.06654
G1 X106.127 Y106.368 E0.06847
G1 E-3.50000 F3600.000
;WIPE_START
G1 F7200.000
G1 X107.789 Y104.936 E-1.04222
G1 X108.477 Y104.516 E-0.38278
;WIPE_END
G1 E-0.07500 F3600.000
G1 X109.291 Y108.432 F9000.000
G1 E5.00000 F2400.000
;TYPE:Perimeter
G1 F1200.000
G1 X110.637 Y107.474 E0.05180
G1 X112.140 Y106.787 E0.05182
G1 X113.756 Y106.397 E0.05211
G1 X115.286 Y106.321 E0.04802
G1 X115.492 Y106.330 E0.00648
G1 X117.033 Y106.556 E0.04885
G1 X118.592 Y107.095 E0.05172
G1 X120.023 Y107.921 E0.05180
G1 X121.271 Y109.003 E0.05180
G1 X122.293 Y110.302 E0.05180
G1 X123.050 Y111.770 E0.05180
G1 X123.515 Y113.355 E0.05180
G1 X123.672 Y115.000 E0.05180
G1 X123.515 Y116.645 E0.05180
G1 X123.050 Y118.230 E0.05180
G1 X122.293 Y119.698 E0.05180
G1 X121.271 Y120.997 E0.05180
G1 X120.023 Y122.079 E0.05180
G1 X118.592 Y122.905 E0.05180
G1 X117.032 Y123.445 E0.05177
G1 X115.351 Y123.681 E0.05321
G1 X113.756 Y123.603 E0.05007
G1 X112.140 Y123.213 E0.05212
G1 X110.637 Y122.526 E0.05182
G1 X109.291 Y121.568 E0.05180
G1 X108.151 Y120.372 E0.05180
G1 X107.258 Y118.982 E0.05180
G1 X106.644 Y117.448 E0.05180
G1 X106.331 Y115.826 E0.05180
G1 X106.331 Y114.174 E0.05180
G1 X106.644 Y112.552 E0.05180
G1 X107.258 Y111.018 E0.05180
G1 X108.151 Y109.628 E0.05180
G1 X109.250 Y108.476 E0.04992
G1 X109.523 Y108.736 F9000.000
;TYPE:External perimeter
G1 F1200.000
G1 X110.826 Y107.802 E0.05028
G1 X112.264 Y107.145 E0.04956
G1 X113.810 Y106.772 E0.04987
G1 X115.287 Y106.699 E0.04636
G1 X115.457 Y106.706 E0.00532
G1 X116.944 Y106.924 E0.04712
G1 X118.435 Y107.440 E0.04947
G1 X119.803 Y108.230 E0.04954
G1 X120.997 Y109.264 E0.04954
G1 X121.974 Y110.507 E0.04954
G1 X122.698 Y111.911 E0.04954
G1 X123.143 Y113.427 E0.04954
G1 X123.293 Y115.000 E0.04954
G1 X123.143 Y116.573 E0.04954
G1 X122.698 Y118.089 E0.04954
G1 X121.974 Y119.493 E0.04954
G1 X120.997 Y120.736 E0.04954
G1 X119.803 Y121.770 E0.04954
G1 X118.435 Y122.560 E0.04954
G1 X116.943 Y123.077 E0.04949
G1 X115.334 Y123.303 E0.05094
G1 X113.810 Y123.228 E0.04784
G1 X112.264 Y122.855 E0.04987
G1 X110.826 Y122.198 E0.04956
G1 X109.539 Y121.281 E0.04954
G1 X108.449 Y120.138 E0.04954
G1 X107.595 Y118.809 E0.04954
G1 X107.007 Y117.342 E0.04954
G1 X106.708 Y115.790 E0.04954
G1 X106.708 Y114.210 E0.04954
G1 X107.007 Y112.658 E0.04954
G1 X107.595 Y111.191 E0.04954
G1 X108.449 Y109.862 E0.04954
G1 X109.481 Y108.779 E0.04691
G1 X109.446 Y108.343 F9000.000
G1 X108.260 Y108.558
;TYPE:Perimeter
G1 F1200.000
G1 X109.446 Y107.514 E0.04951
G1 X110.790 Y106.686 E0.04951
G1 X112.256 Y106.098 E0.04951
G1 X113.799 Y105.765 E0.04951
G1 X115.377 Y105.698 E0.04951
G1 X116.944 Y105.899 E0.04951
G1 X118.453 Y106.361 E0.04951
G1 X119.864 Y107.072 E0.04951
G1 X121.133 Y108.011 E0.04951
G1 X122.226 Y109.151 E0.04951
G1 X123.110 Y110.459 E0.04951
G1 X123.761 Y111.898 E0.04951
G1 X124.159 Y113.427 E0.04951
G1 X124.292 Y115.000 E0.04951
G1 X124.159 Y116.573 E0.04951
G1 X123.761 Y118.102 E0.04951
G1 X123.110 Y119.541 E0.04951
G1 X122.226 Y120.849 E0.04951
G1 X121.133 Y121.989 E0.04951
G1 X119.864 Y122.928 E0.04951
G1 X118.453 Y123.639 E0.04951
G1 X116.944 Y124.101 E0.04951
G1 X115.377 Y124.302 E0.04951
G1 X113.799 Y124.235 E0.04951
G1 X112.256 Y123.902 E0.04951
G1 X110.790 Y123.314 E0.04951
G1 X109.446 Y122.486 E0.04949
G1 X108.245 Y121.423 E0.05030
G1 X107.268 Y120.214 E0.04874
G1 X106.498 Y118.835 E0.04951
G1 X105.972 Y117.346 E0.04951
G1 X105.705 Y115.790 E0.04951
G1 X105.705 Y114.210 E0.04951
G1 X105.972 Y112.654 E0.04951
G1 X106.498 Y111.165 E0.04951
G1 X107.268 Y109.786 E0.04951
G1 X108.223 Y108.604 E0.04763
G1 X107.929 Y108.368 F9000.000
;TYPE:External perimeter
G1 F1200.000
G1 X107.987 Y108.296 E0.00289
G1 X109.221 Y107.210 E0.05153
G1 X110.620 Y106.349 E0.05153
G1 X112.145 Y105.736 E0.05153
G1 X113.751 Y105.390 E0.05153
G1 X115.393 Y105.320 E0.05153
G1 X117.023 Y105.529 E0.05153
G1 X118.595 Y106.010 E0.05153
G1 X120.062 Y106.750 E0.05153
G1 X121.383 Y107.727 E0.05153
G1 X122.520 Y108.913 E0.05153
G1 X123.441 Y110.275 E0.05153
G1 X124.117 Y111.772 E0.05153
G1 X124.532 Y113.363 E0.05153
G1 X124.671 Y115.000 E0.05153
G1 X124.532 Y116.637 E0.05153
G1 X124.117 Y118.228 E0.05153
G1 X123.441 Y119.725 E0.05153
G1 X122.520 Y121.087 E0.05153
G1 X121.383 Y122.273 E0.05153
G1 X120.062 Y123.250 E0.05153
G1 X118.595 Y123.990 E0.05153
G1 X117.023 Y124.471 E0.05153
G1 X115.393 Y124.680 E0.05153
G1 X113.751 Y124.610 E0.05153
G1 X112.145 Y124.264 E0.05153
G1 X110.620 Y123.651 E0.05153
G1 X109.221 Y122.790 E0.05152
G1 X107.971 Y121.685 E0.05231
G1 X106.955 Y120.426 E0.05074
G1 X106.153 Y118.991 E0.05153
G1 X105.606 Y117.441 E0.05153
G1 X105.328 Y115.822 E0.05153
G1 X105.328 Y114.178 E0.05153
G1 X105.606 Y112.559 E0.05153
G1 X106.153 Y111.009 E0.05153
G1 X106.955 Y109.574 E0.05153
G1 X107.891 Y108.414 E0.04676
G1 X108.021 Y108.379 F9000.000
G1 X108.419 Y108.877
;TYPE:Gap fill
;WIDTH:0.257529
G1 F1200.000
G1 X109.091 Y108.217 E0.01682
G1 X109.642 Y107.779 E0.01255
G1 X110.481 Y107.223 E0.01796
G1 X110.938 Y106.978 E0.00925
G1 X112.033 Y106.509 E0.02127
G1 X112.350 Y106.406 E0.00595
G1 X113.702 Y106.097 E0.02474
G1 X115.364 Y106.012 E0.02970
G1 X116.876 Y106.211 E0.02722
G1 X117.115 Y106.266 E0.00437
G1 X118.332 Y106.663 E0.02285
G1 X118.725 Y106.829 E0.00761
G1 X119.691 Y107.352 E0.01961
G1 X120.202 Y107.687 E0.01090
G1 X120.915 Y108.259 E0.01631
G1 X121.477 Y108.793 E0.01384
G1 X121.969 Y109.358 E0.01337
G1 X122.535 Y110.134 E0.01713
G1 X122.824 Y110.619 E0.01008
G1 X123.322 Y111.650 E0.02043
G1 X123.455 Y112.006 E0.00679
G1 X123.810 Y113.288 E0.02373
G1 X123.845 Y113.480 E0.00350
G1 X123.982 Y115.000 E0.02723
G1 X123.845 Y116.520 E0.02723
G1 X123.810 Y116.712 E0.00350
G1 X123.455 Y117.994 E0.02373
G1 X123.322 Y118.350 E0.00679
G1 X122.824 Y119.381 E0.02043
G1 X122.535 Y119.866 E0.01008
G1 X121.969 Y120.642 E0.01713
G1 X121.477 Y121.207 E0.01337
G1 X120.915 Y121.741 E0.01384
G1 X120.202 Y122.313 E0.01631
G1 X119.691 Y122.648 E0.01090
G1 X118.725 Y123.171 E0.01961
G1 X118.332 Y123.337 E0.00761
G1 X117.113 Y123.735 E0.02289
G1 X116.876 Y123.789 E0.00433
G1 X115.364 Y123.991 E0.02723
G1 X113.839 Y123.922 E0.02723
G1 X112.350 Y123.594 E0.02721
G1 X112.033 Y123.491 E0.00595
G1 X110.938 Y123.022 E0.02127
G1 X110.481 Y122.777 E0.00925
G1 X109.643 Y122.221 E0.01794
G1 X109.092 Y121.782 E0.01257
G1 X108.483 Y121.195 E0.01509
G1 X107.926 Y120.561 E0.01506
G1 X107.541 Y120.029 E0.01172
G1 X106.990 Y119.109 E0.01915
;WIDTH:0.265873
G1 X106.795 Y118.701 E0.00838
G1 X106.353 Y117.523 E0.02333
;WIDTH:0.278075
G1 X106.283 Y117.265 E0.00522
G1 X106.025 Y115.844 E0.02824
G1 X106.028 Y114.134 E0.03344
;WIDTH:0.257529
G1 X106.283 Y112.735 E0.02537
G1 X106.359 Y112.457 E0.00514
G1 X106.795 Y111.299 E0.02208
G1 X106.999 Y110.873 E0.00843
G1 X107.541 Y109.971 E0.01878
G1 X107.926 Y109.439 E0.01172
G1 X108.379 Y108.922 E0.01226
G1 E-3.50000 F3600.000
;WIPE_START
G1 F7200.000
G1 X109.091 Y108.217 E-0.47603
G1 X109.642 Y107.779 E-0.33398
G1 X110.481 Y107.223 E-0.47802
G1 X110.735 Y107.087 E-0.13696
;WIPE_END
G1 E-0.07500 F3600.000
G1 X112.506 Y112.806 F9000.000
G1 E5.00000 F2400.000
;TYPE:Perimeter
;WIDTH:0.42
G1 F1200.000
G1 X113.103 Y112.278 E0.02500
G1 X113.813 Y111.905 E0.02513
G1 X114.540 Y111.724 E0.02352
G1 X115.424 Y111.724 E0.02769
G1 X116.151 Y111.905 E0.02352
G1 X116.861 Y112.278 E0.02513
G1 X117.458 Y112.806 E0.02500
G1 X117.911 Y113.463 E0.02500
G1 X118.194 Y114.208 E0.02500
G1 X118.290 Y115.000 E0.02500
G1 X118.194 Y115.792 E0.02500
G1 X117.911 Y116.537 E0.02500
G1 X117.458 Y117.194 E0.02500
G1 X116.862 Y117.721 E0.02495
G1 X116.125 Y118.103 E0.02605
G1 X115.371 Y118.285 E0.02430
G1 X114.594 Y118.285 E0.02438
G1 X113.811 Y118.094 E0.02524
G1 X113.103 Y117.722 E0.02509
G1 X112.506 Y117.194 E0.02500
G1 X112.053 Y116.537 E0.02500
G1 X111.770 Y115.792 E0.02500
G1 X111.674 Y115.000 E0.02500
G1 X111.770 Y114.208 E0.02500
G1 X112.053 Y113.463 E0.02500
G1 X112.472 Y112.856 E0.02312
G1 X112.222 Y112.555 F9000.000
;TYPE:External perimeter
G1 F1200.000
G1 X112.887 Y111.965 E0.02787
G1 X113.677 Y111.550 E0.02799
G1 X114.494 Y111.347 E0.02639
G1 X115.470 Y111.347 E0.03059
G1 X116.287 Y111.550 E0.02639
G1 X117.077 Y111.965 E0.02799
G1 X117.742 Y112.555 E0.02787
G1 X118.247 Y113.286 E0.02787
G1 X118.563 Y114.117 E0.02787
G1 X118.670 Y115.000 E0.02787
G1 X118.563 Y115.883 E0.02787
G1 X118.247 Y116.714 E0.02787
G1 X117.742 Y117.445 E0.02787
G1 X117.077 Y118.035 E0.02786
G1 X116.257 Y118.459 E0.02895
G1 X115.416 Y118.662 E0.02714
G1 X114.548 Y118.662 E0.02721
G1 X113.677 Y118.450 E0.02811
G1 X112.887 Y118.035 E0.02797
G1 X112.222 Y117.445 E0.02787
G1 X111.717 Y116.714 E0.02787
G1 X111.401 Y115.883 E0.02787
G1 X111.294 Y115.000 E0.02787
G1 X111.401 Y114.117 E0.02787
G1 X111.717 Y113.286 E0.02787
G1 X112.188 Y112.604 E0.02599
G1 X112.614 Y112.635 F9000.000
G1 E-3.50000 F3600.000
;WIPE_START
G1 F7200.000
G1 X112.887 Y111.965 E-0.45000
G1 X113.677 Y111.550 E-0.42398
G1 X114.494 Y111.347 E-0.39978
G1 X114.813 Y111.347 E-0.15124
;WIPE_END
G1 E-0.07500 F3600.000
G1 X118.101 Y114.384 F9000.000
G1 E5.00000 F2400.000
;TYPE:Solid infill
;WIDTH:0.420221
G1 F1200.000
G1 X115.835 Y112.118 E0.10055
G1 X115.389 Y112.007 E0.01442
G1 X115.190 Y112.007 E0.00623
G1 X117.980 Y114.797 E0.12379
G1 X118.005 Y115.000 E0.00642
G1 X117.967 Y115.317 E0.01001
G1 X114.657 Y112.007 E0.14685
G1 X114.575 Y112.007 E0.00256
G1 X114.213 Y112.097 E0.01170
G1 X117.896 Y115.780 E0.16339
G1 X117.749 Y116.166 E0.01298
G1 X113.809 Y112.226 E0.17481
G1 X113.459 Y112.410 E0.01240
G1 X117.575 Y116.526 E0.18261
G1 X117.357 Y116.842 E0.01203
G1 X113.139 Y112.624 E0.18715
G1 X112.856 Y112.874 E0.01186
G1 X117.108 Y117.126 E0.18864
G1 X116.825 Y117.377 E0.01186
G1 X112.607 Y113.158 E0.18715
G1 X112.389 Y113.474 E0.01203
G1 X116.503 Y117.589 E0.18255
G1 X116.152 Y117.771 E0.01242
G1 X112.215 Y113.834 E0.17467
G1 X112.068 Y114.221 E0.01298
G1 X115.750 Y117.903 E0.16337
G1 X115.316 Y118.002 E0.01396
G1 X111.997 Y114.683 E0.14726
G1 X111.959 Y115.000 E0.01000
G1 X111.984 Y115.203 E0.00642
G1 X114.783 Y118.002 E0.12419
G1 X114.628 Y118.002 E0.00487
G1 X114.127 Y117.880 E0.01617
G1 X111.863 Y115.616 E0.10045
M106 S255
;LAYER_CHANGE
;Z:0.48
;HEIGHT:0.28
;BEFORE_LAYER_CHANGE
G92 E0
;0.48


G1 E-3.50000 F3600.000
;WIPE_START
G1 F7200.000
G1 X113.984 Y117.737 E-1.42500
;WIPE_END
G1 E-0.07500 F3600.000
G1 Z0.480 F9000.000
;AFTER_LAYER_CHANGE
;0.48
M104 S205 ; set temperature
G1 X109.442 Y126.480
G1 E5.00000 F2400.000
;TYPE:Skirt
;WIDTH:0.42
G1 F2105
G1 X107.421 Y125.271 E0.09865
G1 X105.783 Y123.834 E0.09132
G1 X104.401 Y122.122 E0.09217
G1 X103.281 Y120.060 E0.09831
G1 X102.590 Y117.985 E0.09162
G1 X102.274 Y116.082 E0.08084
G1 X102.264 Y114.152 E0.08086
G1 X102.632 Y111.814 E0.09915
G1 X103.358 Y109.750 E0.09166
G1 X104.429 Y107.838 E0.09183
G1 X105.915 Y106.038 E0.09780
G1 X107.588 Y104.617 E0.09196
G1 X109.240 Y103.612 E0.08103
G1 X111.034 Y102.880 E0.08120
G1 X113.321 Y102.355 E0.09830
G1 X115.412 Y102.255 E0.08772
G1 X117.657 Y102.530 E0.09474
G1 X119.749 Y103.170 E0.09166
G1 X121.693 Y104.155 E0.09132
G1 X123.568 Y105.578 E0.09865
G1 X124.905 Y106.987 E0.08137
G1 X125.994 Y108.581 E0.08086
G1 X126.930 Y110.557 E0.09161
G1 X127.548 Y112.820 E0.09831
G1 X127.736 Y115.000 E0.09166
G1 X127.548 Y117.184 E0.09183
G1 X126.929 Y119.447 E0.09831
G1 X125.994 Y121.419 E0.09145
G1 X124.905 Y123.012 E0.08084
G1 X123.569 Y124.421 E0.08137
G1 X121.694 Y125.845 E0.09864
G1 X119.749 Y126.830 E0.09132
G1 X117.657 Y127.470 E0.09166
G1 X115.405 Y127.745 E0.09508
G1 X113.140 Y127.613 E0.09505
G1 X111.247 Y127.195 E0.08120
G1 X109.497 Y126.502 E0.07886
G1 X109.636 Y126.152 F9000.000
G1 F2105
G1 X107.641 Y124.965 E0.09730
G1 X106.054 Y123.572 E0.08843
G1 X104.717 Y121.915 E0.08923
G1 X103.635 Y119.929 E0.09477
G1 X102.962 Y117.922 E0.08870
G1 X102.649 Y116.050 E0.07951
G1 X102.641 Y114.152 E0.07951
G1 X102.999 Y111.903 E0.09540
G1 X103.702 Y109.905 E0.08875
G1 X104.738 Y108.053 E0.08891
G1 X106.169 Y106.316 E0.09429
G1 X107.789 Y104.936 E0.08918
G1 X109.410 Y103.948 E0.07951
G1 X111.175 Y103.230 E0.07983
G1 X113.380 Y102.727 E0.09476
G1 X115.408 Y102.632 E0.08509
G1 X117.578 Y102.898 E0.09161
G1 X119.607 Y103.520 E0.08891
G1 X121.491 Y104.473 E0.08843
