;Generated with Cura_SteamEngine 13.12
M104 T1 S210.000000
M109 T0 S210.000000
M109 T1 S210.000000
T0
;Sliced at: Tue 14-01-2014 11:13:36
;Basic settings: Layer height: 0.2 Walls: 0.8 Fill: 10
;Print time: #P_TIME#
;Filament used: #F_AMNT#m #F_WGHT#g
;Filament cost: #F_COST#
;M190 S70 ;Uncomment to add your own bed temperature line
;M104 S210 ;Uncomment to add your own temperature line
;M109 T1 S210 ;Uncomment to add your own temperature line
;M109 T0 S210 ;Uncomment to add your own temperature line
G21        ;metric values
G90        ;absolute positioning
M107       ;start with the fan off
G28 X0 Y0  ;move X/Y to min endstops
G28 Z0     ;move Z to min endstops
G1 Z15.0 F9000 ;move the platform down 15mm
G1 X4 Y4 F12000
T1                      ;Switch to the 2nd extruder
G92 E0                  ;zero the extruded length
G1 F200 E30             ;extrude 10mm of feed stock
G92 E0                  ;zero the extruded length again
G1 F200 E-20
T0                      ;Switch to the first extruder
G92 E0                  ;zero the extruded length
G1 F200 E30             ;extrude 10mm of feed stock
G92 E0                  ;zero the extruded length again
G1 F9000
;Put printing message on LCD screen
M117 Printing...

;Layer count: 50
;LAYER:0
M107
G0 F2940 X104.41 Y93.51 Z0.30
;TYPE:SKIRT
G1 F3000 E0.00000
G1 F1140 X106.51 Y91.41 E0.14873
G1 X129.49 Y91.41 E1.29476
G1 X131.59 Y93.51 E1.44352
G1 X131.59 Y116.49 E2.58955
G1 X129.49 Y118.59 E2.73835
G1 X106.51 Y118.59 E3.88438
G1 X104.41 Y116.49 E4.03315
G1 X104.41 Y93.51 E5.17918
G0 F2940 X104.81 Y93.68
G1 F1140 X106.68 Y91.81 E5.31140
G1 X129.32 Y91.81 E6.44086
G1 X131.19 Y93.68 E6.57312
G1 X131.19 Y116.32 E7.70258
G1 X129.32 Y118.19 E7.83487
G1 X106.68 Y118.19 E8.96434
G1 X104.81 Y116.32 E9.09659
G1 X104.81 Y93.68 E10.22606
G1 F3000 E5.72606
G0 F2940 X108.61 Y95.61
;TYPE:WALL-INNER
G1 F3000 E10.22606
G1 F1140 X117.39 Y95.61 E10.66439
G1 X117.41 Y104.40 E11.10333
G1 X108.61 Y104.40 E11.54246
G1 X108.61 Y95.61 E11.98105
G0 F2940 X108.21 Y95.21
;TYPE:WALL-OUTER
G1 F1140 X117.79 Y95.21 E12.45924
G1 X117.81 Y104.80 E12.93809
G1 X108.21 Y104.80 E13.41719
G1 X108.21 Y95.21 E13.89568
G0 F2940 X108.75 Y96.02
;TYPE:FILL
G1 F1140 X116.99 Y104.26 E14.47748
G0 F2940 X117.27 Y103.97
G1 F1140 X109.04 Y95.75 E15.05801
G0 F2940 X109.61 Y95.75
G1 F1140 X117.27 Y103.41 E15.59850
G0 F2940 X117.27 Y102.84
G1 F1140 X110.17 Y95.75 E16.09909
G0 F2940 X110.74 Y95.75
G1 F1140 X117.26 Y102.27 E16.55964
G0 F2940 X117.26 Y101.71
G1 F1140 X111.30 Y95.75 E16.98015
G0 F2940 X111.87 Y95.75
G1 F1140 X117.26 Y101.14 E17.36073
G0 F2940 X117.26 Y100.57
G1 F1140 X112.43 Y95.75 E17.70130
G0 F2940 X113.00 Y95.75
G1 F1140 X117.26 Y100.01 E18.00190
G0 F2940 X117.26 Y99.44
G1 F1140 X113.56 Y95.75 E18.26253
G0 F2940 X114.13 Y95.75
G1 F1140 X117.26 Y98.87 E18.48309
G0 F2940 X117.26 Y98.31
G1 F1140 X114.70 Y95.75 E18.66368
G0 F2940 X115.26 Y95.75
G1 F1140 X117.25 Y97.74 E18.80429
G0 F2940 X117.25 Y97.17
G1 F1140 X115.83 Y95.75 E18.90490
G0 F2940 X116.39 Y95.75
G1 F1140 X117.25 Y96.60 E18.96551
G0 F2940 X117.25 Y96.04
G1 F1140 X116.96 Y95.75 E18.98615
G0 F2940 X108.75 Y96.58
G1 F1140 X116.43 Y104.26 E19.52798
G0 F2940 X115.86 Y104.26
G1 F1140 X108.75 Y97.15 E20.02991
G0 F2940 X108.75 Y97.71
G1 F1140 X115.29 Y104.26 E20.49191
G0 F2940 X114.73 Y104.26
G1 F1140 X108.75 Y98.28 E20.91390
G0 F2940 X108.75 Y98.84
G1 F1140 X114.16 Y104.26 E21.29596
G0 F2940 X113.59 Y104.26
G1 F1140 X108.75 Y99.41 E21.63804
G0 F2940 X108.75 Y99.98
G1 F1140 X113.03 Y104.26 E21.94023
G0 F2940 X112.46 Y104.26
G1 F1140 X108.75 Y100.54 E22.20245
G0 F2940 X108.75 Y101.11
G1 F1140 X111.90 Y104.26 E22.42470
G0 F2940 X111.33 Y104.26
G1 F1140 X108.75 Y101.67 E22.60698
G0 F2940 X108.75 Y102.24
G1 F1140 X110.76 Y104.26 E22.74933
G0 F2940 X110.20 Y104.26
G1 F1140 X108.75 Y102.81 E22.85174
G0 F2940 X108.75 Y103.37
G1 F1140 X109.63 Y104.26 E22.91418
G0 F2940 X109.06 Y104.26
G1 F1140 X108.75 Y103.94 E22.93669
G1 F3000 E18.43669
G0 F2940 X118.61 Y105.60
;TYPE:WALL-INNER
G1 F3000 E22.93669
G1 F1140 X127.39 Y105.60 E23.37497
G1 X127.39 Y114.39 E23.81351
G1 X118.61 Y114.39 E24.25184
G1 X118.61 Y105.60 E24.69043
G0 F2940 X118.21 Y105.20
;TYPE:WALL-OUTER
G1 F1140 X127.79 Y105.20 E25.16863
G1 X127.79 Y114.79 E25.64707
G1 X118.21 Y114.79 E26.12532
G1 X118.21 Y105.20 E26.60382
G0 F2940 X118.75 Y106.02
;TYPE:FILL
G1 F1140 X126.98 Y114.25 E27.18484
G0 F2940 X127.25 Y113.96
G1 F1140 X119.04 Y105.74 E27.76466
G0 F2940 X119.60 Y105.74
G1 F1140 X127.25 Y113.39 E28.30455
G0 F2940 X127.25 Y112.83
G1 F1140 X120.17 Y105.74 E28.80451
G0 F2940 X120.73 Y105.74
G1 F1140 X127.25 Y112.26 E29.26460
G0 F2940 X127.25 Y111.70
G1 F1140 X121.30 Y105.74 E29.68472
G0 F2940 X121.86 Y105.74
G1 F1140 X127.25 Y111.13 E30.06495
G0 F2940 X127.25 Y110.57
G1 F1140 X122.43 Y105.74 E30.40527
G0 F2940 X123.00 Y105.74
G1 F1140 X127.25 Y110.00 E30.70566
G0 F2940 X127.25 Y109.43
G1 F1140 X123.56 Y105.74 E30.96608
G0 F2940 X124.13 Y105.74
G1 F1140 X127.25 Y108.87 E31.18657
G0 F2940 X127.25 Y108.30
G1 F1140 X124.69 Y105.74 E31.36715
G0 F2940 X125.26 Y105.74
G1 F1140 X127.25 Y107.74 E31.50777
G0 F2940 X127.25 Y107.17
G1 F1140 X125.83 Y105.74 E31.60845
G0 F2940 X126.39 Y105.74
G1 F1140 X127.25 Y106.61 E31.66927
G0 F2940 X127.25 Y106.04
G1 F1140 X126.96 Y105.74 E31.69016
G0 F2940 X118.75 Y106.58
G1 F1140 X126.42 Y114.25 E32.23125
G0 F2940 X125.85 Y114.25
G1 F1140 X118.75 Y107.15 E32.73244
G0 F2940 X118.75 Y107.72
G1 F1140 X125.29 Y114.25 E33.19373
G0 F2940 X124.72 Y114.25
G1 F1140 X118.75 Y108.28 E33.61508
G0 F2940 X118.75 Y108.85
G1 F1140 X124.15 Y114.25 E33.99654
G0 F2940 X123.59 Y114.25
G1 F1140 X118.75 Y109.41 E34.33810
G0 F2940 X118.75 Y109.98
G1 F1140 X123.02 Y114.25 E34.63972
G0 F2940 X122.46 Y114.25
G1 F1140 X118.75 Y110.54 E34.90148
G0 F2940 X118.75 Y111.11
G1 F1140 X121.89 Y114.25 E35.12338
G0 F2940 X121.33 Y114.25
G1 F1140 X118.75 Y111.68 E35.30534
G0 F2940 X118.75 Y112.24
G1 F1140 X120.76 Y114.25 E35.44737
G0 F2940 X120.19 Y114.25
G1 F1140 X118.75 Y112.81 E35.54954
G0 F2940 X118.75 Y113.37
G1 F1140 X119.63 Y114.25 E35.61177
G0 F2940 X119.06 Y114.25
G1 F1140 X118.75 Y113.94 E35.63406
G92 E0
G1 F3000 E-20.0000
T1
G0 F2940 X117.39 Y114.39
;TYPE:WALL-INNER
G1 F3000 E0.00000
G1 F1140 X108.61 Y114.39 E0.43829
G1 X108.61 Y105.60 E0.87687
G1 X117.39 Y105.60 E1.31516
G1 X117.39 Y114.39 E1.75369
G0 F2940 X117.79 Y114.79
;TYPE:WALL-OUTER
G1 F1140 X108.21 Y114.79 E2.23189
G1 X108.21 Y105.20 E2.71039
G1 X117.79 Y105.20 E3.18858
G1 X117.79 Y114.79 E3.66703
G0 F2940 X117.25 Y114.14
;TYPE:FILL
G1 F1140 X108.85 Y105.74 E4.25945
G0 F2940 X108.75 Y106.20
G1 F1140 X116.80 Y114.25 E4.82770
G0 F2940 X116.23 Y114.25
G1 F1140 X108.75 Y106.77 E5.35602
G0 F2940 X108.75 Y107.33
G1 F1140 X115.67 Y114.25 E5.84440
G0 F2940 X115.10 Y114.25
G1 F1140 X108.75 Y107.90 E6.29293
G0 F2940 X108.75 Y108.46
G1 F1140 X114.54 Y114.25 E6.70151
G0 F2940 X113.97 Y114.25
G1 F1140 X108.75 Y109.03 E7.07016
G0 F2940 X108.75 Y109.59
G1 F1140 X113.41 Y114.25 E7.39895
G0 F2940 X112.84 Y114.25
G1 F1140 X108.75 Y110.16 E7.68774
G0 F2940 X108.75 Y110.72
G1 F1140 X112.27 Y114.25 E7.93662
G0 F2940 X111.71 Y114.25
G1 F1140 X108.75 Y111.29 E8.14560
G0 F2940 X108.75 Y111.86
G1 F1140 X111.14 Y114.25 E8.31466
G0 F2940 X110.58 Y114.25
G1 F1140 X108.75 Y112.42 E8.44377
G0 F2940 X108.75 Y112.99
G1 F1140 X110.01 Y114.25 E8.53302
G0 F2940 X109.44 Y114.25
G1 F1140 X108.75 Y113.55 E8.58234
G0 F2940 X108.75 Y114.12
G1 F1140 X108.88 Y114.25 E8.59173
G0 F2940 X117.25 Y113.57
G1 F1140 X109.42 Y105.74 E9.14425
G0 F2940 X109.99 Y105.74
G1 F1140 X117.25 Y113.01 E9.65683
G0 F2940 X117.25 Y112.44
G1 F1140 X110.55 Y105.74 E10.12948
G0 F2940 X111.12 Y105.74
G1 F1140 X117.25 Y111.88 E10.56227
G0 F2940 X117.25 Y111.31
G1 F1140 X111.68 Y105.74 E10.95512
G0 F2940 X112.25 Y105.74
G1 F1140 X117.25 Y110.74 E11.30804
G0 F2940 X117.25 Y110.18
G1 F1140 X112.81 Y105.74 E11.62109
G0 F2940 X113.38 Y105.74
G1 F1140 X117.25 Y109.61 E11.89414
G0 F2940 X117.25 Y109.05
G1 F1140 X113.95 Y105.74 E12.12726
G0 F2940 X114.51 Y105.74
G1 F1140 X117.25 Y108.48 E12.32051
G0 F2940 X117.25 Y107.92
G1 F1140 X115.08 Y105.74 E12.47383
G0 F2940 X115.64 Y105.74
G1 F1140 X117.25 Y107.35 E12.58721
G0 F2940 X117.25 Y106.79
G1 F1140 X116.21 Y105.74 E12.66073
G0 F2940 X116.77 Y105.74
G1 F1140 X117.25 Y106.22 E12.69431
G0 F2940 X118.40 Y104.50
G0 X118.59 Y104.40
;TYPE:WALL-INNER
G1 F1140 X118.61 Y95.61 E13.13320
G1 X127.39 Y95.61 E13.57158
G1 X127.39 Y104.40 E14.01012
G1 X118.59 Y104.40 E14.44925
G0 F2940 X118.19 Y104.80
;TYPE:WALL-OUTER
G1 F1140 X118.21 Y95.21 E14.92805
G1 X127.79 Y95.21 E15.40629
G1 X127.79 Y104.80 E15.88474
G1 X118.19 Y104.80 E16.36384
G0 F2940 X119.25 Y104.26
;TYPE:FILL
G1 F1140 X118.73 Y103.74 E16.40067
G0 F2940 X118.73 Y103.18
G1 F1140 X119.82 Y104.26 E16.47736
G0 F2940 X120.38 Y104.26
G1 F1140 X118.73 Y102.61 E16.59378
G0 F2940 X118.73 Y102.05
G1 F1140 X120.95 Y104.26 E16.75002
G0 F2940 X121.51 Y104.26
G1 F1140 X118.74 Y101.48 E16.94610
G0 F2940 X118.74 Y100.92
G1 F1140 X122.08 Y104.26 E17.18196
G0 F2940 X122.64 Y104.26
G1 F1140 X118.74 Y100.35 E17.45762
G0 F2940 X118.74 Y99.79
G1 F1140 X123.21 Y104.26 E17.77304
G0 F2940 X123.77 Y104.26
G1 F1140 X118.74 Y99.22 E18.12825
G0 F2940 X118.74 Y98.66
G1 F1140 X124.34 Y104.26 E18.52326
G0 F2940 X124.90 Y104.26
G1 F1140 X118.74 Y98.09 E18.95809
G0 F2940 X118.74 Y97.53
G1 F1140 X125.47 Y104.26 E19.43268
G0 F2940 X126.03 Y104.26
G1 F1140 X118.74 Y96.96 E19.94710
G0 F2940 X118.75 Y96.40
G1 F1140 X126.60 Y104.26 E20.50128
G0 F2940 X127.17 Y104.26
G1 F1140 X118.75 Y95.83 E21.09535
G0 F2940 X119.22 Y95.75
G1 F1140 X127.25 Y103.78 E21.66198
G0 F2940 X127.25 Y103.21
G1 F1140 X119.79 Y95.75 E22.18868
G0 F2940 X120.35 Y95.75
G1 F1140 X127.25 Y102.65 E22.67548
G0 F2940 X127.25 Y102.08
G1 F1140 X120.92 Y95.75 E23.12237
G0 F2940 X121.49 Y95.75
G1 F1140 X127.25 Y101.51 E23.52934
G0 F2940 X127.25 Y100.95
G1 F1140 X122.05 Y95.75 E23.89640
G0 F2940 X122.62 Y95.75
G1 F1140 X127.25 Y100.38 E24.22353
G0 F2940 X127.25 Y99.82
G1 F1140 X123.18 Y95.75 E24.51076
G0 F2940 X123.75 Y95.75
G1 F1140 X127.25 Y99.25 E24.75810
G0 F2940 X127.25 Y98.69
G1 F1140 X124.31 Y95.75 E24.96549
G0 F2940 X124.88 Y95.75
G1 F1140 X127.25 Y98.12 E25.13299
G0 F2940 X127.25 Y97.55
G1 F1140 X125.44 Y95.75 E25.26059
G0 F2940 X126.01 Y95.75
G1 F1140 X127.25 Y96.99 E25.34826
G0 F2940 X127.25 Y96.42
G1 F1140 X126.58 Y95.75 E25.39602
G0 F2940 X127.14 Y95.75
G1 F1140 X127.25 Y95.86 E25.40385
;LAYER:1
M106 S255
G0 F9000 X127.39 Y95.61 Z0.50
;TYPE:WALL-INNER
G1 F1740 X127.39 Y104.40 E25.69621
G1 X118.59 Y104.40 E25.98897
G1 X118.61 Y95.61 E26.28156
G1 X127.39 Y95.61 E26.57385
G0 F9000 X127.79 Y95.21
;TYPE:WALL-OUTER
G1 F1740 X127.79 Y104.80 E26.89281
G1 X118.19 Y104.80 E27.21221
G1 X118.21 Y95.21 E27.53141
G1 X127.79 Y95.21 E27.85027
G0 F9000 X127.25 Y95.91
;TYPE:FILL
G1 F1740 X118.90 Y104.26 E28.24322
G0 F9000 X118.73 Y103.87
G1 F1740 X126.85 Y95.75 E28.62518
G0 F9000 X126.29 Y95.75
G1 F1740 X118.73 Y103.30 E28.98047
G0 F9000 X118.73 Y102.73
G1 F1740 X125.72 Y95.75 E29.30912
G0 F9000 X125.15 Y95.75
G1 F1740 X118.73 Y102.17 E29.61110
G0 F9000 X118.74 Y101.60
G1 F1740 X124.59 Y95.75 E29.88643
G0 F9000 X124.02 Y95.75
G1 F1740 X118.74 Y101.03 E30.13511
G0 F9000 X118.74 Y100.47
G1 F1740 X123.46 Y95.75 E30.35713
G0 F9000 X122.89 Y95.75
G1 F1740 X118.74 Y99.90 E30.55250
G0 F9000 X118.74 Y99.33
G1 F1740 X122.33 Y95.75 E30.72119
G0 F9000 X121.76 Y95.75
G1 F1740 X118.74 Y98.77 E30.86324
G0 F9000 X118.74 Y98.20
G1 F1740 X121.19 Y95.75 E30.97867
G0 F9000 X120.63 Y95.75
G1 F1740 X118.74 Y97.63 E31.06741
G0 F9000 X118.74 Y97.06
G1 F1740 X120.06 Y95.75 E31.12950
G0 F9000 X119.50 Y95.75
G1 F1740 X118.74 Y96.50 E31.16492
G0 F9000 X118.75 Y95.93
G1 F1740 X118.93 Y95.75 E31.17369
G0 F9000 X127.25 Y96.47
G1 F1740 X119.46 Y104.26 E31.54004
G0 F9000 X120.03 Y104.26
G1 F1740 X127.25 Y97.04 E31.87971
G0 F9000 X127.25 Y97.61
G1 F1740 X120.60 Y104.26 E32.19279
G0 F9000 X121.16 Y104.26
G1 F1740 X127.25 Y98.17 E32.47920
G0 F9000 X127.25 Y98.74
G1 F1740 X121.73 Y104.26 E32.73896
G0 F9000 X122.30 Y104.26
G1 F1740 X127.25 Y99.30 E32.97212
G0 F9000 X127.25 Y99.87
G1 F1740 X122.86 Y104.26 E33.17866
G0 F9000 X123.43 Y104.26
G1 F1740 X127.25 Y100.44 E33.35853
G0 F9000 X127.25 Y101.00
G1 F1740 X124.00 Y104.26 E33.51175
G0 F9000 X124.56 Y104.26
G1 F1740 X127.25 Y101.57 E33.63835
G0 F9000 X127.25 Y102.13
G1 F1740 X125.13 Y104.26 E33.73831
G0 F9000 X125.69 Y104.26
G1 F1740 X127.25 Y102.70 E33.81166
G0 F9000 X127.25 Y103.26
G1 F1740 X126.26 Y104.26 E33.85837
G0 F9000 X126.83 Y104.26
G1 F1740 X127.25 Y103.83 E33.87843
G1 F3000 E29.37843
G0 F9000 X117.39 Y105.60
;TYPE:WALL-INNER
G1 F3000 E33.87843
G1 F1740 X117.39 Y114.39 E34.17079
G1 X108.61 Y114.39 E34.46301
G1 X108.61 Y105.60 E34.75540
G1 X117.39 Y105.60 E35.04759
G0 F9000 X117.79 Y105.20
;TYPE:WALL-OUTER
G1 F1740 X117.79 Y114.79 E35.36655
G1 X108.21 Y114.79 E35.68539
G1 X108.21 Y105.20 E36.00438
G1 X117.79 Y105.20 E36.32318
G0 F9000 X117.25 Y105.91
;TYPE:FILL
G1 F1740 X108.91 Y114.25 E36.71547
G0 F9000 X108.75 Y113.85
G1 F1740 X116.85 Y105.74 E37.09689
G0 F9000 X116.29 Y105.74
G1 F1740 X108.75 Y113.29 E37.45169
G0 F9000 X108.75 Y112.72
G1 F1740 X115.72 Y105.74 E37.77987
G0 F9000 X115.16 Y105.74
G1 F1740 X108.75 Y112.15 E38.08147
G0 F9000 X108.75 Y111.59
G1 F1740 X114.59 Y105.74 E38.35645
G0 F9000 X114.03 Y105.74
G1 F1740 X108.75 Y111.02 E38.60480
G0 F9000 X108.75 Y110.46
G1 F1740 X113.46 Y105.74 E38.82658
G0 F9000 X112.90 Y105.74
G1 F1740 X108.75 Y109.89 E39.02176
G0 F9000 X108.75 Y109.33
G1 F1740 X112.33 Y105.74 E39.19032
G0 F9000 X111.76 Y105.74
G1 F1740 X108.75 Y108.76 E39.33228
G0 F9000 X108.75 Y108.19
G1 F1740 X111.20 Y105.74 E39.44763
G0 F9000 X110.63 Y105.74
G1 F1740 X108.75 Y107.63 E39.53637
G0 F9000 X108.75 Y107.06
G1 F1740 X110.07 Y105.74 E39.59851
G0 F9000 X109.50 Y105.74
G1 F1740 X108.75 Y106.50 E39.63404
G0 F9000 X108.75 Y105.93
G1 F1740 X108.94 Y105.74 E39.64296
G0 F9000 X117.25 Y106.48
G1 F1740 X109.47 Y114.25 E40.00867
G0 F9000 X110.04 Y114.25
G1 F1740 X117.25 Y107.04 E40.34776
G0 F9000 X117.25 Y107.61
G1 F1740 X110.61 Y114.25 E40.66022
G0 F9000 X111.17 Y114.25
G1 F1740 X117.25 Y108.18 E40.94607
G0 F9000 X117.25 Y108.74
G1 F1740 X111.74 Y114.25 E41.20536
G0 F9000 X112.30 Y114.25
G1 F1740 X117.25 Y109.31 E41.43805
G0 F9000 X117.25 Y109.87
G1 F1740 X112.87 Y114.25 E41.64412
G0 F9000 X113.43 Y114.25
G1 F1740 X117.25 Y110.44 E41.82361
G0 F9000 X117.25 Y111.00
G1 F1740 X114.00 Y114.25 E41.97653
G0 F9000 X114.57 Y114.25
G1 F1740 X117.25 Y111.57 E42.10287
G0 F9000 X117.25 Y112.13
G1 F1740 X115.13 Y114.25 E42.20259
G0 F9000 X115.70 Y114.25
G1 F1740 X117.25 Y112.70 E42.27571
G0 F9000 X117.25 Y113.27
G1 F1740 X116.26 Y114.25 E42.32223
G0 F9000 X116.83 Y114.25
G1 F1740 X117.25 Y113.83 E42.34212
G92 E0
G1 F3000 E-20.0000
T0
G0 F9000 X118.61 Y114.39
;TYPE:WALL-INNER
G1 F3000 E0.00000
G1 F1740 X118.61 Y105.60 E0.29239
G1 X127.39 Y105.60 E0.58458
G1 X127.39 Y114.39 E0.87694
G1 X118.61 Y114.39 E1.16919
G0 F9000 X118.21 Y114.79
;TYPE:WALL-OUTER
G1 F1740 X118.21 Y105.20 E1.48819
G1 X127.79 Y105.20 E1.80699
G1 X127.79 Y114.79 E2.12595
G1 X118.21 Y114.79 E2.44482
G0 F9000 X118.75 Y114.03
;TYPE:FILL
G1 F1740 X127.04 Y105.74 E2.83476
G0 F9000 X127.25 Y106.09
G1 F1740 X119.09 Y114.25 E3.21869
G0 F9000 X119.66 Y114.25
G1 F1740 X127.25 Y106.66 E3.57603
G0 F9000 X127.25 Y107.22
G1 F1740 X120.22 Y114.25 E3.90675
G0 F9000 X120.79 Y114.25
G1 F1740 X127.25 Y107.79 E4.21087
G0 F9000 X127.25 Y108.35
G1 F1740 X121.35 Y114.25 E4.48839
G0 F9000 X121.92 Y114.25
