; generated by Slic3r 0.9.10b on 2013-12-02 at 12:36:33

; layer_height = 0.2
; perimeters = 2
; top_solid_layers = 3
; bottom_solid_layers = 3
; fill_density = 0.20
; perimeter_speed = 90
; infill_speed = 90
; travel_speed = 250
; nozzle_diameter = 0.4
; filament_diameter = 1.75
; extrusion_multiplier = 1
; perimeters extrusion width = 0.67mm
; infill extrusion width = 0.67mm
; solid infill extrusion width = 0.67mm
; top infill extrusion width = 0.67mm

G21 ; set units to millimeters
M107
M104 S210 ; set temperature
G28 ; home all axes
;M106 S255
;G1 Z200 F1200 ; lift nozzle
M109 S210 ; wait for temperature to be reached
G90 ; use absolute coordinates
G92 E0
M82 ; use absolute distances for extrusion
G1 F3600.000 E-5.00000
G92 E0
G1 Z0.150 F15000.000
G1 X135.780 Y94.570
G1 F3600.000 E5.00000
G1 X136.360 Y93.820 F2160.000 E5.06192
G1 X137.200 Y92.870 E5.14473
G1 X137.870 Y92.200 E5.20661
G1 X138.690 Y91.470 E5.27831
G1 X139.700 Y90.690 E5.36165
G1 X140.620 Y90.070 E5.43410
G1 X141.430 Y89.590 E5.49559
G1 X142.570 Y89.010 E5.57912
G1 X143.580 Y88.580 E5.65081
G1 X144.630 Y88.200 E5.72373
G1 X145.530 Y87.940 E5.78491
G1 X146.600 Y87.700 E5.85652
G1 X147.860 Y87.490 E5.93994
G1 X148.990 Y87.390 E6.01403
G1 X150.050 Y87.370 E6.08326
G1 X151.190 Y87.400 E6.15774
G1 X152.280 Y87.510 E6.22928
G1 X153.220 Y87.660 E6.29145
G1 X154.450 Y87.940 E6.37383
G1 X155.290 Y88.180 E6.43088
G1 X156.410 Y88.580 E6.50855
G1 X157.580 Y89.080 E6.59164
G1 X158.420 Y89.510 E6.65327
G1 X159.370 Y90.070 E6.72529
G1 X160.420 Y90.780 E6.80806
G1 X161.170 Y91.360 E6.86998
G1 X162.120 Y92.200 E6.95280
G1 X162.790 Y92.870 E7.01468
G1 X163.520 Y93.690 E7.08637
G1 X164.300 Y94.700 E7.16971
G1 X164.920 Y95.620 E7.24216
G1 X165.400 Y96.430 E7.30365
G1 X165.980 Y97.570 E7.38718
G1 X166.410 Y98.580 E7.45887
G1 X166.790 Y99.630 E7.53179
G1 X167.050 Y100.530 E7.59297
G1 X167.290 Y101.600 E7.66459
G1 X167.500 Y102.860 E7.74801
G1 X167.600 Y103.990 E7.82209
G1 X167.620 Y105.050 E7.89133
G1 X167.590 Y106.190 E7.96580
G1 X167.480 Y107.280 E8.03735
G1 X167.330 Y108.220 E8.09951
G1 X167.050 Y109.460 E8.18253
G1 X166.790 Y110.360 E8.24371
G1 X166.410 Y111.410 E8.31663
G1 X165.910 Y112.580 E8.39973
G1 X165.480 Y113.420 E8.46135
G1 X164.920 Y114.370 E8.53337
G1 X164.210 Y115.420 E8.61615
G1 X163.630 Y116.170 E8.67807
G1 X162.790 Y117.120 E8.76088
G1 X162.120 Y117.790 E8.82276
G1 X161.300 Y118.520 E8.89446
G1 X160.290 Y119.300 E8.97780
G1 X159.370 Y119.920 E9.05025
G1 X158.560 Y120.400 E9.11174
G1 X157.420 Y120.980 E9.19527
G1 X156.410 Y121.410 E9.26695
G1 X155.290 Y121.810 E9.34462
G1 X154.450 Y122.050 E9.40167
G1 X153.220 Y122.330 E9.48406
G1 X152.280 Y122.480 E9.54622
G1 X151.000 Y122.600 E9.63018
G1 X149.930 Y122.620 E9.70007
G1 X148.800 Y122.590 E9.77389
G1 X147.860 Y122.500 E9.83556
G1 X146.760 Y122.320 E9.90835
G1 X145.530 Y122.050 E9.99059
G1 X144.630 Y121.790 E10.05177
G1 X143.580 Y121.410 E10.12469
G1 X142.410 Y120.910 E10.20779
G1 X141.570 Y120.480 E10.26941
G1 X140.620 Y119.920 E10.34143
G1 X139.570 Y119.210 E10.42421
G1 X138.820 Y118.630 E10.48612
G1 X137.870 Y117.790 E10.56894
G1 X137.200 Y117.120 E10.63082
G1 X136.470 Y116.300 E10.70252
G1 X135.690 Y115.290 E10.78585
G1 X135.070 Y114.370 E10.85831
G1 X134.590 Y113.560 E10.91979
G1 X134.010 Y112.420 E11.00333
G1 X133.580 Y111.410 E11.07501
G1 X133.180 Y110.290 E11.15268
G1 X132.940 Y109.450 E11.20973
G1 X132.660 Y108.220 E11.29211
G1 X132.510 Y107.280 E11.35428
G1 X132.390 Y106.000 E11.43824
G1 X132.370 Y104.930 E11.50813
G1 X132.400 Y103.800 E11.58195
G1 X132.490 Y102.860 E11.64362
G1 X132.670 Y101.760 E11.71641
G1 X132.940 Y100.540 E11.79801
G1 X133.180 Y99.700 E11.85506
G1 X133.580 Y98.580 E11.93273
G1 X134.080 Y97.410 E12.01582
G1 X134.510 Y96.570 E12.07745
G1 X135.070 Y95.620 E12.14947
G1 X135.726 Y94.647 E12.22609
G1 F3600.000 E7.22609
G92 E0
G1 X147.619 Y103.270 F15000.000
G1 F3600.000 E5.00000
G1 X147.985 Y102.855 F720.000 E5.03617
G1 X148.423 Y102.515 E5.07236
G1 X148.747 Y102.337 E5.09649
G1 X149.055 Y102.214 E5.11818
G1 X149.268 Y102.150 E5.13269
G1 X149.631 Y102.080 E5.15682
G1 X150.185 Y102.063 E5.19301
G1 X150.732 Y102.149 E5.22917
G1 X151.253 Y102.337 E5.26535
G1 X151.730 Y102.619 E5.30152
G1 X152.145 Y102.985 E5.33770
G1 X152.485 Y103.423 E5.37388
G1 X152.736 Y103.917 E5.41005
G1 X152.850 Y104.268 E5.43417
G1 X152.914 Y104.594 E5.45587
G1 X152.937 Y104.815 E5.47039
G1 X152.937 Y105.185 E5.49451
G1 X152.850 Y105.732 E5.53070
G1 X152.663 Y106.253 E5.56687
G1 X152.381 Y106.730 E5.60304
G1 X152.015 Y107.145 E5.63921
G1 X151.577 Y107.485 E5.67539
G1 X151.253 Y107.663 E5.69953
G1 X150.909 Y107.799 E5.72366
G1 X150.369 Y107.920 E5.75984
G1 X149.815 Y107.937 E5.79600
G1 X149.268 Y107.850 E5.83219
G1 X148.747 Y107.663 E5.86836
G1 X148.270 Y107.381 E5.90453
G1 X147.855 Y107.015 E5.94070
G1 X147.515 Y106.577 E5.97688
G1 X147.264 Y106.083 E6.01305
G1 X147.109 Y105.551 E6.04922
G1 X147.057 Y105.000 E6.08540
G1 X147.109 Y104.449 E6.12157
G1 X147.264 Y103.917 E6.15775
G1 X147.421 Y103.582 E6.18188
G1 X147.566 Y103.348 E6.19987
G1 X148.118 Y103.654 F15000.000
G1 X148.416 Y103.313 F720.000 E6.22946
G1 X148.760 Y103.046 E6.25791
G1 X149.148 Y102.848 E6.28635
G1 X149.566 Y102.727 E6.31480
G1 X150.000 Y102.686 E6.34325
G1 X150.290 Y102.704 E6.36223
G1 X150.576 Y102.758 E6.38121
G1 X150.985 Y102.906 E6.40965
G1 X151.360 Y103.128 E6.43810
G1 X151.687 Y103.416 E6.46655
G1 X151.954 Y103.760 E6.49500
G1 X152.152 Y104.148 E6.52344
G1 X152.242 Y104.424 E6.54242
G1 X152.293 Y104.692 E6.56025
G1 X152.310 Y105.145 E6.58984
G1 X152.242 Y105.576 E6.61829
G1 X152.094 Y105.985 E6.64674
G1 X151.872 Y106.360 E6.67518
G1 X151.584 Y106.687 E6.70363
G1 X151.240 Y106.954 E6.73208
G1 X150.985 Y107.094 E6.75106
G1 X150.715 Y107.201 E6.77004
G1 X150.290 Y107.296 E6.79848
G1 X149.855 Y107.310 E6.82693
G1 X149.424 Y107.242 E6.85538
G1 X149.015 Y107.094 E6.88383
G1 X148.640 Y106.872 E6.91227
G1 X148.313 Y106.584 E6.94072
G1 X148.046 Y106.240 E6.96917
G1 X147.848 Y105.852 E6.99761
G1 X147.727 Y105.434 E7.02606
G1 X147.686 Y105.000 E7.05450
G1 X147.727 Y104.566 E7.08295
G1 X147.848 Y104.148 E7.11140
G1 X148.065 Y103.732 E7.14201
G1 X148.568 Y103.709 F15000.000
G1 F3600.000 E2.14201
G92 E0
G1 X139.733 Y95.399 F15000.000
G1 F3600.000 E5.00000
G1 X140.377 Y94.753 F2160.000 E5.05958
G1 X141.040 Y94.169 E5.11725
G1 X141.737 Y93.628 E5.17492
G1 X142.468 Y93.131 E5.23259
G1 X143.228 Y92.682 E5.29026
G1 X144.015 Y92.281 E5.34793
G1 X144.825 Y91.930 E5.40560
G1 X145.656 Y91.631 E5.46328
G1 X146.504 Y91.385 E5.52095
G1 X147.366 Y91.192 E5.57862
G1 X148.238 Y91.054 E5.63629
G1 X149.117 Y90.971 E5.69396
G1 X150.000 Y90.943 E5.75163
G1 X150.883 Y90.971 E5.80930
G1 X151.762 Y91.054 E5.86697
G1 X152.634 Y91.192 E5.92464
G1 X153.496 Y91.385 E5.98231
G1 X154.344 Y91.631 E6.03998
G1 X155.147 Y91.920 E6.09574
G1 X155.985 Y92.281 E6.15532
G1 X156.772 Y92.682 E6.21299
G1 X157.532 Y93.131 E6.27067
G1 X158.263 Y93.628 E6.32833
G1 X158.960 Y94.169 E6.38600
G1 X159.623 Y94.753 E6.44368
G1 X160.247 Y95.377 E6.50135
G1 X160.831 Y96.040 E6.55902
G1 X161.372 Y96.737 E6.61669
G1 X161.869 Y97.468 E6.67436
G1 X162.318 Y98.228 E6.73203
G1 X162.719 Y99.015 E6.78970
G1 X163.070 Y99.825 E6.84737
G1 X163.369 Y100.656 E6.90504
G1 X163.615 Y101.504 E6.96271
G1 X163.802 Y102.337 E7.01848
G1 X163.946 Y103.238 E7.07805
G1 X164.029 Y104.117 E7.13572
G1 X164.057 Y105.000 E7.19339
G1 X164.029 Y105.883 E7.25106
G1 X163.946 Y106.762 E7.30874
G1 X163.808 Y107.634 E7.36641
G1 X163.615 Y108.496 E7.42408
G1 X163.369 Y109.344 E7.48175
G1 X163.070 Y110.175 E7.53942
G1 X162.719 Y110.985 E7.59709
G1 X162.318 Y111.772 E7.65476
G1 X161.869 Y112.532 E7.71243
G1 X161.372 Y113.263 E7.77010
G1 X160.831 Y113.960 E7.82777
G1 X160.247 Y114.623 E7.88544
G1 X159.623 Y115.247 E7.94311
G1 X158.960 Y115.831 E8.00079
G1 X158.263 Y116.372 E8.05846
G1 X157.532 Y116.869 E8.11613
G1 X156.772 Y117.318 E8.17380
G1 X155.985 Y117.719 E8.23147
G1 X155.175 Y118.070 E8.28914
G1 X154.344 Y118.369 E8.34681
G1 X153.496 Y118.615 E8.40448
G1 X152.634 Y118.808 E8.46215
G1 X151.762 Y118.946 E8.51982
G1 X150.883 Y119.029 E8.57749
G1 X150.000 Y119.057 E8.63516
G1 X149.088 Y119.027 E8.69474
G1 X148.238 Y118.946 E8.75050
G1 X147.366 Y118.808 E8.80817
G1 X146.504 Y118.615 E8.86584
G1 X145.656 Y118.369 E8.92352
G1 X144.825 Y118.070 E8.98119
G1 X144.015 Y117.719 E9.03886
G1 X143.228 Y117.318 E9.09653
G1 X142.468 Y116.869 E9.15420
G1 X141.737 Y116.372 E9.21187
G1 X141.040 Y115.831 E9.26954
G1 X140.377 Y115.247 E9.32721
G1 X139.753 Y114.623 E9.38488
G1 X139.169 Y113.960 E9.44255
G1 X138.628 Y113.263 E9.50022
G1 X138.131 Y112.532 E9.55789
G1 X137.682 Y111.772 E9.61557
G1 X137.281 Y110.985 E9.67323
G1 X136.930 Y110.175 E9.73090
G1 X136.631 Y109.344 E9.78858
G1 X136.385 Y108.496 E9.84625
G1 X136.187 Y107.605 E9.90583
G1 X136.054 Y106.762 E9.96159
G1 X135.971 Y105.883 E10.01926
G1 X135.943 Y105.000 E10.07693
G1 X135.971 Y104.117 E10.13460
G1 X136.054 Y103.238 E10.19227
G1 X136.192 Y102.366 E10.24994
G1 X136.385 Y101.504 E10.30761
G1 X136.631 Y100.656 E10.36528
G1 X136.930 Y99.825 E10.42296
G1 X137.281 Y99.015 E10.48063
G1 X137.682 Y98.228 E10.53829
G1 X138.131 Y97.468 E10.59597
G1 X138.628 Y96.737 E10.65364
G1 X139.169 Y96.040 E10.71131
G1 X139.671 Y95.470 E10.76091
G1 X139.262 Y94.984 F15000.000
G1 X139.947 Y94.295 F1080.000 E10.82436
G1 X140.639 Y93.684 E10.88461
G1 X141.368 Y93.119 E10.94486
G1 X142.131 Y92.600 E11.00510
G1 X142.925 Y92.131 E11.06536
G1 X143.747 Y91.712 E11.12560
G1 X144.594 Y91.346 E11.18585
G1 X145.462 Y91.033 E11.24610
G1 X146.348 Y90.776 E11.30635
G1 X147.248 Y90.574 E11.36660
G1 X148.159 Y90.430 E11.42685
G1 X149.078 Y90.343 E11.48710
G1 X150.000 Y90.314 E11.54735
G1 X150.922 Y90.343 E11.60760
G1 X151.841 Y90.430 E11.66785
G1 X152.752 Y90.574 E11.72810
G1 X153.652 Y90.776 E11.78835
G1 X154.538 Y91.033 E11.84860
G1 X155.360 Y91.329 E11.90565
G1 X156.253 Y91.712 E11.96910
G1 X157.075 Y92.131 E12.02935
G1 X157.869 Y92.600 E12.08960
G1 X158.632 Y93.119 E12.14985
G1 X159.361 Y93.684 E12.21010
G1 X160.053 Y94.295 E12.27035
G1 X160.705 Y94.947 E12.33060
G1 X161.316 Y95.639 E12.39085
G1 X161.881 Y96.368 E12.45110
G1 X162.400 Y97.131 E12.51135
G1 X162.869 Y97.925 E12.57160
G1 X163.288 Y98.747 E12.63185
G1 X163.654 Y99.594 E12.69210
G1 X163.967 Y100.462 E12.75235
G1 X164.224 Y101.348 E12.81260
G1 X164.426 Y102.248 E12.87285
G1 X164.570 Y103.159 E12.93310
G1 X164.657 Y104.078 E12.99335
G1 X164.686 Y105.000 E13.05360
G1 X164.657 Y105.922 E13.11385
G1 X164.570 Y106.841 E13.17410
G1 X164.426 Y107.752 E13.23434
G1 X164.224 Y108.652 E13.29460
G1 X163.967 Y109.538 E13.35485
G1 X163.654 Y110.406 E13.41510
G1 X163.288 Y111.253 E13.47534
G1 X162.869 Y112.075 E13.53559
G1 X162.400 Y112.869 E13.59585
G1 X161.881 Y113.632 E13.65609
G1 X161.316 Y114.361 E13.71634
G1 X160.705 Y115.053 E13.77659
G1 X160.053 Y115.705 E13.83684
G1 X159.361 Y116.316 E13.89709
G1 X158.632 Y116.881 E13.95734
G1 X157.869 Y117.400 E14.01759
G1 X157.075 Y117.869 E14.07784
G1 X156.253 Y118.288 E14.13809
G1 X155.406 Y118.654 E14.19834
G1 X154.538 Y118.967 E14.25859
G1 X153.652 Y119.224 E14.31884
G1 X152.752 Y119.426 E14.37909
G1 X151.841 Y119.570 E14.43934
G1 X150.922 Y119.657 E14.49959
G1 X150.000 Y119.686 E14.55984
G1 X149.078 Y119.657 E14.62009
G1 X148.159 Y119.570 E14.68034
G1 X147.248 Y119.426 E14.74059
G1 X146.348 Y119.224 E14.80084
G1 X145.462 Y118.967 E14.86109
G1 X144.594 Y118.654 E14.92134
G1 X143.747 Y118.288 E14.98159
G1 X142.925 Y117.869 E15.04184
G1 X142.131 Y117.400 E15.10209
G1 X141.368 Y116.881 E15.16234
G1 X140.639 Y116.316 E15.22259
G1 X139.947 Y115.705 E15.28284
G1 X139.295 Y115.053 E15.34309
G1 X138.684 Y114.361 E15.40334
G1 X138.119 Y113.632 E15.46359
G1 X137.600 Y112.869 E15.52384
G1 X137.131 Y112.075 E15.58409
G1 X136.712 Y111.253 E15.64434
G1 X136.346 Y110.406 E15.70459
G1 X136.033 Y109.538 E15.76484
G1 X135.776 Y108.652 E15.82509
G1 X135.574 Y107.752 E15.88534
G1 X135.430 Y106.841 E15.94559
G1 X135.343 Y105.922 E16.00584
G1 X135.314 Y105.000 E16.06609
G1 X135.343 Y104.078 E16.12634
G1 X135.430 Y103.159 E16.18659
G1 X135.574 Y102.248 E16.24684
G1 X135.776 Y101.348 E16.30709
G1 X136.033 Y100.462 E16.36734
G1 X136.346 Y99.594 E16.42759
G1 X136.712 Y98.747 E16.48784
G1 X137.131 Y97.925 E16.54809
G1 X137.600 Y97.131 E16.60834
G1 X138.119 Y96.368 E16.66859
G1 X138.684 Y95.639 E16.72884
G1 X139.200 Y95.054 E16.77973
G1 X139.873 Y95.132 F15000.000
G1 F3600.000 E11.77973
G92 E0
G1 X150.000 Y91.399 F15000.000
G1 F3600.000 E5.00000
G1 X150.854 Y91.426 F2160.000 E5.05618
G1 X151.705 Y91.506 E5.11236
G1 X152.549 Y91.640 E5.16855
G1 X153.382 Y91.826 E5.22473
G1 X154.203 Y92.064 E5.28092
G1 X155.007 Y92.354 E5.33710
G1 X155.791 Y92.693 E5.39328
G1 X156.552 Y93.081 E5.44946
G1 X157.288 Y93.516 E5.50565
G1 X157.995 Y93.996 E5.56183
G1 X158.670 Y94.520 E5.61801
G1 X159.311 Y95.085 E5.67420
G1 X159.915 Y95.689 E5.73038
G1 X160.480 Y96.330 E5.78657
G1 X161.004 Y97.005 E5.84275
G1 X161.484 Y97.712 E5.89893
G1 X161.919 Y98.448 E5.95511
G1 X162.307 Y99.209 E6.01129
G1 X162.646 Y99.993 E6.06748
G1 X162.936 Y100.797 E6.12366
G1 X163.174 Y101.618 E6.17985
G1 X163.360 Y102.451 E6.23603
G1 X163.494 Y103.295 E6.29221
G1 X163.574 Y104.146 E6.34840
G1 X163.601 Y105.000 E6.40458
G1 X163.574 Y105.854 E6.46076
G1 X163.494 Y106.705 E6.51694
G1 X163.360 Y107.549 E6.57313
G1 X163.174 Y108.382 E6.62931
G1 X162.936 Y109.203 E6.68550
G1 X162.646 Y110.007 E6.74168
G1 X162.307 Y110.791 E6.79786
G1 X161.919 Y111.552 E6.85404
G1 X161.484 Y112.288 E6.91023
G1 X161.004 Y112.995 E6.96641
G1 X160.480 Y113.670 E7.02259
G1 X159.915 Y114.311 E7.07878
G1 X159.311 Y114.915 E7.13496
G1 X158.670 Y115.480 E7.19115
G1 X157.995 Y116.004 E7.24732
G1 X157.288 Y116.484 E7.30351
G1 X156.552 Y116.919 E7.35969
G1 X155.791 Y117.307 E7.41587
G1 X155.007 Y117.646 E7.47206
G1 X154.203 Y117.936 E7.52824
G1 X153.382 Y118.174 E7.58442
G1 X152.549 Y118.360 E7.64061
G1 X151.705 Y118.494 E7.69679
G1 X150.854 Y118.574 E7.75297
G1 X150.000 Y118.601 E7.80916
G1 X149.146 Y118.574 E7.86534
G1 X148.295 Y118.494 E7.92152
G1 X147.451 Y118.360 E7.97771
G1 X146.618 Y118.174 E8.03389
G1 X145.797 Y117.936 E8.09007
G1 X144.993 Y117.646 E8.14626
G1 X144.209 Y117.307 E8.20244
G1 X143.448 Y116.919 E8.25862
G1 X142.712 Y116.484 E8.31481
G1 X142.005 Y116.004 E8.37099
G1 X141.330 Y115.480 E8.42717
G1 X140.689 Y114.915 E8.48335
G1 X140.085 Y114.311 E8.53954
G1 X139.520 Y113.670 E8.59572
G1 X138.996 Y112.995 E8.65190
G1 X138.516 Y112.288 E8.70809
G1 X138.081 Y111.552 E8.76427
G1 X137.693 Y110.791 E8.82045
G1 X137.354 Y110.007 E8.87663
G1 X137.064 Y109.203 E8.93282
G1 X136.826 Y108.382 E8.98900
G1 X136.640 Y107.549 E9.04519
G1 X136.506 Y106.705 E9.10137
G1 X136.426 Y105.854 E9.15755
G1 X136.399 Y105.000 E9.21374
G1 X136.426 Y104.146 E9.26992
G1 X136.506 Y103.295 E9.32610
G1 X136.640 Y102.451 E9.38228
G1 X136.826 Y101.618 E9.43847
G1 X137.064 Y100.797 E9.49465
G1 X137.354 Y99.993 E9.55084
G1 X137.693 Y99.209 E9.60702
G1 X138.081 Y98.448 E9.66320
G1 X138.516 Y97.712 E9.71939
G1 X138.996 Y97.005 E9.77557
G1 X139.520 Y96.330 E9.83175
G1 X140.085 Y95.689 E9.88793
G1 X140.689 Y95.085 E9.94412
G1 X141.330 Y94.520 E10.00030
G1 X142.005 Y93.996 E10.05648
G1 X142.712 Y93.516 E10.11266
G1 X143.448 Y93.081 E10.16885
G1 X144.209 Y92.693 E10.22503
G1 X144.993 Y92.354 E10.28121
G1 X145.797 Y92.064 E10.33740
G1 X146.618 Y91.826 E10.39358
G1 X147.451 Y91.640 E10.44977
G1 X148.295 Y91.506 E10.50595
G1 X149.146 Y91.426 E10.56213
G1 X149.905 Y91.402 E10.61208
G1 X150.814 Y92.057 F15000.000
