;Generated with Cura_SteamEngine 13.12
M104 T1 S210.000000
M109 T0 S210.000000
M109 T1 S210.000000
T0
;Sliced at: Tue 14-01-2014 12:35:25
;Basic settings: Layer height: 0.2 Walls: 0.8 Fill: 10
;Print time: #P_TIME#
;Filament used: #F_AMNT#m #F_WGHT#g
;Filament cost: #F_COST#
;M190 S70 ;Uncomment to add your own bed temperature line
;M104 S210 ;Uncomment to add your own temperature line
;M109 T1 S210 ;Uncomment to add your own temperature line
;M109 T0 S210 ;Uncomment to add your own temperature line
G21        ;metric values
G90        ;absolute positioning
M107       ;start with the fan off
G28 X0 Y0  ;move X/Y to min endstops
G28 Z0     ;move Z to min endstops
G1 Z15.0 F9000 ;move the platform down 15mm

G1 X4 Y4 F12000

T1                      ;Switch to the 2nd extruder
G92 E0                  ;zero the extruded length
G1 F200 E30             ;extrude 10mm of feed stock
G92 E0                  ;zero the extruded length again
G1 F200 E-20
T0                      ;Switch to the first extruder
G92 E0                  ;zero the extruded length
G1 F200 E30             ;extrude 10mm of feed stock
G92 E0                  ;zero the extruded length again
G1 F9000
;Put printing message on LCD screen
M117 Printing...

;Layer count: 175
;LAYER:0
M107
G0 F2940 X102.77 Y89.76 Z0.30
;TYPE:SKIRT
G1 F3000 E0.00000
G1 F1140 X102.97 Y89.56 E0.01418
G1 X103.69 Y88.99 E0.05980
G1 X103.93 Y88.83 E0.07434
G1 X104.74 Y88.39 E0.12007
G1 X105.00 Y88.28 E0.13429
G1 X105.87 Y88.00 E0.17993
G1 X106.15 Y87.94 E0.19431
G1 X107.00 Y87.82 E0.23710
G1 X107.17 Y87.81 E0.24576
G1 X107.44 Y87.80 E0.25899
G1 X107.48 Y87.80 E0.26113
G1 X128.85 Y87.82 E1.32739
G1 X129.07 Y87.83 E1.33809
G1 X129.85 Y87.94 E1.37741
G1 X130.13 Y88.00 E1.39184
G1 X131.00 Y88.28 E1.43748
G1 X131.26 Y88.39 E1.45169
G1 X132.07 Y88.83 E1.49743
G1 X132.31 Y88.99 E1.51197
G1 X133.03 Y89.56 E1.55758
G1 X133.23 Y89.76 E1.57177
G1 X133.83 Y90.44 E1.61734
G1 X134.00 Y90.68 E1.63174
G1 X134.47 Y91.46 E1.67743
G1 X134.60 Y91.72 E1.69182
G1 X134.92 Y92.58 E1.73743
G1 X135.00 Y92.86 E1.75173
G1 X135.16 Y93.76 E1.79736
G1 X135.18 Y94.04 E1.81168
G1 X135.20 Y115.54 E2.88402
G1 X135.20 Y115.61 E2.88792
G1 X135.18 Y116.07 E2.91074
G1 X135.15 Y116.28 E2.92123
G1 X135.00 Y117.14 E2.96499
G1 X134.92 Y117.42 E2.97928
G1 X134.60 Y118.28 E3.02489
G1 X134.47 Y118.54 E3.03928
G1 X134.00 Y119.32 E3.08497
G1 X133.83 Y119.56 E3.09937
G1 X133.23 Y120.24 E3.14495
G1 X133.03 Y120.44 E3.15913
G1 X132.31 Y121.01 E3.20474
G1 X132.07 Y121.17 E3.21929
G1 X131.26 Y121.60 E3.26502
G1 X131.00 Y121.72 E3.27924
G1 X130.13 Y122.00 E3.32488
G1 X129.85 Y122.06 E3.33926
G1 X128.98 Y122.18 E3.38306
G1 X128.76 Y122.19 E3.39376
G1 X107.45 Y122.20 E4.45737
G1 X107.34 Y122.20 E4.46286
G1 X106.69 Y122.15 E4.49531
G1 X106.44 Y122.11 E4.50783
G1 X105.57 Y121.92 E4.55250
G1 X105.30 Y121.83 E4.56672
G1 X104.45 Y121.47 E4.61232
G1 X104.20 Y121.33 E4.62678
G1 X103.43 Y120.83 E4.67251
G1 X103.21 Y120.65 E4.68693
G1 X102.55 Y120.01 E4.73252
G1 X102.36 Y119.80 E4.74673
G1 X101.82 Y119.06 E4.79234
G1 X101.67 Y118.81 E4.80682
G1 X101.28 Y117.99 E4.85247
G1 X101.18 Y117.72 E4.86681
G1 X100.93 Y116.84 E4.91235
G1 X100.88 Y116.56 E4.92656
G1 X100.81 Y115.72 E4.96864
G1 X100.80 Y115.57 E4.97593
G1 X100.82 Y94.04 E6.05002
G1 X100.84 Y93.76 E6.06434
G1 X101.00 Y92.86 E6.10997
G1 X101.08 Y92.58 E6.12427
G1 X101.40 Y91.72 E6.16988
G1 X101.53 Y91.46 E6.18427
G1 X102.00 Y90.68 E6.22996
G1 X102.17 Y90.44 E6.24436
G1 X102.77 Y89.76 E6.28993
G0 F2940 X113.55 Y100.76
G1 F1140 X113.16 Y101.20 E6.31911
G1 X112.82 Y101.68 E6.34838
G1 X112.53 Y102.18 E6.37748
G1 X112.29 Y102.72 E6.40704
G1 X112.10 Y103.26 E6.43564
G1 X111.96 Y103.84 E6.46517
G1 X111.88 Y104.42 E6.49455
G1 X111.85 Y105.00 E6.52347
G1 X111.88 Y105.58 E6.55239
G1 X111.96 Y106.16 E6.58177
G1 X112.10 Y106.74 E6.61129
G1 X112.29 Y107.28 E6.63990
G1 X112.53 Y107.82 E6.66946
G1 X112.82 Y108.32 E6.69856
G1 X113.16 Y108.80 E6.72782
G1 X113.55 Y109.24 E6.75700
G1 X113.97 Y109.65 E6.78629
G1 X114.42 Y110.00 E6.81497
G1 X114.92 Y110.32 E6.84439
G1 X115.45 Y110.59 E6.87402
G1 X115.98 Y110.81 E6.90266
G1 X116.55 Y110.97 E6.93230
G1 X117.11 Y111.08 E6.96071
G1 X117.70 Y111.14 E6.99017
G1 X118.05 Y111.14 E7.00788
G1 X118.06 Y111.14 E7.00823
G1 X118.29 Y111.14 E7.01990
G1 X118.88 Y111.08 E7.04922
G1 X119.44 Y110.97 E7.07762
G1 X120.00 Y110.81 E7.10700
G1 X120.55 Y110.59 E7.13651
G1 X121.06 Y110.32 E7.16527
G1 X121.57 Y110.00 E7.19496
G1 X122.02 Y109.65 E7.22363
G1 X122.44 Y109.24 E7.25292
G1 X122.83 Y108.80 E7.28210
G1 X123.17 Y108.32 E7.31136
G1 X123.46 Y107.82 E7.34047
G1 X123.70 Y107.28 E7.37007
G1 X123.89 Y106.73 E7.39906
G1 X124.03 Y106.17 E7.42771
G1 X124.11 Y105.58 E7.45749
G1 X124.14 Y105.00 E7.48646
G1 X124.11 Y104.42 E7.51544
G1 X124.03 Y103.83 E7.54527
G1 X123.89 Y103.27 E7.57387
G1 X123.70 Y102.72 E7.60286
G1 X123.46 Y102.18 E7.63246
G1 X123.17 Y101.68 E7.66156
G1 X122.83 Y101.20 E7.69083
G1 X122.44 Y100.76 E7.72001
G1 X122.02 Y100.35 E7.74930
G1 X121.57 Y100.00 E7.77797
G1 X121.06 Y99.68 E7.80765
G1 X120.55 Y99.41 E7.83642
G1 X120.00 Y99.19 E7.86592
G1 X119.44 Y99.03 E7.89530
G1 X118.88 Y98.92 E7.92371
G1 X118.29 Y98.86 E7.95328
G1 X117.94 Y98.86 E7.97089
G1 X117.93 Y98.86 E7.97124
G1 X117.70 Y98.86 E7.98286
G1 X117.12 Y98.92 E8.01173
G1 X116.55 Y99.03 E8.04088
G1 X115.98 Y99.19 E8.07027
G1 X115.45 Y99.41 E8.09891
G1 X114.92 Y99.68 E8.12854
G1 X114.42 Y100.00 E8.15796
G1 X113.97 Y100.35 E8.18664
G1 X113.55 Y100.76 E8.21593
G1 F3000 E3.71593
G0 F2940 X111.08 Y98.41
;TYPE:WALL-OUTER
G1 F3000 E8.21593
G1 F1140 X110.49 Y99.09 E8.26077
G1 X109.96 Y99.84 E8.30657
G1 X109.50 Y100.63 E8.35192
G1 X109.13 Y101.46 E8.39731
G1 X108.83 Y102.31 E8.44262
G1 X108.61 Y103.20 E8.48797
G1 X108.49 Y104.10 E8.53333
G1 X108.44 Y105.00 E8.57818
G1 X108.49 Y105.91 E8.62398
G1 X108.62 Y106.81 E8.66934
G1 X108.83 Y107.69 E8.71464
G1 X109.13 Y108.55 E8.75997
G1 X109.51 Y109.38 E8.80536
G1 X109.96 Y110.17 E8.85071
G1 X110.49 Y110.91 E8.89604
G1 X111.08 Y111.59 E8.94134
G1 X111.74 Y112.22 E8.98669
G1 X112.46 Y112.78 E9.03206
G1 X113.22 Y113.27 E9.07738
G1 X114.03 Y113.69 E9.12279
G1 X114.88 Y114.03 E9.16813
G1 X115.75 Y114.28 E9.21342
G1 X116.64 Y114.45 E9.25878
G1 X117.55 Y114.54 E9.30414
G1 X118.06 Y114.54 E9.32958
G1 X118.44 Y114.54 E9.34894
G1 X119.36 Y114.45 E9.39480
G1 X120.25 Y114.28 E9.44011
G1 X121.12 Y114.02 E9.48542
G1 X121.97 Y113.69 E9.53082
G1 X122.77 Y113.27 E9.57616
G1 X123.53 Y112.78 E9.62102
G1 X124.25 Y112.21 E9.66685
G1 X124.91 Y111.59 E9.71219
G1 X125.50 Y110.91 E9.75704
G1 X126.03 Y110.16 E9.80283
G1 X126.49 Y109.37 E9.84818
G1 X126.86 Y108.54 E9.89357
G1 X127.16 Y107.69 E9.93890
G1 X127.37 Y106.80 E9.98424
G1 X127.50 Y105.90 E10.02955
G1 X127.55 Y105.01 E10.07440
G1 X127.55 Y104.99 E10.07495
G1 X127.50 Y104.09 E10.12026
G1 X127.37 Y103.19 E10.16562
G1 X127.16 Y102.31 E10.21091
G1 X126.86 Y101.45 E10.25627
G1 X126.48 Y100.62 E10.30163
G1 X126.03 Y99.83 E10.34699
G1 X125.50 Y99.09 E10.39231
G1 X124.90 Y98.41 E10.43762
G1 X124.25 Y97.78 E10.48296
G1 X123.53 Y97.22 E10.52833
G1 X122.77 Y96.73 E10.57366
G1 X121.96 Y96.31 E10.61902
G1 X121.11 Y95.97 E10.66441
G1 X120.24 Y95.72 E10.70970
G1 X119.35 Y95.55 E10.75506
G1 X118.44 Y95.46 E10.80036
G1 X117.94 Y95.46 E10.82576
G1 X117.55 Y95.46 E10.84517
G1 X116.63 Y95.55 E10.89098
G1 X115.74 Y95.72 E10.93638
G1 X114.87 Y95.98 E10.98169
G1 X114.02 Y96.31 E11.02705
G1 X113.22 Y96.73 E11.07243
G1 X112.46 Y97.22 E11.11729
G1 X111.74 Y97.78 E11.16312
G1 X111.08 Y98.41 E11.20846
G0 F2940 X110.62 Y97.81
G1 F1140 X111.32 Y97.16 E11.25569
G1 X112.06 Y96.58 E11.30276
G1 X112.84 Y96.08 E11.34878
G1 X113.68 Y95.65 E11.39624
G1 X114.55 Y95.29 E11.44301
G1 X115.44 Y95.02 E11.48922
G1 X116.36 Y94.83 E11.53630
G1 X117.30 Y94.72 E11.58330
G1 X118.22 Y94.70 E11.62961
G1 X119.17 Y94.77 E11.67707
G1 X120.08 Y94.91 E11.72295
G1 X121.01 Y95.15 E11.77059
G1 X121.87 Y95.46 E11.81650
G1 X122.74 Y95.86 E11.86420
G1 X123.55 Y96.33 E11.91065
G1 X124.31 Y96.86 E11.95697
G1 X125.02 Y97.47 E12.00401
G1 X125.68 Y98.15 E12.05100
G1 X126.27 Y98.86 E12.09717
G1 X126.80 Y99.66 E12.14484
G1 X127.24 Y100.47 E12.19108
G1 X127.61 Y101.32 E12.23749
G1 X127.91 Y102.22 E12.28477
G1 X128.12 Y103.14 E12.33163
G1 X128.25 Y104.06 E12.37781
G1 X128.29 Y105.00 E12.42501
G1 X128.25 Y105.94 E12.47196
G1 X128.12 Y106.86 E12.51839
G1 X127.91 Y107.78 E12.56525
G1 X127.62 Y108.67 E12.61233
G1 X127.24 Y109.53 E12.65894
G1 X126.80 Y110.34 E12.70517
G1 X126.27 Y111.13 E12.75266
G1 X125.68 Y111.85 E12.79902
G1 X125.02 Y112.53 E12.84601
G1 X124.31 Y113.14 E12.89304
G1 X123.55 Y113.67 E12.93937
G1 X122.74 Y114.14 E12.98582
G1 X121.87 Y114.54 E13.03352
G1 X121.01 Y114.85 E13.07942
G1 X120.08 Y115.09 E13.12706
G1 X119.17 Y115.23 E13.17294
G1 X118.22 Y115.30 E13.22040
G1 X117.30 Y115.28 E13.26671
G1 X116.36 Y115.17 E13.31371
G1 X115.44 Y114.98 E13.36080
G1 X114.55 Y114.71 E13.40701
G1 X113.68 Y114.35 E13.45377
G1 X112.84 Y113.92 E13.50123
G1 X112.06 Y113.42 E13.54725
G1 X111.32 Y112.84 E13.59432
G1 X110.62 Y112.19 E13.64155
G1 X110.01 Y111.50 E13.68760
G1 X109.45 Y110.75 E13.73467
G1 X108.96 Y109.95 E13.78131
G1 X108.55 Y109.10 E13.82838
G1 X108.22 Y108.23 E13.87476
G1 X107.96 Y107.32 E13.92186
G1 X107.79 Y106.39 E13.96899
G1 X107.71 Y105.47 E14.01523
G1 X107.71 Y104.53 E14.06212
G1 X107.79 Y103.61 E14.10836
G1 X107.96 Y102.68 E14.15549
G1 X108.22 Y101.76 E14.20284
G1 X108.55 Y100.90 E14.24897
G1 X108.96 Y100.05 E14.29605
G1 X109.45 Y99.25 E14.34268
G1 X110.01 Y98.49 E14.38993
G1 X110.62 Y97.81 E14.43580
G0 F2940 X110.68 Y97.95
;TYPE:FILL
G1 F1140 X111.15 Y98.14 E14.45918
G1 X111.11 Y97.54 E14.48251
G1 X111.74 Y97.60 E14.50550
G1 X111.72 Y97.02 E14.52904
G1 X112.38 Y97.11 E14.55237
G1 X112.38 Y96.54 E14.57634
G1 X113.07 Y96.66 E14.60031
G1 X113.08 Y96.11 E14.62469
G1 X113.80 Y96.27 E14.64903
G1 X113.84 Y95.74 E14.67354
G1 X114.60 Y95.93 E14.69891
G1 X114.65 Y95.42 E14.72436
G1 X115.45 Y95.65 E14.75068
G1 X115.52 Y95.16 E14.77727
G1 X116.38 Y95.45 E14.80521
G1 X116.46 Y94.97 E14.83373
G1 X117.18 Y95.12 E14.86374
G1 X117.71 Y95.09 E14.89509
G1 X118.28 Y95.08 E14.92801
G1 X118.88 Y95.12 E14.96378
G1 X119.47 Y95.43 E14.99662
G0 F2940 X119.58 Y94.97
G1 F1140 X120.17 Y95.56 E15.03786
G0 F2940 X120.28 Y95.11
G1 F1140 X120.95 Y95.78 E15.08513
G0 F2940 X121.05 Y95.31
G1 F1140 X121.86 Y96.12 E15.14186
G0 F2940 X121.96 Y95.65
G1 F1140 X123.05 Y96.74 E15.21855
G0 F2940 X123.10 Y96.23
G1 F1140 X126.78 Y99.91 E15.47806
G0 F2940 X126.25 Y99.95
G1 F1140 X127.33 Y101.03 E15.55440
G0 F2940 X126.86 Y101.12
G1 F1140 X127.67 Y101.93 E15.61109
G0 F2940 X127.21 Y102.04
G1 F1140 X127.88 Y102.71 E15.65836
G0 F2940 X127.42 Y102.81
G1 F1140 X128.02 Y103.41 E15.70052
G0 F2940 X127.56 Y103.52
G1 F1140 X127.88 Y104.12 E15.73937
G1 X127.91 Y104.71 E15.77430
G1 X127.91 Y105.28 E15.80734
G1 X127.88 Y105.82 E15.83897
G1 X127.82 Y106.32 E15.86859
G1 X127.94 Y107.01 E15.89797
G1 X127.45 Y107.08 E15.92528
G1 X127.71 Y107.92 E15.95290
G1 X127.20 Y107.97 E15.97888
G1 X127.42 Y108.76 E16.00517
G1 X126.90 Y108.80 E16.03011
G1 X127.07 Y109.54 E16.05537
G1 X126.53 Y109.56 E16.07973
G1 X126.67 Y110.27 E16.10429
G1 X126.11 Y110.27 E16.12818
G1 X126.22 Y110.94 E16.15194
G1 X125.64 Y110.93 E16.17585
G1 X125.72 Y111.58 E16.19919
G1 X125.12 Y111.55 E16.22325
G1 X125.18 Y112.17 E16.24619
G1 X124.56 Y112.11 E16.26967
G1 X124.59 Y112.71 E16.29278
G1 X123.94 Y112.63 E16.31624
G1 X123.96 Y113.21 E16.34005
G1 X123.29 Y113.10 E16.36372
G1 X123.28 Y113.66 E16.38814
G1 X122.58 Y113.53 E16.41207
G1 X122.55 Y114.07 E16.43692
G1 X121.82 Y113.90 E16.46108
G1 X121.77 Y114.42 E16.48654
G1 X120.99 Y114.20 E16.51200
G1 X120.93 Y114.71 E16.53864
G1 X120.10 Y114.45 E16.56519
G1 X120.03 Y114.94 E16.59321
G1 X119.35 Y114.83 E16.62159
G1 X118.84 Y114.88 E16.65199
G1 X118.31 Y114.92 E16.68284
G1 X117.74 Y114.91 E16.71638
G1 X117.14 Y114.88 E16.75141
G1 X116.56 Y114.58 E16.78401
G0 F2940 X116.45 Y115.04
G1 F1140 X115.86 Y114.44 E16.82574
G0 F2940 X115.74 Y114.90
G1 F1140 X115.08 Y114.23 E16.87259
G0 F2940 X114.97 Y114.69
G1 F1140 X114.18 Y113.90 E16.92804
G0 F2940 X114.08 Y114.36
G1 F1140 X113.03 Y113.31 E17.00206
G0 F2940 X112.98 Y113.83
G1 F1140 X109.17 Y110.02 E17.27109
G0 F2940 X109.69 Y109.97
G1 F1140 X108.62 Y108.90 E17.34640
G0 F2940 X109.09 Y108.81
G1 F1140 X108.30 Y108.02 E17.40221
G0 F2940 X108.76 Y107.91
G1 F1140 X108.09 Y107.24 E17.44973
G0 F2940 X108.55 Y107.14
G1 F1140 X107.96 Y106.54 E17.49157
G0 F2940 X108.42 Y106.44
G1 F1140 X108.11 Y105.85 E17.52947
G1 X108.08 Y105.25 E17.56449
G1 X108.08 Y104.69 E17.59742
G1 X108.11 Y104.15 E17.62881
G1 X107.96 Y103.44 E17.65862
G1 X108.45 Y103.36 E17.68735
G1 X108.16 Y102.50 E17.71520
G1 X108.66 Y102.44 E17.74226
G1 X108.42 Y101.63 E17.76883
G1 X108.94 Y101.58 E17.79472
G1 X108.74 Y100.82 E17.81996
G1 X109.27 Y100.79 E17.84494
G1 X109.12 Y100.07 E17.86918
G1 X109.67 Y100.06 E17.89345
G1 X109.55 Y99.37 E17.91733
G1 X110.12 Y99.37 E17.94117
G1 X110.02 Y98.71 E17.96471
G1 X110.61 Y98.73 E17.98838
G1 X110.41 Y98.25 E18.01459
G92 E0
G1 F3000 E-20.0000
T1
G0 F2940 X109.41 Y97.97
;TYPE:WALL-INNER
G1 F3000 E0.00000
G1 F1140 X108.76 Y98.84 E0.05432
G1 X108.20 Y99.78 E0.10869
G1 X107.74 Y100.77 E0.16303
G1 X107.37 Y101.79 E0.21736
G1 X107.11 Y102.85 E0.27171
G1 X106.95 Y103.90 E0.32457
G1 X106.90 Y104.98 E0.37887
G1 X106.90 Y105.02 E0.38042
G1 X106.95 Y106.10 E0.43472
G1 X107.12 Y107.18 E0.48905
G1 X107.38 Y108.24 E0.54339
G1 X107.75 Y109.26 E0.59773
G1 X108.22 Y110.25 E0.65209
G1 X108.78 Y111.18 E0.70643
G1 X109.43 Y112.05 E0.76084
G1 X110.16 Y112.86 E0.81513
G1 X110.97 Y113.59 E0.86949
G1 X111.85 Y114.24 E0.92381
G1 X112.78 Y114.80 E0.97817
G1 X113.77 Y115.26 E1.03252
G1 X114.79 Y115.63 E1.08685
G1 X115.85 Y115.89 E1.14120
G1 X116.90 Y116.05 E1.19406
G1 X117.98 Y116.10 E1.24836
G1 X118.02 Y116.10 E1.24990
G1 X119.10 Y116.05 E1.30420
G1 X120.18 Y115.88 E1.35854
G1 X121.24 Y115.62 E1.41288
G1 X122.26 Y115.25 E1.46721
G1 X123.25 Y114.78 E1.52158
G1 X124.18 Y114.22 E1.57592
G1 X125.05 Y113.57 E1.63033
G1 X125.86 Y112.84 E1.68461
G1 X126.59 Y112.03 E1.73897
G1 X127.24 Y111.15 E1.79329
G1 X127.80 Y110.22 E1.84766
G1 X128.26 Y109.23 E1.90200
G1 X128.63 Y108.21 E1.95633
G1 X128.89 Y107.15 E2.01068
G1 X129.04 Y106.10 E2.06355
G1 X129.10 Y105.02 E2.11784
G1 X129.10 Y104.98 E2.11939
G1 X129.04 Y103.90 E2.17369
G1 X128.88 Y102.82 E2.22802
G1 X128.62 Y101.76 E2.28237
G1 X128.25 Y100.74 E2.33670
G1 X127.78 Y99.75 E2.39106
G1 X127.22 Y98.82 E2.44540
G1 X126.57 Y97.95 E2.49981
G1 X125.84 Y97.14 E2.55410
G1 X125.03 Y96.41 E2.60846
G1 X124.15 Y95.76 E2.66278
G1 X123.22 Y95.20 E2.71714
G1 X122.23 Y94.74 E2.77149
G1 X121.21 Y94.37 E2.82582
G1 X120.15 Y94.11 E2.88017
G1 X119.10 Y93.95 E2.93303
G1 X118.02 Y93.90 E2.98733
G1 X117.98 Y93.90 E2.98887
G1 X116.90 Y93.95 E3.04317
G1 X115.82 Y94.12 E3.09751
G1 X114.76 Y94.38 E3.15185
G1 X113.74 Y94.75 E3.20618
G1 X112.75 Y95.22 E3.26055
G1 X111.82 Y95.78 E3.31489
G1 X110.95 Y96.43 E3.36930
G1 X110.14 Y97.16 E3.42358
G1 X109.41 Y97.97 E3.47794
G0 F2940 X104.61 Y94.24
G1 F1140 X104.71 Y93.73 E3.50360
G1 X104.89 Y93.24 E3.52976
G1 X105.16 Y92.80 E3.55556
G1 X105.50 Y92.41 E3.58147
G1 X105.91 Y92.08 E3.60746
G1 X106.36 Y91.84 E3.63339
G1 X106.86 Y91.68 E3.65921
G1 X107.39 Y91.60 E3.68629
G1 X107.52 Y91.60 E3.69238
G1 X128.70 Y91.62 E4.74941
G1 X129.15 Y91.68 E4.77171
G1 X129.64 Y91.84 E4.79752
G1 X130.10 Y92.08 E4.82346
G1 X130.50 Y92.41 E4.84944
G1 X130.84 Y92.80 E4.87536
G1 X131.11 Y93.24 E4.90115
G1 X131.29 Y93.73 E4.92731
G1 X131.38 Y94.24 E4.95297
