;FLAVOR:Marlin
;TIME:62
;Filament used: 0.0374162m
;Layer height: 0.2
;MINX:95.923
;MINY:99.921
;MINZ:0.28
;MAXX:128.077
;MAXY:132.079
;MAXZ:0.88
;LINEARADVANCEPROCESSED
;Generated with Cura_SteamEngine 4.8.0
M140 S60
M105
M190 S60
M104 S200
M105
M109 S200
M82 ;absolute extrusion mode
M501; Read values from EEPROM
M201 X500.00 Y500.00 Z100.00 E5000.00 ;Setup machine max acceleration
M203 X500.00 Y500.00 Z10.00 E50.00 ;Setup machine max feedrate
M204 P500.00 R1000.00 T500.00 ;Setup Print/Retract/Travel acceleration
M205 X8.00 Y8.00 Z0.40 E5.00 ;Setup Jerk
M220 S100 ;Reset Feedrate
M221 S100 ;Reset Flowrate

; Ender 3 Custom Start G-code
G92 E0 ; Reset Extruder
G28 ; Home all axes
M420 s1 z2; Use Level Mesh up to 2mm;
G1 Z2.0 F3000 ; Move Z Axis up little to prevent scratching of Heat Bed
G1 X0.1 Y20 Z0.3 F5000.0 ; Move to start position
G1 X0.1 Y200.0 Z0.3 F1500.0 E15 ; Draw the first line
G1 X0.4 Y200.0 Z0.3 F5000.0 ; Move to side a little
G1 X0.4 Y20 Z0.3 F1500.0 E30 ; Draw the second line
G92 E0 ; Reset Extruder
G1 Z2.0 F3000 ; Move Z Axis up little to prevent scratching of Heat Bed
G1 X5 Y20 Z0.3 F5000.0 ; Move over to prevent blob squish
G92 E0
G92 E0
G1 F2400 E-5
;LAYER_COUNT:4
M900 K0.000000 T0 ;added by LinearAdvanceSettingPlugin
;LAYER:0
M107
M204 S500
M205 X8 Y8
G0 F6000 X101.252 Y104.027 Z0.28
;TYPE:SKIRT
G1 F2400 E0
G1 F1200 X101.656 Y103.684 E0.02715
G1 X101.905 Y103.483 E0.04354
G1 X102.174 Y103.272 E0.06105
G1 X102.57 Y102.972 E0.08649
G1 X103.345 Y102.436 E0.13476
G1 X103.821 Y102.151 E0.16318
G1 X104.126 Y101.979 E0.18111
G1 X104.433 Y101.812 E0.19901
G1 X104.844 Y101.597 E0.22277
G1 X105.966 Y101.088 E0.28588
G1 X106.092 Y101.039 E0.2928
G1 X106.427 Y100.915 E0.3111
G1 X106.846 Y100.77 E0.33381
G1 X107.336 Y100.61 E0.36021
G1 X108.484 Y100.302 E0.42109
G1 X108.934 Y100.213 E0.44459
G1 X109.158 Y100.173 E0.45624
G1 X109.443 Y100.126 E0.47104
G1 X109.924 Y100.053 E0.49596
G1 X111.049 Y99.94 E0.55387
G1 X111.546 Y99.924 E0.57934
G1 X111.81 Y99.921 E0.59286
G1 X112.118 Y99.921 E0.60864
G1 X112.605 Y99.929 E0.63359
G1 X113.868 Y100.022 E0.69845
G1 X114.206 Y100.069 E0.71593
G1 X114.408 Y100.1 E0.7264
G1 X114.696 Y100.149 E0.74136
G1 X115.189 Y100.238 E0.76702
G1 X116.108 Y100.444 E0.81526
G1 X116.583 Y100.584 E0.84063
G1 X116.891 Y100.682 E0.85718
G1 X117.278 Y100.813 E0.87811
G1 X117.754 Y100.984 E0.90402
G1 X118.823 Y101.432 E0.96339
G1 X119.242 Y101.641 E0.98737
G1 X119.486 Y101.769 E1.00148
G1 X119.745 Y101.91 E1.01659
G1 X120.144 Y102.133 E1.04
G1 X120.947 Y102.627 E1.08829
G1 X121.384 Y102.938 E1.11576
G1 X121.671 Y103.153 E1.13413
G1 X121.97 Y103.385 E1.15351
G1 X122.337 Y103.68 E1.17763
G1 X123.232 Y104.483 E1.23922
G1 X123.49 Y104.746 E1.25809
G1 X123.664 Y104.929 E1.27103
G1 X123.905 Y105.19 E1.28922
G1 X124.218 Y105.541 E1.31331
G1 X124.925 Y106.421 E1.37113
G1 X125.202 Y106.815 E1.3958
G1 X125.333 Y107.01 E1.40783
G1 X125.494 Y107.256 E1.42289
G1 X125.766 Y107.685 E1.44891
G1 X126.236 Y108.502 E1.49719
G1 X126.462 Y108.961 E1.52339
G1 X126.589 Y109.235 E1.53886
G1 X126.748 Y109.595 E1.55902
G1 X126.951 Y110.077 E1.58581
G1 X127.412 Y111.398 E1.65747
G1 X127.488 Y111.67 E1.67194
G1 X127.592 Y112.072 E1.69321
G1 X127.717 Y112.594 E1.7207
G1 X127.936 Y113.802 E1.78358
G1 X127.987 Y114.257 E1.80703
G1 X128.028 Y114.732 E1.83145
G1 X128.063 Y115.235 E1.85728
G1 X128.077 Y116.539 E1.92407
G1 X128.057 Y116.897 E1.94244
G1 X128.042 Y117.108 E1.95327
G1 X128.019 Y117.38 E1.96726
G1 X127.971 Y117.881 E1.99304
G1 X127.801 Y119.027 E2.05238
G1 X127.697 Y119.502 E2.07728
G1 X127.633 Y119.767 E2.09125
G1 X127.554 Y120.072 E2.10738
G1 X127.426 Y120.543 E2.13238
G1 X126.975 Y121.868 E2.20408
G1 X126.866 Y122.132 E2.2187
G1 X126.707 Y122.497 E2.2391
G1 X126.487 Y122.98 E2.26628
G1 X125.896 Y124.104 E2.33133
G1 X125.704 Y124.416 E2.35009
G1 X125.571 Y124.626 E2.36282
G1 X125.407 Y124.879 E2.37827
G1 X125.159 Y125.248 E2.40104
G1 X124.416 Y126.23 E2.46411
G1 X124.107 Y126.586 E2.48826
G1 X123.937 Y126.774 E2.50124
G1 X123.757 Y126.968 E2.5148
G1 X123.425 Y127.318 E2.53951
G1 X122.748 Y127.973 E2.58776
G1 X122.344 Y128.316 E2.6149
G1 X122.095 Y128.517 E2.63129
G1 X121.819 Y128.733 E2.64924
G1 X121.421 Y129.034 E2.6748
G1 X120.646 Y129.57 E2.72307
G1 X120.181 Y129.848 E2.75082
G1 X119.878 Y130.019 E2.76864
G1 X119.553 Y130.195 E2.78757
G1 X119.129 Y130.416 E2.81206
G1 X117.945 Y130.948 E2.87854
G1 X117.623 Y131.067 E2.89613
G1 X117.426 Y131.137 E2.90684
G1 X117.154 Y131.23 E2.92156
G1 X116.664 Y131.39 E2.94796
G1 X115.516 Y131.698 E3.00884
G1 X115.066 Y131.787 E3.03234
G1 X114.842 Y131.827 E3.04399
G1 X114.553 Y131.875 E3.059
G1 X114.071 Y131.948 E3.08397
G1 X112.95 Y132.06 E3.14167
G1 X112.454 Y132.076 E3.16709
G1 X112.191 Y132.079 E3.18056
G1 X111.882 Y132.079 E3.19639
G1 X111.395 Y132.071 E3.22134
G1 X110.132 Y131.978 E3.28621
G1 X109.774 Y131.927 E3.30473
G1 X109.306 Y131.852 E3.32901
G1 X108.817 Y131.764 E3.35445
G1 X107.898 Y131.557 E3.40271
G1 X107.417 Y131.416 E3.42838
G1 X107.109 Y131.318 E3.44493
G1 X106.729 Y131.19 E3.46547
G1 X106.252 Y131.019 E3.49143
G1 X105.129 Y130.545 E3.55386
G1 X104.758 Y130.359 E3.57512
G1 X104.514 Y130.231 E3.58923
G1 X104.261 Y130.094 E3.60397
G1 X103.865 Y129.873 E3.6272
G1 X102.775 Y129.179 E3.69338
G1 X102.503 Y128.979 E3.71068
G1 X102.285 Y128.814 E3.72468
G1 X102.03 Y128.615 E3.74125
G1 X101.663 Y128.32 E3.76537
G1 X100.768 Y127.517 E3.82696
G1 X100.485 Y127.229 E3.84764
G1 X100.321 Y127.056 E3.85985
G1 X100.095 Y126.809 E3.877
G1 X99.78 Y126.456 E3.90123
G1 X99.183 Y125.728 E3.94945
G1 X98.879 Y125.301 E3.9763
G1 X98.695 Y125.03 E3.99308
G1 X98.487 Y124.713 E4.0125
G1 X98.216 Y124.283 E4.03853
G1 X97.748 Y123.466 E4.08676
G1 X97.541 Y123.043 E4.11088
G1 X97.416 Y122.774 E4.12607
G1 X97.257 Y122.415 E4.14618
G1 X97.053 Y121.932 E4.17304
G1 X96.723 Y121.049 E4.22132
G1 X96.58 Y120.574 E4.24673
G1 X96.505 Y120.303 E4.26113
G1 X96.409 Y119.932 E4.28076
G1 X96.284 Y119.411 E4.30821
G1 X96.064 Y118.198 E4.37135
G1 X96.012 Y117.739 E4.39501
G1 X95.972 Y117.268 E4.41922
G1 X95.937 Y116.766 E4.445
G1 X95.923 Y115.461 E4.51184
G1 X95.942 Y115.11 E4.52985
G1 X95.957 Y114.897 E4.54079
G1 X95.983 Y114.592 E4.55647
G1 X96.033 Y114.083 E4.58266
G1 X96.202 Y112.958 E4.64093
G1 X96.301 Y112.506 E4.66463
G1 X96.366 Y112.236 E4.67886
G1 X96.449 Y111.915 E4.69584
G1 X96.576 Y111.449 E4.72058
G1 X97.017 Y110.151 E4.7908
G1 X97.125 Y109.888 E4.80536
G1 X97.292 Y109.502 E4.8269
G1 X97.513 Y109.017 E4.8542
G1 X98.131 Y107.852 E4.92175
G1 X98.301 Y107.575 E4.9384
G1 X98.44 Y107.356 E4.95168
G1 X98.6 Y107.111 E4.96667
G1 X98.842 Y106.751 E4.98889
G1 X99.584 Y105.77 E5.05189
G1 X99.893 Y105.414 E5.07603
G1 X100.063 Y105.226 E5.08902
G1 X100.243 Y105.032 E5.10257
G1 X100.575 Y104.682 E5.12728
G1 X100.88 Y104.387 E5.14902
G0 F1080 X101.252 Y104.027
G0 F6000 X101.558 Y104.343
G1 F1200 X101.932 Y104.026 E5.17413
G1 X102.181 Y103.825 E5.19052
G1 X102.44 Y103.623 E5.20734
G1 X102.836 Y103.323 E5.23279
G1 X103.595 Y102.798 E5.28006
G1 X104.037 Y102.535 E5.3064
G1 X104.342 Y102.363 E5.32434
G1 X104.637 Y102.202 E5.34155
G1 X105.048 Y101.987 E5.36531
G1 X106.125 Y101.498 E5.4259
G1 X106.251 Y101.449 E5.43282
G1 X106.573 Y101.33 E5.4504
G1 X106.982 Y101.189 E5.47256
G1 X107.472 Y101.029 E5.49897
G1 X108.575 Y100.733 E5.55746
G1 X109.011 Y100.646 E5.58023
G1 X109.235 Y100.606 E5.59189
G1 X109.509 Y100.561 E5.60611
G1 X109.99 Y100.488 E5.63103
G1 X111.071 Y100.38 E5.68667
G1 X111.551 Y100.364 E5.71127
G1 X111.815 Y100.361 E5.7248
G1 X112.111 Y100.361 E5.73996
G1 X112.598 Y100.369 E5.76491
G1 X113.811 Y100.459 E5.82721
G1 X114.139 Y100.504 E5.84417
G1 X114.341 Y100.535 E5.85463
G1 X114.618 Y100.582 E5.86902
G1 X115.111 Y100.671 E5.89468
G1 X116.449 Y101.003 E5.9653
G1 X116.757 Y101.101 E5.98185
G1 X117.129 Y101.227 E6.00197
G1 X117.605 Y101.398 E6.02787
G1 X118.632 Y101.829 E6.08492
G1 X119.038 Y102.031 E6.10815
G1 X119.282 Y102.159 E6.12226
G1 X119.531 Y102.294 E6.13677
G1 X119.93 Y102.517 E6.16018
G1 X120.715 Y103.002 E6.20745
G1 X121.12 Y103.29 E6.2329
G1 X121.407 Y103.505 E6.25127
G1 X121.695 Y103.728 E6.26993
G1 X122.062 Y104.023 E6.29404
G1 X122.921 Y104.794 E6.35317
G1 X123.171 Y105.05 E6.37149
G1 X123.345 Y105.233 E6.38443
G1 X123.576 Y105.483 E6.40186
G1 X123.889 Y105.834 E6.42595
G1 X124.569 Y106.679 E6.48151
G1 X124.837 Y107.061 E6.50541
G1 X124.968 Y107.256 E6.51744
G1 X125.122 Y107.492 E6.53187
G1 X125.394 Y107.921 E6.55789
G1 X125.854 Y108.721 E6.60516
G1 X126.063 Y109.146 E6.62942
G1 X126.19 Y109.42 E6.64489
G1 X126.342 Y109.765 E6.6642
G1 X126.545 Y110.247 E6.69099
G1 X126.988 Y111.516 E6.75983
G1 X127.064 Y111.788 E6.7743
G1 X127.164 Y112.175 E6.79477
G1 X127.289 Y112.697 E6.82226
G1 X127.5 Y113.857 E6.88265
G1 X127.549 Y114.297 E6.90533
G1 X127.589 Y114.763 E6.92929
G1 X127.624 Y115.266 E6.95511
G1 X127.638 Y116.518 E7.01925
G1 X127.618 Y116.866 E7.0371
G1 X127.603 Y117.077 E7.04793
G1 X127.581 Y117.338 E7.06135
G1 X127.533 Y117.839 E7.08713
G1 X127.37 Y118.94 E7.14414
G1 X127.269 Y119.399 E7.16821
G1 X127.205 Y119.664 E7.18217
G1 X127.13 Y119.957 E7.19767
G1 X127.002 Y120.428 E7.22267
G1 X126.568 Y121.7 E7.29151
G1 X126.459 Y121.964 E7.30614
G1 X126.307 Y122.315 E7.32573
G1 X126.087 Y122.798 E7.35291
G1 X125.519 Y123.877 E7.41537
G1 X125.333 Y124.181 E7.43362
G1 X125.2 Y124.391 E7.44636
G1 X125.041 Y124.633 E7.46119
G1 X124.793 Y125.002 E7.48396
G1 X124.08 Y125.946 E7.54455
G1 X123.781 Y126.291 E7.56794
G1 X123.611 Y126.479 E7.58092
G1 X123.438 Y126.665 E7.59393
G1 X123.106 Y127.015 E7.61864
G1 X122.442 Y127.657 E7.66595
G1 X122.068 Y127.974 E7.69106
G1 X121.819 Y128.175 E7.70745
G1 X121.553 Y128.382 E7.72472
G1 X121.155 Y128.683 E7.75028
G1 X120.395 Y129.208 E7.79759
G1 X119.964 Y129.465 E7.82329
G1 X119.661 Y129.636 E7.84111
G1 X119.349 Y129.805 E7.85929
G1 X118.925 Y130.026 E7.88378
G1 X117.788 Y130.536 E7.94761
G1 X117.475 Y130.653 E7.96472
G1 X117.278 Y130.723 E7.97543
G1 X117.018 Y130.811 E7.98949
G1 X116.528 Y130.971 E8.01589
G1 X115.425 Y131.267 E8.07439
G1 X114.989 Y131.354 E8.09716
G1 X114.765 Y131.394 E8.10881
G1 X114.487 Y131.44 E8.12325
G1 X114.005 Y131.513 E8.14822
G1 X112.928 Y131.62 E8.20365
G1 X112.449 Y131.636 E8.2282
G1 X112.186 Y131.639 E8.24167
G1 X111.889 Y131.639 E8.25689
G1 X111.402 Y131.631 E8.28183
G1 X110.189 Y131.541 E8.34413
G1 X109.842 Y131.493 E8.36208
G1 X109.636 Y131.461 E8.37276
G1 X109.384 Y131.418 E8.38585
G1 X108.895 Y131.33 E8.4113
G1 X107.994 Y131.128 E8.45859
G1 X107.551 Y130.997 E8.48226
G1 X107.243 Y130.899 E8.49881
G1 X106.878 Y130.776 E8.51854
G1 X106.401 Y130.605 E8.5445
G1 X105.322 Y130.15 E8.60447
G1 X104.962 Y129.969 E8.62511
G1 X104.718 Y129.841 E8.63923
G1 X104.475 Y129.71 E8.65337
G1 X104.079 Y129.489 E8.6766
G1 X103.033 Y128.822 E8.74014
G1 X102.769 Y128.628 E8.75692
G1 X102.551 Y128.463 E8.77092
G1 X102.305 Y128.272 E8.78687
G1 X101.938 Y127.977 E8.81099
G1 X101.079 Y127.206 E8.87011
G1 X100.805 Y126.926 E8.89018
G1 X100.641 Y126.753 E8.90239
G1 X100.423 Y126.516 E8.91888
G1 X100.108 Y126.163 E8.94312
G1 X99.524 Y125.449 E8.99036
G1 X99.243 Y125.054 E9.01519
G1 X99.059 Y124.783 E9.03197
G1 X98.86 Y124.479 E9.05058
G1 X98.589 Y124.049 E9.07662
G1 X97.94 Y122.857 E9.14613
G1 X97.815 Y122.588 E9.16133
G1 X97.662 Y122.244 E9.18061
G1 X97.458 Y121.761 E9.20747
G1 X97.004 Y120.456 E9.27824
G1 X96.929 Y120.185 E9.29264
G1 X96.837 Y119.829 E9.31148
G1 X96.712 Y119.308 E9.33892
G1 X96.5 Y118.143 E9.39957
G1 X96.488 Y118.047 E9.40453
G1 X96.451 Y117.698 E9.4225
G1 X96.411 Y117.237 E9.4462
G1 X96.376 Y116.735 E9.47198
G1 X96.362 Y115.482 E9.53616
G1 X96.381 Y115.141 E9.55366
G1 X96.396 Y114.928 E9.56459
G1 X96.421 Y114.635 E9.57966
G1 X96.471 Y114.126 E9.60585
G1 X96.633 Y113.046 E9.66179
G1 X96.729 Y112.609 E9.68471
G1 X96.794 Y112.339 E9.69893
G1 X96.873 Y112.031 E9.71522
G1 X97 Y111.565 E9.73996
G1 X97.424 Y110.319 E9.80737
G1 X97.532 Y110.056 E9.82193
G1 X97.693 Y109.685 E9.84265
G1 X97.914 Y109.2 E9.86995
G1 X98.506 Y108.08 E9.93484
G1 X98.673 Y107.811 E9.95105
G1 X98.812 Y107.592 E9.96434
G1 X98.965 Y107.357 E9.9787
G1 X99.207 Y106.997 E10.00092
G1 X99.92 Y106.054 E10.06148
G1 X100.219 Y105.709 E10.08486
G1 X100.389 Y105.521 E10.09784
G1 X100.562 Y105.335 E10.11085
G1 X100.894 Y104.985 E10.13556
G1 X101.186 Y104.703 E10.15636
G0 F1080 X101.558 Y104.343
G0 F6000 X102.209 Y104.369
G1 F1200 X102.458 Y104.168 E10.17275
G1 X102.706 Y103.974 E10.18887
G1 X103.102 Y103.674 E10.21432
G1 X103.846 Y103.16 E10.26064
G1 X104.253 Y102.918 E10.28489
G1 X104.558 Y102.746 E10.30283
G1 X104.841 Y102.592 E10.31933
G1 X105.252 Y102.377 E10.34309
G1 X106.285 Y101.908 E10.4012
G1 X106.411 Y101.859 E10.40812
G1 X106.719 Y101.745 E10.42494
G1 X107.119 Y101.607 E10.44662
G1 X107.609 Y101.447 E10.47302
G1 X108.666 Y101.163 E10.52908
G1 X109.088 Y101.079 E10.55112
G1 X109.312 Y101.039 E10.56277
G1 X109.575 Y100.996 E10.57642
G1 X110.056 Y100.923 E10.60134
G1 X111.092 Y100.819 E10.65467
G1 X111.556 Y100.804 E10.67845
G1 X111.82 Y100.801 E10.69198
G1 X112.104 Y100.801 E10.70652
G1 X112.591 Y100.809 E10.73147
G1 X113.754 Y100.895 E10.7912
G1 X114.072 Y100.939 E10.80765
G1 X114.274 Y100.97 E10.81811
G1 X114.54 Y101.015 E10.83193
G1 X115.033 Y101.104 E10.85759
G1 X116.316 Y101.422 E10.9253
G1 X116.624 Y101.52 E10.94185
G1 X116.98 Y101.641 E10.96111
G1 X117.456 Y101.812 E10.98702
G1 X118.441 Y102.225 E11.04172
G1 X118.834 Y102.421 E11.06422
G1 X119.078 Y102.549 E11.07833
G1 X119.316 Y102.678 E11.0922
G1 X119.715 Y102.901 E11.11561
G1 X120.484 Y103.376 E11.16191
G1 X120.856 Y103.643 E11.18536
G1 X121.143 Y103.858 E11.20373
G1 X121.419 Y104.071 E11.22159
G1 X121.786 Y104.366 E11.2457
G1 X122.61 Y105.105 E11.3024
G1 X122.852 Y105.353 E11.32015
G1 X123.026 Y105.536 E11.33308
G1 X123.248 Y105.776 E11.34982
G1 X123.561 Y106.127 E11.37391
G1 X124.212 Y106.937 E11.42714
G1 X124.471 Y107.306 E11.45023
G1 X124.602 Y107.501 E11.46226
G1 X124.75 Y107.727 E11.4761
G1 X125.022 Y108.156 E11.50212
G1 X125.663 Y109.331 E11.57068
G1 X125.79 Y109.605 E11.58615
G1 X125.937 Y109.936 E11.6047
G1 X126.14 Y110.418 E11.63149
G1 X126.564 Y111.635 E11.6975
G1 X126.64 Y111.907 E11.71196
G1 X126.736 Y112.277 E11.73154
G1 X126.861 Y112.799 E11.75903
G1 X127.063 Y113.911 E11.81692
G1 X127.111 Y114.338 E11.83893
G1 X127.15 Y114.794 E11.86237
G1 X127.185 Y115.297 E11.8882
G1 X127.198 Y116.497 E11.94967
G1 X127.179 Y116.835 E11.96701
G1 X127.164 Y117.046 E11.97784
G1 X127.143 Y117.296 E11.99069
G1 X127.095 Y117.797 E12.01647
G1 X126.938 Y118.852 E12.07111
G1 X126.841 Y119.295 E12.09433
G1 X126.777 Y119.56 E12.1083
G1 X126.705 Y119.841 E12.12316
G1 X126.577 Y120.312 E12.14816
G1 X126.162 Y121.532 E12.21416
G1 X126.053 Y121.796 E12.22879
G1 X125.907 Y122.132 E12.24755
G1 X125.687 Y122.615 E12.27474
G1 X125.142 Y123.65 E12.33465
G1 X124.961 Y123.945 E12.35238
G1 X124.828 Y124.155 E12.36511
G1 X124.676 Y124.388 E12.37936
G1 X124.428 Y124.757 E12.40214
G1 X123.744 Y125.662 E12.46024
G1 X123.454 Y125.996 E12.4829
G1 X123.284 Y126.184 E12.49588
G1 X123.119 Y126.362 E12.50831
G1 X122.787 Y126.712 E12.53302
G1 X121.791 Y127.631 E12.60243
G1 X121.542 Y127.832 E12.61883
G1 X121.288 Y128.031 E12.63535
G1 X120.89 Y128.332 E12.66091
G1 X120.145 Y128.845 E12.70724
G1 X119.748 Y129.081 E12.7309
G1 X119.445 Y129.252 E12.74872
G1 X119.146 Y129.415 E12.76616
G1 X118.722 Y129.636 E12.79065
G1 X117.632 Y130.125 E12.85185
G1 X117.328 Y130.238 E12.86846
G1 X117.131 Y130.308 E12.87917
G1 X116.881 Y130.393 E12.89269
G1 X116.391 Y130.553 E12.91909
G1 X115.334 Y130.837 E12.97515
