; generated by Slic3r 0.9.10b on 2013-12-02 at 16:49:11

; layer_height = 0.2
; perimeters = 2
; top_solid_layers = 3
; bottom_solid_layers = 3
; fill_density = 0.20
; perimeter_speed = 90
; infill_speed = 90
; travel_speed = 250
; nozzle_diameter = 0.4
; filament_diameter = 1.75
; extrusion_multiplier = 1
; perimeters extrusion width = 0.67mm
; infill extrusion width = 0.67mm
; solid infill extrusion width = 0.67mm
; top infill extrusion width = 0.67mm

G21 ; set units to millimeters
M107
M104 S210 ; set temperature
G28 ; home all axes
;M106 S255
;G1 Z200 F1200 ; lift nozzle
M109 S210 ; wait for temperature to be reached
G90 ; use absolute coordinates
G92 E0
M82 ; use absolute distances for extrusion
G1 F3600.000 E-5.00000
G92 E0
G1 Z0.150 F15000.000
G1 X98.207 Y89.450
G1 F3600.000 E5.00000
G1 X99.447 Y88.130 F2160.000 E5.11827
G1 X104.887 Y82.790 E5.61610
G1 X106.167 Y81.590 E5.73068
G1 X106.467 Y81.330 E5.75661
G1 X106.847 Y81.060 E5.78705
G1 X108.327 Y80.210 E5.89851
G1 X108.677 Y80.030 E5.92421
G1 X109.097 Y79.860 E5.95380
G1 X110.727 Y79.370 E6.06496
G1 X118.267 Y77.420 E6.57357
G1 X119.937 Y77.030 E6.68556
G1 X120.347 Y76.960 E6.71272
G1 X120.777 Y76.920 E6.74093
G1 X179.397 Y76.910 E10.56917
G1 X179.857 Y76.940 E10.59928
G1 X180.237 Y77.000 E10.62440
G1 X181.907 Y77.390 E10.73640
G1 X189.397 Y79.470 E11.24405
G1 X191.037 Y79.960 E11.35583
G1 X191.477 Y80.120 E11.38641
G1 X191.827 Y80.290 E11.41182
G1 X193.307 Y81.140 E11.52328
G1 X193.707 Y81.410 E11.55479
G1 X193.997 Y81.640 E11.57896
G1 X195.247 Y82.810 E11.69078
G1 X200.667 Y88.330 E12.19599
G1 X201.867 Y89.610 E12.31057
G1 X202.167 Y89.970 E12.34118
G1 X202.377 Y90.280 E12.36563
G1 X203.357 Y91.990 E12.49434
G1 X203.577 Y92.530 E12.53242
G1 X204.117 Y94.280 E12.65202
G1 X206.017 Y101.660 E13.14970
G1 X206.417 Y103.380 E13.26502
G1 X206.487 Y103.790 E13.29219
G1 X206.527 Y104.220 E13.32039
G1 X206.527 Y106.040 E13.43925
G1 X206.487 Y106.530 E13.47135
G1 X206.447 Y106.770 E13.48724
G1 X206.057 Y108.440 E13.59924
G1 X203.987 Y115.880 E14.10357
G1 X203.467 Y117.590 E14.22029
G1 X203.267 Y118.150 E14.25913
G1 X203.147 Y118.370 E14.27549
G1 X202.287 Y119.850 E14.38728
G1 X201.957 Y120.350 E14.42640
G1 X200.557 Y121.860 E14.56088
G1 X195.077 Y127.240 E15.06240
G1 X193.657 Y128.550 E15.18857
G1 X193.157 Y128.910 E15.22880
G1 X191.447 Y129.890 E15.35752
G1 X190.907 Y130.110 E15.39560
G1 X189.167 Y130.650 E15.51457
G1 X181.787 Y132.550 E16.01225
G1 X180.057 Y132.950 E16.12821
G1 X179.647 Y133.020 E16.15537
G1 X179.217 Y133.060 E16.18358
G1 X120.597 Y133.070 E20.01182
G1 X120.137 Y133.040 E20.04193
G1 X119.757 Y132.980 E20.06705
G1 X118.087 Y132.590 E20.17904
G1 X110.597 Y130.510 E20.68670
G1 X108.957 Y130.020 E20.79848
G1 X108.487 Y129.840 E20.83135
G1 X108.177 Y129.690 E20.85384
G1 X106.547 Y128.750 E20.97672
G1 X106.337 Y128.610 E20.99320
G1 X105.997 Y128.330 E21.02197
G1 X104.677 Y127.090 E21.14024
G1 X99.337 Y121.650 E21.63806
G1 X98.137 Y120.370 E21.75265
G1 X97.877 Y120.070 E21.77857
G1 X97.607 Y119.690 E21.80902
G1 X96.687 Y118.080 E21.93011
G1 X96.577 Y117.860 E21.94618
G1 X96.407 Y117.440 E21.97577
G1 X95.917 Y115.810 E22.08692
G1 X93.967 Y108.270 E22.59553
G1 X93.577 Y106.600 E22.70753
G1 X93.507 Y106.190 E22.73469
G1 X93.467 Y105.760 E22.76289
G1 X93.477 Y103.830 E22.88893
G1 X93.557 Y103.210 E22.92976
G1 X93.947 Y101.540 E23.04176
G1 X96.027 Y94.050 E23.54941
G1 X96.517 Y92.410 E23.66119
G1 X96.697 Y91.940 E23.69406
G1 X96.847 Y91.630 E23.71655
G1 X97.787 Y90.000 E23.83943
G1 X97.927 Y89.790 E23.85591
G1 X98.147 Y89.523 E23.87852
G1 F3600.000 E18.87852
G92 E0
G1 X154.332 Y102.388 F15000.000
G1 F3600.000 E5.00000
G1 X154.371 Y102.258 F2160.000 E5.00885
G1 X155.151 Y100.708 E5.12215
G1 X156.170 Y99.475 E5.22663
G1 X156.639 Y98.979 E5.27119
G1 X156.268 Y96.727 E5.42024
G1 X156.386 Y94.996 E5.53356
G1 X156.896 Y93.338 E5.64686
G1 X157.696 Y91.952 E5.75134
G1 X157.771 Y91.840 E5.76018
G1 X158.966 Y90.580 E5.87352
G1 X160.298 Y89.695 E5.97800
G1 X160.416 Y89.627 E5.98685
G1 X161.915 Y89.068 E6.09136
G1 X162.569 Y88.873 E6.13589
G1 X163.374 Y86.738 E6.28492
G1 X164.342 Y85.298 E6.39823
G1 X165.509 Y84.203 E6.50275
G1 X165.613 Y84.117 E6.51159
G1 X167.121 Y83.257 E6.62489
G1 X168.784 Y82.764 E6.73818
G1 X170.516 Y82.664 E6.85150
G1 X172.094 Y82.930 E6.95602
G1 X172.758 Y83.088 E7.00058
G1 X174.522 Y81.641 E7.14960
G1 X176.080 Y80.878 E7.26290
G1 X177.772 Y80.490 E7.37626
G1 X179.507 Y80.499 E7.48952
G1 X181.195 Y80.904 E7.60288
G1 X182.628 Y81.615 E7.70735
G1 X182.745 Y81.683 E7.71620
G1 X183.978 Y82.703 E7.82069
G1 X184.474 Y83.171 E7.86524
G1 X186.726 Y82.800 E8.01430
G1 X188.457 Y82.919 E8.12761
G1 X190.115 Y83.429 E8.24091
G1 X191.501 Y84.229 E8.34539
G1 X191.613 Y84.304 E8.35423
G1 X192.872 Y85.499 E8.46757
G1 X193.758 Y86.831 E8.57205
G1 X193.825 Y86.949 E8.58090
G1 X194.384 Y88.448 E8.68541
G1 X194.579 Y89.101 E8.72994
G1 X196.715 Y89.907 E8.87897
G1 X198.155 Y90.875 E8.99228
G1 X199.250 Y92.042 E9.09680
G1 X199.336 Y92.146 E9.10564
G1 X200.195 Y93.653 E9.21894
G1 X200.689 Y95.316 E9.33224
G1 X200.789 Y97.049 E9.44555
G1 X200.523 Y98.627 E9.55007
G1 X200.365 Y99.291 E9.59463
G1 X201.812 Y101.055 E9.74365
G1 X202.575 Y102.613 E9.85695
G1 X202.963 Y104.305 E9.97031
G1 X202.954 Y106.039 E10.08357
G1 X202.549 Y107.727 E10.19693
G1 X201.837 Y109.160 E10.30141
G1 X201.769 Y109.277 E10.31025
G1 X200.750 Y110.511 E10.41474
G1 X200.281 Y111.007 E10.45929
G1 X200.652 Y113.259 E10.60835
G1 X200.534 Y114.990 E10.72166
G1 X200.024 Y116.648 E10.83496
G1 X199.224 Y118.033 E10.93945
G1 X199.149 Y118.146 E10.94828
G1 X197.954 Y119.405 E11.06162
G1 X196.622 Y120.291 E11.16610
G1 X196.504 Y120.358 E11.17495
G1 X195.005 Y120.917 E11.27946
G1 X194.351 Y121.112 E11.32400
G1 X193.546 Y123.247 E11.47302
G1 X192.578 Y124.687 E11.58633
G1 X191.411 Y125.783 E11.69085
G1 X191.307 Y125.869 E11.69969
G1 X189.799 Y126.728 E11.81299
G1 X188.136 Y127.222 E11.92629
G1 X186.404 Y127.322 E12.03961
G1 X184.826 Y127.056 E12.14412
G1 X184.162 Y126.898 E12.18868
G1 X182.398 Y128.345 E12.33770
G1 X180.840 Y129.108 E12.45100
G1 X179.147 Y129.495 E12.56436
G1 X177.413 Y129.486 E12.67762
G1 X175.725 Y129.081 E12.79099
G1 X174.292 Y128.370 E12.89546
G1 X174.175 Y128.302 E12.90431
G1 X172.942 Y127.283 E13.00879
G1 X172.446 Y126.814 E13.05334
G1 X170.194 Y127.185 E13.20240
G1 X168.463 Y127.067 E13.31572
G1 X166.805 Y126.556 E13.42902
G1 X165.419 Y125.756 E13.53350
G1 X165.307 Y125.681 E13.54233
G1 X164.048 Y124.487 E13.65568
G1 X163.162 Y123.154 E13.76016
G1 X163.095 Y123.037 E13.76901
G1 X162.536 Y121.537 E13.87351
G1 X162.341 Y120.884 E13.91805
G1 X160.205 Y120.079 E14.06707
G1 X158.765 Y119.111 E14.18038
G1 X157.670 Y117.944 E14.28490
G1 X157.584 Y117.839 E14.29375
G1 X156.725 Y116.332 E14.40704
G1 X156.231 Y114.669 E14.52034
G1 X156.131 Y112.937 E14.63366
G1 X156.397 Y111.359 E14.73817
G1 X156.555 Y110.695 E14.78273
G1 X155.108 Y108.930 E14.93175
G1 X154.345 Y107.372 E15.04506
G1 X153.980 Y105.814 E15.14959
G1 X153.957 Y105.680 E15.15843
G1 X153.966 Y103.946 E15.27170
G1 X154.310 Y102.479 E15.37007
G1 X153.725 Y102.224 F15000.000
G1 X153.786 Y102.025 F1080.000 E15.38365
G1 X154.634 Y100.347 E15.50641
G1 X155.699 Y99.058 E15.61562
G1 X155.967 Y98.775 E15.64110
G1 X155.637 Y96.739 E15.77580
G1 X155.769 Y94.863 E15.89858
G1 X156.327 Y93.068 E16.02133
G1 X157.162 Y91.620 E16.13054
G1 X157.278 Y91.447 E16.14411
G1 X158.575 Y90.086 E16.26691
G1 X159.968 Y89.160 E16.37612
G1 X160.148 Y89.057 E16.38969
G1 X161.715 Y88.472 E16.49893
G1 X162.089 Y88.361 E16.52440
G1 X162.822 Y86.433 E16.65908
G1 X163.874 Y84.875 E16.78184
G1 X165.094 Y83.730 E16.89109
G1 X165.255 Y83.598 E16.90467
G1 X166.889 Y82.671 E17.02742
G1 X168.693 Y82.140 E17.15017
G1 X170.570 Y82.035 E17.27295
G1 X172.219 Y82.314 E17.38220
G1 X172.599 Y82.404 E17.40768
G1 X174.197 Y81.101 E17.54234
G1 X175.887 Y80.278 E17.66510
G1 X177.721 Y79.862 E17.78792
G1 X179.600 Y79.876 E17.91064
G1 X181.428 Y80.318 E18.03346
G1 X182.926 Y81.062 E18.14266
G1 X183.105 Y81.166 E18.15624
G1 X184.394 Y82.232 E18.26545
G1 X184.678 Y82.500 E18.29093
G1 X186.714 Y82.170 E18.42563
G1 X188.589 Y82.302 E18.54840
G1 X190.385 Y82.859 E18.67116
G1 X191.833 Y83.695 E18.78037
G1 X192.006 Y83.811 E18.79394
G1 X193.367 Y85.108 E18.91674
G1 X194.293 Y86.500 E19.02595
G1 X194.396 Y86.681 E19.03952
G1 X194.980 Y88.248 E19.14876
G1 X195.092 Y88.622 E19.17423
G1 X197.020 Y89.355 E19.30891
G1 X198.577 Y90.407 E19.43167
G1 X199.722 Y91.627 E19.54092
G1 X199.854 Y91.787 E19.55450
G1 X200.782 Y93.422 E19.67725
G1 X201.313 Y95.225 E19.80000
G1 X201.417 Y97.102 E19.92278
G1 X201.139 Y98.752 E20.03202
G1 X201.049 Y99.132 E20.05751
G1 X202.352 Y100.730 E20.19217
G1 X203.175 Y102.419 E20.31493
G1 X203.591 Y104.254 E20.43775
G1 X203.577 Y106.133 E20.56046
G1 X203.134 Y107.960 E20.68328
G1 X202.391 Y109.458 E20.79249
G1 X202.286 Y109.638 E20.80607
G1 X201.221 Y110.927 E20.91528
G1 X200.953 Y111.211 E20.94076
G1 X201.283 Y113.247 E21.07546
G1 X201.151 Y115.122 E21.19823
G1 X200.593 Y116.917 E21.32099
G1 X199.758 Y118.366 E21.43020
G1 X199.642 Y118.538 E21.44377
G1 X198.345 Y119.900 E21.56657
G1 X196.952 Y120.825 E21.67578
G1 X196.772 Y120.929 E21.68935
G1 X195.205 Y121.513 E21.79859
G1 X194.831 Y121.625 E21.82406
G1 X194.098 Y123.552 E21.95874
G1 X193.046 Y125.110 E22.08150
G1 X191.826 Y126.255 E22.19075
G1 X191.665 Y126.387 E22.20433
G1 X190.031 Y127.315 E22.32708
G1 X188.227 Y127.845 E22.44983
G1 X186.350 Y127.950 E22.57261
G1 X184.701 Y127.672 E22.68185
G1 X184.321 Y127.581 E22.70734
G1 X182.723 Y128.884 E22.84200
G1 X181.033 Y129.708 E22.96475
G1 X179.199 Y130.124 E23.08758
G1 X177.320 Y130.110 E23.21029
G1 X175.492 Y129.667 E23.33311
G1 X173.994 Y128.924 E23.44232
G1 X173.815 Y128.819 E23.45590
G1 X172.526 Y127.754 E23.56511
G1 X172.242 Y127.486 E23.59059
G1 X170.206 Y127.815 E23.72529
G1 X168.331 Y127.683 E23.84806
G1 X166.535 Y127.126 E23.97082
G1 X165.087 Y126.290 E24.08002
G1 X164.914 Y126.175 E24.09359
G1 X163.553 Y124.878 E24.21640
G1 X162.627 Y123.485 E24.32561
G1 X162.524 Y123.305 E24.33918
G1 X161.940 Y121.737 E24.44842
G1 X161.828 Y121.364 E24.47389
G1 X159.900 Y120.630 E24.60857
G1 X158.343 Y119.578 E24.73133
G1 X157.198 Y118.359 E24.84058
G1 X157.066 Y118.198 E24.85416
G1 X156.138 Y116.563 E24.97691
G1 X155.607 Y114.760 E25.09966
G1 X155.503 Y112.883 E25.22244
G1 X155.781 Y111.233 E25.33168
G1 X155.871 Y110.854 E25.35717
G1 X154.568 Y109.256 E25.49183
G1 X153.745 Y107.566 E25.61458
G1 X153.363 Y105.937 E25.72385
G1 X153.329 Y105.732 E25.73743
G1 X153.343 Y103.853 E25.86015
G1 X153.703 Y102.316 E25.96326
G1 X153.926 Y102.173 F15000.000
G1 F3600.000 E20.96326
G92 E0
G1 X150.429 Y100.032 F15000.000
G1 X153.313 Y91.646
G1 X156.621 Y86.723
G1 X163.325 Y80.887
G1 X166.764 Y79.027
G1 X178.884 Y76.540
G1 X179.296 Y76.540
G1 X179.357 Y80.946
G1 F3600.000 E5.00000
G1 X179.439 Y80.951 F2160.000 E5.00542
G1 X181.030 Y81.331 E5.11299
G1 X182.412 Y82.017 E5.21447
G1 X182.483 Y82.058 E5.21992
G1 X183.676 Y83.044 E5.32170
G1 X184.326 Y83.658 E5.38049
G1 X186.739 Y83.258 E5.54138
G1 X188.365 Y83.367 E5.64858
G1 X189.924 Y83.845 E5.75580
G1 X191.260 Y84.616 E5.85729
G1 X191.328 Y84.662 E5.86271
G1 X192.516 Y85.786 E5.97027
G1 X193.370 Y87.071 E6.07175
G1 X193.412 Y87.143 E6.07721
G1 X193.952 Y88.593 E6.17901
G1 X194.208 Y89.449 E6.23777
G1 X196.497 Y90.309 E6.39862
G1 X197.851 Y91.217 E6.50585
G1 X198.908 Y92.342 E6.60737
G1 X198.960 Y92.406 E6.61280
G1 X199.771 Y93.825 E6.72029
G1 X200.237 Y95.387 E6.82749
G1 X200.333 Y97.014 E6.93472
G1 X200.076 Y98.536 E7.03624
G1 X199.869 Y99.406 E7.09503
G1 X201.422 Y101.295 E7.25588
G1 X202.141 Y102.758 E7.36308
G1 X202.507 Y104.347 E7.47036
G1 X202.507 Y105.889 E7.57180
G1 X202.502 Y105.972 E7.57722
G1 X202.122 Y107.562 E7.68480
G1 X201.436 Y108.944 E7.78627
G1 X201.394 Y109.016 E7.79173
G1 X200.409 Y110.209 E7.89351
G1 X199.795 Y110.858 E7.95229
G1 X200.195 Y113.272 E8.11318
G1 X200.086 Y114.898 E8.22039
G1 X199.608 Y116.456 E8.32761
G1 X198.837 Y117.793 E8.42909
G1 X198.791 Y117.861 E8.43452
G1 X197.667 Y119.049 E8.54207
G1 X196.382 Y119.903 E8.64355
G1 X196.310 Y119.944 E8.64901
G1 X194.860 Y120.485 E8.75081
G1 X194.004 Y120.741 E8.80957
G1 X193.144 Y123.030 E8.97042
G1 X192.236 Y124.384 E9.07765
G1 X191.110 Y125.440 E9.17917
G1 X191.047 Y125.493 E9.18460
G1 X189.628 Y126.304 E9.29209
G1 X188.066 Y126.769 E9.39929
G1 X186.439 Y126.866 E9.50652
G1 X184.917 Y126.609 E9.60804
G1 X184.047 Y126.402 E9.66683
G1 X182.158 Y127.955 E9.82769
G1 X180.695 Y128.674 E9.93488
G1 X179.106 Y129.040 E10.04216
G1 X177.563 Y129.040 E10.14361
G1 X177.481 Y129.034 E10.14903
G1 X175.890 Y128.655 E10.25660
G1 X174.508 Y127.969 E10.35807
G1 X174.437 Y127.927 E10.36353
G1 X173.244 Y126.941 E10.46531
G1 X172.594 Y126.327 E10.52409
G1 X170.181 Y126.728 E10.68498
G1 X168.555 Y126.619 E10.79219
G1 X166.996 Y126.141 E10.89941
G1 X165.660 Y125.370 E11.00090
G1 X165.592 Y125.324 E11.00632
G1 X164.404 Y124.200 E11.11387
G1 X163.550 Y122.915 E11.21535
G1 X163.508 Y122.843 E11.22081
G1 X162.968 Y121.392 E11.32262
G1 X162.712 Y120.537 E11.38137
G1 X160.423 Y119.676 E11.54222
G1 X159.069 Y118.768 E11.64945
G1 X158.012 Y117.643 E11.75098
G1 X157.960 Y117.579 E11.75640
G1 X157.149 Y116.161 E11.86390
G1 X156.683 Y114.599 E11.97110
G1 X156.587 Y112.971 E12.07833
G1 X156.844 Y111.449 E12.17985
G1 X157.051 Y110.580 E12.23864
G1 X155.498 Y108.690 E12.39949
G1 X154.779 Y107.228 E12.50669
G1 X154.413 Y105.638 E12.61396
G1 X154.413 Y104.096 E12.71541
G1 X154.418 Y104.014 E12.72083
G1 X154.798 Y102.423 E12.82840
G1 X155.484 Y101.041 E12.92987
G1 X155.526 Y100.969 E12.93533
G1 X156.511 Y99.777 E13.03711
G1 X157.125 Y99.127 E13.09590
G1 X156.725 Y96.714 E13.25679
G1 X156.834 Y95.087 E13.36401
G1 X157.310 Y93.533 E13.47091
G1 X158.132 Y92.121 E13.57842
G1 X159.249 Y90.939 E13.68536
G1 X160.614 Y90.040 E13.79289
G1 X162.060 Y89.501 E13.89440
G1 X162.916 Y89.245 E13.95316
G1 X163.776 Y86.956 E14.11400
G1 X164.684 Y85.602 E14.22121
G1 X165.878 Y84.490 E14.32848
G1 X167.288 Y83.683 E14.43537
G1 X168.854 Y83.216 E14.54288
G1 X170.394 Y83.119 E14.64437
G1 X170.477 Y83.119 E14.64982
G1 X172.003 Y83.376 E14.75163
G1 X172.873 Y83.583 E14.81043
G1 X174.762 Y82.030 E14.97128
G1 X176.225 Y81.312 E15.07848
G1 X177.814 Y80.946 E15.18575
G1 X179.262 Y80.946 E15.28095
G1 X180.813 Y81.930 F15000.000
G1 X182.118 Y82.577 F2160.000 E15.37679
G1 X183.257 Y83.519 E15.47396
G1 X184.119 Y84.334 E15.55203
G1 X186.770 Y83.894 E15.72874
G1 X188.250 Y83.993 E15.82629
G1 X189.669 Y84.429 E15.92397
G1 X190.931 Y85.156 E16.01974
G1 X192.029 Y86.196 E16.11921
G1 X192.836 Y87.409 E16.21506
G1 X193.352 Y88.794 E16.31226
G1 X193.691 Y89.931 E16.39028
G1 X196.206 Y90.876 E16.56694
G1 X197.439 Y91.703 E16.66461
G1 X198.436 Y92.765 E16.76042
G1 X199.186 Y94.076 E16.85975
G1 X199.609 Y95.497 E16.95732
G1 X199.697 Y96.980 E17.05501
G1 X199.456 Y98.410 E17.15042
G1 X199.181 Y99.565 E17.22849
G1 X200.887 Y101.640 E17.40517
G1 X201.541 Y102.971 E17.50271
G1 X201.874 Y104.419 E17.60045
G1 X201.874 Y105.874 E17.69616
G1 X201.523 Y107.346 E17.79565
G1 X200.875 Y108.651 E17.89149
G1 X199.934 Y109.789 E17.98866
G1 X199.119 Y110.652 E18.06673
G1 X199.559 Y113.303 E18.24344
G1 X199.460 Y114.782 E18.34099
G1 X199.024 Y116.202 E18.43867
G1 X198.296 Y117.463 E18.53444
G1 X197.257 Y118.562 E18.63391
G1 X196.043 Y119.368 E18.72976
G1 X194.658 Y119.885 E18.82696
G1 X193.522 Y120.224 E18.90498
G1 X192.577 Y122.738 E19.08164
G1 X191.750 Y123.972 E19.17931
G1 X190.688 Y124.969 E19.27512
G1 X189.377 Y125.718 E19.37445
