;Generated with Cura_SteamEngine 13.07
M109 T0 S210.000000
T0
;Sliced ?filename? at: Wed 04-12-2013 10:34:59
;Basic settings: Layer height: 0.2 Walls: 0.8 Fill: 20
;Print time: #P_TIME#
;Filament used: #F_AMNT#m #F_WGHT#g
;Filament cost: #F_COST#
G21        ;metric values
G90        ;absolute positioning
M107       ;start with the fan off
;M301 P19.17 I1.08 D85.10
G28 X0 Y0  ;move X/Y to min endstops
G28 Z0     ;move Z to min endstops
G1 Z15.0 F0 ;move the platform down 15mm
G92 E0                  ;zero the extruded length
G1 F200 E3              ;extrude 3mm of feed stock
G92 E0                  ;zero the extruded length again
G1 F3000
M117 Printing...

;total_layers=50
;LAYER:0
M107
G0 F3000 X133.55 Y83.74 Z0.30
;TYPE:SKIRT
G1 F2400 E0.00000
G1 F1200 X134.38 Y82.82 E0.06160
G1 X135.64 Y82.21 E0.13188
G1 X136.24 Y82.05 E0.16259
G1 X142.71 Y81.60 E0.48605
G1 X143.34 Y81.69 E0.51811
G1 X144.74 Y82.17 E0.59177
G1 X145.70 Y83.03 E0.65643
G1 X146.35 Y84.40 E0.73207
G1 X146.50 Y85.11 E0.76803
G1 X146.48 Y87.57 E0.89066
G1 X146.47 Y87.72 E0.89821
G1 X146.25 Y89.86 E1.00575
G1 X146.21 Y90.08 E1.01689
G1 X145.25 Y93.95 E1.21585
G1 X145.16 Y94.22 E1.23003
G1 X143.52 Y97.91 E1.43136
G1 X143.42 Y98.09 E1.44158
G1 X142.26 Y99.98 E1.55224
G1 X142.19 Y100.09 E1.55868
G1 X140.94 Y101.81 E1.66480
G1 X140.87 Y101.90 E1.67055
G1 X139.60 Y103.40 E1.76874
G1 X139.12 Y104.32 E1.82026
G1 X139.03 Y104.87 E1.84836
G1 X139.15 Y105.51 E1.88088
G1 X139.72 Y106.62 E1.94293
G1 X140.97 Y108.27 E2.04639
G1 X141.01 Y108.32 E2.04914
G1 X143.44 Y111.78 E2.26008
G1 X143.60 Y112.05 E2.27601
G1 X145.26 Y115.83 E2.48200
G1 X145.34 Y116.05 E2.49366
G1 X145.89 Y118.06 E2.59734
G1 X145.92 Y118.20 E2.60475
G1 X146.28 Y120.25 E2.70847
G1 X146.30 Y120.39 E2.71552
G1 X146.48 Y122.43 E2.81752
G1 X146.48 Y122.56 E2.82397
G1 X146.50 Y124.88 E2.94001
G1 X146.35 Y125.57 E2.97492
G1 X145.73 Y126.93 E3.04982
G1 X144.77 Y127.81 E3.11450
G1 X143.38 Y128.30 E3.18798
G1 X142.75 Y128.39 E3.21993
G1 X136.28 Y128.03 E3.54328
G1 X135.68 Y127.88 E3.57406
G1 X134.40 Y127.27 E3.64494
G1 X133.55 Y126.36 E3.70719
G1 X133.07 Y125.08 E3.77509
G1 X132.97 Y124.60 E3.79990
G1 X132.84 Y122.03 E3.92788
G1 X132.68 Y121.12 E3.97421
G1 X132.44 Y120.22 E4.02054
G1 X132.10 Y119.33 E4.06804
G1 X131.71 Y118.58 E4.11033
G1 X130.44 Y116.79 E4.21997
G1 X129.25 Y115.31 E4.31480
G1 X129.18 Y115.20 E4.32123
G1 X128.09 Y113.60 E4.41758
G1 X128.01 Y113.48 E4.42494
G1 X127.13 Y111.87 E4.51616
G1 X127.07 Y111.73 E4.52412
G1 X126.39 Y110.14 E4.61047
G1 X126.32 Y109.97 E4.61959
G1 X125.86 Y108.39 E4.70153
G1 X125.81 Y108.22 E4.71035
G1 X125.53 Y106.63 E4.79107
G1 X125.50 Y106.35 E4.80514
G1 X125.49 Y103.54 E4.94508
G1 X125.50 Y103.50 E4.94743
G1 X125.50 Y103.32 E4.95641
G1 X125.52 Y103.08 E4.96840
G1 X125.81 Y101.50 E5.04813
G1 X125.85 Y101.33 E5.05716
G1 X126.31 Y99.78 E5.13753
G1 X126.38 Y99.61 E5.14692
G1 X127.05 Y98.05 E5.23145
G1 X127.12 Y97.90 E5.23991
G1 X128.01 Y96.34 E5.32941
G1 X128.10 Y96.19 E5.33807
G1 X129.20 Y94.67 E5.43148
G1 X129.29 Y94.56 E5.43879
G1 X130.42 Y93.25 E5.52515
G1 X131.62 Y91.40 E5.63544
G1 X132.40 Y89.63 E5.73187
G1 X132.83 Y87.91 E5.81997
G1 X132.98 Y85.45 E5.94299
G1 X133.08 Y84.99 E5.96650
G1 X133.55 Y83.74 E6.03326
G0 F3000 X156.05 Y96.34
G1 F1200 X156.14 Y96.19 E6.04187
G1 X157.24 Y94.67 E6.13527
G1 X157.33 Y94.56 E6.14266
G1 X158.46 Y93.25 E6.22898
G1 X159.66 Y91.40 E6.33913
G1 X160.45 Y89.62 E6.43585
G1 X160.87 Y87.92 E6.52373
G1 X161.02 Y85.45 E6.64685
G1 X161.12 Y84.99 E6.67036
G1 X161.59 Y83.74 E6.73707
G1 X162.42 Y82.82 E6.79867
G1 X163.68 Y82.21 E6.86896
G1 X164.28 Y82.05 E6.89967
G1 X170.75 Y81.60 E7.22313
G1 X171.38 Y81.69 E7.25518
G1 X172.78 Y82.17 E7.32894
G1 X173.75 Y83.04 E7.39377
G1 X174.39 Y84.41 E7.46941
G1 X174.54 Y85.11 E7.50515
G1 X174.52 Y87.57 E7.62774
G1 X174.51 Y87.72 E7.63524
G1 X174.29 Y89.86 E7.74277
G1 X174.25 Y90.08 E7.75396
G1 X173.29 Y93.95 E7.95292
G1 X173.20 Y94.22 E7.96710
G1 X171.56 Y97.91 E8.16843
G1 X171.46 Y98.09 E8.17865
G1 X170.31 Y99.98 E8.28931
G1 X170.23 Y100.09 E8.29575
G1 X168.98 Y101.81 E8.40189
G1 X168.91 Y101.90 E8.40766
G1 X167.64 Y103.41 E8.50616
G1 X167.16 Y104.32 E8.55722
G1 X167.07 Y104.88 E8.58562
G1 X167.20 Y105.51 E8.61804
G1 X167.76 Y106.61 E8.67964
G1 X169.01 Y108.27 E8.78353
G1 X169.05 Y108.32 E8.78629
G1 X171.48 Y111.78 E8.99723
G1 X171.63 Y112.05 E9.01309
G1 X173.30 Y115.83 E9.21912
G1 X173.38 Y116.05 E9.23078
G1 X173.93 Y118.06 E9.33446
G1 X173.96 Y118.20 E9.34188
G1 X174.32 Y120.25 E9.44560
G1 X174.34 Y120.39 E9.45264
G1 X174.52 Y122.43 E9.55465
G1 X174.52 Y122.56 E9.56109
G1 X174.54 Y124.88 E9.67714
G1 X174.39 Y125.57 E9.71204
G1 X173.77 Y126.93 E9.78694
G1 X172.81 Y127.81 E9.85163
G1 X171.43 Y128.30 E9.92510
G1 X170.79 Y128.39 E9.95706
G1 X164.32 Y128.03 E10.28040
G1 X163.72 Y127.88 E10.31119
G1 X162.44 Y127.27 E10.38195
G1 X161.59 Y126.36 E10.44406
G1 X161.11 Y125.09 E10.51197
G1 X161.01 Y124.60 E10.53694
G1 X160.88 Y122.03 E10.66521
G1 X160.73 Y121.12 E10.71124
G1 X160.48 Y120.22 E10.75766
G1 X160.14 Y119.33 E10.80512
G1 X159.76 Y118.58 E10.84747
G1 X158.48 Y116.79 E10.95719
G1 X157.29 Y115.31 E11.05188
G1 X157.21 Y115.20 E11.05841
G1 X156.13 Y113.60 E11.15473
G1 X156.06 Y113.48 E11.16206
G1 X155.18 Y111.87 E11.25327
G1 X155.11 Y111.73 E11.26124
G1 X154.43 Y110.14 E11.34759
G1 X154.37 Y109.97 E11.35671
G1 X153.90 Y108.39 E11.43865
G1 X153.85 Y108.22 E11.44747
G1 X153.57 Y106.63 E11.52818
G1 X153.54 Y106.35 E11.54226
G1 X153.54 Y103.54 E11.68220
G1 X153.54 Y103.50 E11.68454
G1 X153.54 Y103.32 E11.69353
G1 X153.57 Y103.08 E11.70551
G1 X153.85 Y101.50 E11.78525
G1 X153.89 Y101.33 E11.79428
G1 X154.35 Y99.79 E11.87459
G1 X154.42 Y99.61 E11.88398
G1 X155.09 Y98.05 E11.96851
G1 X155.16 Y97.90 E11.97708
G1 X156.05 Y96.34 E12.06656
G1 F2400 E10.06656
G0 F3000 X141.62 Y92.85
;TYPE:WALL-INNER
G1 F2400 E12.06656
G1 F1200 X140.10 Y96.23 E12.25141
G1 X139.07 Y97.93 E12.35071
G1 X137.92 Y99.51 E12.44797
G1 X136.42 Y101.30 E12.56483
G1 X135.50 Y103.04 E12.66260
G1 X135.47 Y103.12 E12.66733
G1 X135.17 Y104.87 E12.75569
G1 X135.17 Y104.98 E12.76123
G1 X135.52 Y106.74 E12.85052
G1 X135.55 Y106.82 E12.85468
G1 X136.48 Y108.62 E12.95591
G1 X136.50 Y108.67 E12.95852
G1 X137.93 Y110.54 E13.07612
G1 X140.21 Y113.79 E13.27384
G1 X141.71 Y117.21 E13.46049
G1 X142.20 Y118.97 E13.55144
G1 X142.52 Y120.82 E13.64513
G1 X142.68 Y122.67 E13.73798
G1 X142.70 Y124.42 E13.82534
G1 X142.65 Y124.53 E13.83132
G1 X142.52 Y124.58 E13.83784
G1 X136.92 Y124.26 E14.11786
G1 X136.80 Y124.21 E14.12426
G1 X136.75 Y124.06 E14.13189
G1 X136.62 Y121.59 E14.25552
G1 X136.40 Y120.29 E14.32132
G1 X136.05 Y119.02 E14.38720
G1 X135.57 Y117.78 E14.45339
G1 X134.96 Y116.58 E14.52057
G1 X133.46 Y114.48 E14.64896
G1 X132.27 Y113.00 E14.74386
G1 X131.30 Y111.56 E14.83069
G1 X130.52 Y110.14 E14.91165
G1 X129.93 Y108.76 E14.98617
G1 X129.53 Y107.42 E15.05591
G1 X129.30 Y106.15 E15.12061
G1 X129.29 Y103.58 E15.24843
G1 X129.53 Y102.29 E15.31381
G1 X129.91 Y101.00 E15.38132
G1 X130.49 Y99.67 E15.45358
G1 X131.26 Y98.31 E15.53137
G1 X132.22 Y96.98 E15.61330
G1 X133.48 Y95.53 E15.70922
G1 X134.99 Y93.18 E15.84820
G1 X136.02 Y90.84 E15.97621
G1 X136.60 Y88.46 E16.09803
G1 X136.76 Y86.01 E16.22070
G1 X136.81 Y85.87 E16.22831
G1 X136.92 Y85.81 E16.23469
G1 X142.53 Y85.43 E16.51499
G1 X142.65 Y85.47 E16.52143
G1 X142.70 Y85.57 E16.52727
G1 X142.68 Y87.43 E16.61982
G1 X142.49 Y89.32 E16.71487
G1 X141.62 Y92.85 E16.89599
G0 F3000 X141.99 Y92.98
;TYPE:WALL-OUTER
G1 F1200 X140.46 Y96.42 E17.08394
G1 X139.41 Y98.14 E17.18470
G1 X138.23 Y99.76 E17.28460
G1 X136.76 Y101.51 E17.39840
G1 X135.86 Y103.22 E17.49509
G1 X135.57 Y104.90 E17.58005
G1 X135.57 Y104.94 E17.58185
G1 X135.92 Y106.66 E17.66929
G1 X136.83 Y108.44 E17.76921
G1 X138.24 Y110.30 E17.88595
G1 X140.56 Y113.59 E18.08636
G1 X142.09 Y117.08 E18.27655
G1 X142.59 Y118.88 E18.36974
G1 X142.92 Y120.77 E18.46571
G1 X143.08 Y122.64 E18.55925
G1 X143.10 Y124.51 E18.65245
G1 X142.94 Y124.85 E18.67127
G1 X142.58 Y124.98 E18.69012
G1 X136.82 Y124.66 E18.97830
G1 X136.48 Y124.50 E18.99660
G1 X136.35 Y124.15 E19.01524
G1 X136.23 Y121.65 E19.14032
G1 X136.01 Y120.39 E19.20413
G1 X135.67 Y119.15 E19.26808
G1 X135.21 Y117.95 E19.33219
G1 X134.62 Y116.80 E19.39661
G1 X133.15 Y114.73 E19.52341
G1 X131.95 Y113.24 E19.61874
G1 X130.95 Y111.76 E19.70798
G1 X130.16 Y110.32 E19.79002
G1 X129.55 Y108.90 E19.86671
G1 X129.14 Y107.52 E19.93880
G1 X128.90 Y106.18 E20.00668
G1 X128.90 Y103.57 E20.13705
G1 X128.90 Y103.54 E20.13810
G1 X129.14 Y102.21 E20.20596
G1 X129.54 Y100.86 E20.27601
G1 X130.13 Y99.49 E20.35044
G1 X130.92 Y98.10 E20.43040
G1 X131.91 Y96.73 E20.51461
G1 X133.15 Y95.30 E20.60908
G1 X134.63 Y93.01 E20.74493
G1 X135.63 Y90.72 E20.86962
G1 X136.20 Y88.42 E20.98788
G1 X136.36 Y85.93 E21.11260
G1 X136.49 Y85.58 E21.13118
G1 X136.82 Y85.42 E21.14939
G1 X142.58 Y85.02 E21.43764
G1 X142.94 Y85.14 E21.45657
G1 X143.10 Y85.49 E21.47543
G1 X143.08 Y87.45 E21.57352
G1 X142.88 Y89.39 E21.67067
G1 X141.99 Y92.98 E21.85513
G0 F3000 X141.53 Y92.60
;TYPE:FILL
G1 F1200 X136.78 Y87.85 E22.19037
G0 F3000 X136.74 Y88.38
G1 F1200 X141.38 Y93.02 E22.51761
G0 F3000 X141.21 Y93.41
G1 F1200 X136.65 Y88.85 E22.83931
G0 F3000 X136.54 Y89.30
G1 F1200 X141.03 Y93.80 E23.15652
G0 F3000 X140.86 Y94.19
G1 F1200 X136.43 Y89.76 E23.46929
G0 F3000 X136.31 Y90.21
G1 F1200 X140.68 Y94.58 E23.77773
G0 F3000 X140.51 Y94.97
G1 F1200 X136.20 Y90.66 E24.08168
G0 F3000 X136.06 Y91.09
G1 F1200 X140.34 Y95.36 E24.38345
G0 F3000 X140.16 Y95.75
G1 F1200 X135.89 Y91.48 E24.68507
G0 F3000 X135.71 Y91.87
G1 F1200 X139.99 Y96.15 E24.98659
G0 F3000 X139.77 Y96.50
G1 F1200 X135.54 Y92.26 E25.28532
G0 F3000 X135.37 Y92.66
G1 F1200 X139.56 Y96.85 E25.58116
G0 F3000 X139.35 Y97.20
G1 F1200 X135.20 Y93.05 E25.87400
G0 F3000 X135.00 Y93.42
G1 F1200 X139.13 Y97.55 E26.16560
G0 F3000 X138.91 Y97.90
G1 F1200 X134.78 Y93.76 E26.45749
G0 F3000 X134.55 Y94.11
G1 F1200 X138.67 Y98.23 E26.74814
G0 F3000 X138.44 Y98.56
G1 F1200 X134.33 Y94.45 E27.03763
G0 F3000 X134.11 Y94.80
G1 F1200 X138.20 Y98.88 E27.32603
G0 F3000 X137.96 Y99.21
G1 F1200 X133.89 Y95.14 E27.61330
G0 F3000 X133.67 Y95.48
G1 F1200 X137.72 Y99.53 E27.89894
G0 F3000 X137.46 Y99.84
G1 F1200 X133.42 Y95.80 E28.18381
G0 F3000 X133.16 Y96.11
G1 F1200 X137.20 Y100.15 E28.46896
G0 F3000 X136.94 Y100.46
G1 F1200 X132.90 Y96.41 E28.75446
G0 F3000 X132.63 Y96.71
G1 F1200 X136.68 Y100.76 E29.04028
G0 F3000 X136.43 Y101.07
G1 F1200 X132.37 Y97.02 E29.32638
G0 F3000 X132.13 Y97.34
G1 F1200 X136.20 Y101.41 E29.61354
G0 F3000 X136.00 Y101.78
G1 F1200 X131.89 Y97.67 E29.90366
G0 F3000 X131.65 Y98.00
G1 F1200 X135.81 Y102.15 E30.19675
G0 F3000 X135.61 Y102.52
G1 F1200 X131.42 Y98.33 E30.49277
G0 F3000 X131.21 Y98.68
G1 F1200 X135.42 Y102.89 E30.78988
G0 F3000 X135.29 Y103.33
G1 F1200 X131.00 Y99.04 E31.09256
G0 F3000 X130.80 Y99.40
G1 F1200 X135.21 Y103.82 E31.40378
G0 F3000 X135.13 Y104.30
G1 F1200 X130.60 Y99.77 E31.72325
G0 F3000 X130.43 Y100.16
G1 F1200 X135.04 Y104.78 E32.04887
G0 F3000 X135.12 Y105.42
G1 F1200 X130.26 Y100.56 E32.39170
G0 F3000 X130.09 Y100.95
G1 F1200 X135.26 Y106.12 E32.75661
G0 F3000 X135.41 Y106.85
G1 F1200 X129.95 Y101.38 E33.14233
G0 F3000 X129.82 Y101.81
G1 F1200 X136.00 Y108.00 E33.57851
G0 F3000 X137.03 Y109.59
G1 F1200 X129.68 Y102.25 E34.09667
G0 F3000 X129.59 Y102.72
G1 F1200 X138.56 Y111.69 E34.72927
G0 F3000 X139.90 Y113.60
G1 F1200 X129.50 Y103.20 E35.46280
G0 F3000 X129.43 Y103.69
G1 F1200 X140.47 Y114.73 E36.24127
G0 F3000 X140.91 Y115.74
G1 F1200 X129.43 Y104.26 E37.05096
G0 F3000 X129.44 Y104.83
G1 F1200 X141.35 Y116.75 E37.89177
G0 F3000 X141.68 Y117.64
G1 F1200 X129.44 Y105.40 E38.75579
G0 F3000 X129.44 Y105.96
G1 F1200 X141.90 Y118.42 E39.63484
G0 F3000 X142.09 Y119.18
G1 F1200 X129.53 Y106.62 E40.52119
G0 F3000 X129.65 Y107.31
G1 F1200 X142.21 Y119.87 E41.40730
G0 F3000 X142.33 Y120.55
G1 F1200 X129.88 Y108.10 E42.28614
G0 F3000 X130.16 Y108.94
G1 F1200 X142.41 Y121.20 E43.15094
G0 F3000 X142.47 Y121.82
G1 F1200 X130.58 Y109.93 E43.98984
G0 F3000 X131.23 Y111.15
G1 F1200 X142.52 Y122.44 E44.78676
G0 F3000 X142.54 Y123.03
G1 F1200 X132.29 Y112.77 E45.51052
G0 F3000 X134.13 Y115.18
G1 F1200 X142.55 Y123.60 E46.10435
G0 F3000 X142.55 Y124.17
G1 F1200 X135.27 Y116.88 E46.61820
G0 F3000 X135.80 Y117.98
G1 F1200 X142.24 Y124.42 E47.07247
G0 F3000 X141.64 Y124.39
G1 F1200 X136.15 Y118.90 E47.45947
G0 F3000 X136.38 Y119.69
G1 F1200 X141.04 Y124.35 E47.78847
G0 F3000 X140.44 Y124.32
G1 F1200 X136.56 Y120.44 E48.06187
G0 F3000 X136.68 Y121.13
G1 F1200 X139.84 Y124.28 E48.28462
G0 F3000 X139.24 Y124.25
G1 F1200 X136.77 Y121.78 E48.45882
G0 F3000 X136.80 Y122.38
G1 F1200 X138.64 Y124.22 E48.58864
G0 F3000 X138.04 Y124.18
G1 F1200 X136.83 Y122.97 E48.67405
G0 F3000 X136.86 Y123.57
G1 F1200 X137.44 Y124.15 E48.71508
G0 F3000 X135.17 Y104.87
G0 X135.50 Y103.04
G0 X136.45 Y101.25
G0 X141.64 Y92.14
G1 F1200 X136.81 Y87.31 E49.05589
G0 F3000 X136.85 Y86.78
G1 F1200 X141.76 Y91.69 E49.40228
G0 F3000 X141.87 Y91.24
G1 F1200 X136.88 Y86.25 E49.75429
G0 F3000 X137.13 Y85.94
G1 F1200 X141.98 Y90.78 E50.09627
G0 F3000 X142.09 Y90.33
G1 F1200 X137.66 Y85.90 E50.40890
G0 F3000 X138.19 Y85.86
G1 F1200 X142.20 Y89.88 E50.69211
G0 F3000 X142.32 Y89.42
G1 F1200 X138.72 Y85.83 E50.94586
G0 F3000 X139.25 Y85.79
G1 F1200 X142.39 Y88.93 E51.16723
G0 F3000 X142.44 Y88.42
G1 F1200 X139.78 Y85.75 E51.35498
G0 F3000 X140.31 Y85.72
G1 F1200 X142.49 Y87.90 E51.50917
G0 F3000 X142.54 Y87.39
G1 F1200 X140.84 Y85.68 E51.62951
G0 F3000 X141.37 Y85.64
G1 F1200 X142.55 Y86.83 E51.71290
G0 F3000 X142.55 Y86.27
G1 F1200 X141.90 Y85.61 E51.75929
G0 F3000 X142.42 Y85.57
G1 F1200 X142.56 Y85.71 E51.76871
G1 F2400 E49.76871
G0 F3000 X159.30 Y98.31
;TYPE:WALL-INNER
G1 F2400 E51.76871
G1 F1200 X160.26 Y96.98 E51.85061
G1 X161.52 Y95.53 E51.94657
G1 X163.03 Y93.19 E52.08548
G1 X164.06 Y90.84 E52.21355
G1 X164.64 Y88.46 E52.33536
G1 X164.80 Y86.01 E52.45803
G1 X164.85 Y85.87 E52.46564
G1 X164.96 Y85.81 E52.47202
G1 X170.57 Y85.43 E52.75232
G1 X170.69 Y85.47 E52.75871
G1 X170.74 Y85.57 E52.76456
G1 X170.72 Y87.43 E52.85711
G1 X170.53 Y89.32 E52.95215
G1 X169.66 Y92.85 E53.13327
G1 X168.15 Y96.23 E53.31811
G1 X167.11 Y97.93 E53.41742
G1 X165.96 Y99.51 E53.51468
G1 X164.46 Y101.30 E53.63161
G1 X163.54 Y103.04 E53.72936
G1 X163.51 Y103.12 E53.73404
G1 X163.21 Y104.87 E53.82240
G1 X163.21 Y104.98 E53.82794
G1 X163.57 Y106.74 E53.91724
G1 X163.59 Y106.81 E53.92136
G1 X164.54 Y108.67 E54.02523
G1 X165.96 Y110.53 E54.14179
G1 X168.25 Y113.79 E54.34046
G1 X169.75 Y117.21 E54.52730
G1 X170.24 Y118.97 E54.61815
G1 X170.56 Y120.82 E54.71183
G1 X170.73 Y122.67 E54.80468
G1 X170.74 Y124.42 E54.89204
G1 X170.69 Y124.53 E54.89802
G1 X170.56 Y124.58 E54.90454
G1 X164.96 Y124.26 E55.18456
G1 X164.84 Y124.21 E55.19103
G1 X164.79 Y124.07 E55.19857
G1 X164.66 Y121.59 E55.32225
G1 X164.44 Y120.29 E55.38804
G1 X164.09 Y119.02 E55.45391
G1 X163.61 Y117.78 E55.52017
G1 X163.00 Y116.58 E55.58735
G1 X161.51 Y114.48 E55.71571
G1 X160.31 Y112.99 E55.81103
G1 X159.34 Y111.56 E55.89740
G1 X158.56 Y110.14 E55.97837
G1 X157.97 Y108.76 E56.05289
G1 X157.57 Y107.42 E56.12263
G1 X157.34 Y106.15 E56.18733
G1 X157.34 Y103.58 E56.31514
G1 X157.57 Y102.29 E56.38053
G1 X157.96 Y101.00 E56.44803
G1 X158.53 Y99.67 E56.52028
G1 X159.30 Y98.31 E56.59809
G0 F3000 X158.96 Y98.10
;TYPE:WALL-OUTER
G1 F1200 X159.95 Y96.73 E56.68228
G1 X161.19 Y95.30 E56.77677
G1 X162.67 Y93.01 E56.91260
G1 X163.68 Y90.72 E57.03731
G1 X164.24 Y88.42 E57.15556
G1 X164.40 Y85.93 E57.28028
G1 X164.53 Y85.58 E57.29886
G1 X164.86 Y85.42 E57.31707
G1 X170.62 Y85.02 E57.60532
G1 X170.98 Y85.14 E57.62425
G1 X171.14 Y85.49 E57.64309
G1 X171.12 Y87.45 E57.74117
G1 X170.92 Y89.39 E57.83833
G1 X170.04 Y92.98 E58.02278
G1 X168.50 Y96.42 E58.21073
G1 X167.45 Y98.14 E58.31149
G1 X166.27 Y99.76 E58.41140
G1 X164.80 Y101.51 E58.52523
G1 X163.90 Y103.22 E58.62190
G1 X163.61 Y104.90 E58.70686
G1 X163.61 Y104.94 E58.70866
G1 X163.96 Y106.66 E58.79611
G1 X164.87 Y108.44 E58.89603
G1 X166.28 Y110.30 E59.01241
